; generated by Slic3r 1.2.9 on 2017-01-28 at 21:01:03

; external perimeters extrusion width = 0.40mm
; perimeters extrusion width = 0.48mm
; infill extrusion width = 0.48mm
; solid infill extrusion width = 0.48mm
; top infill extrusion width = 0.48mm

M104 S190 ; set temperature
G28 ; home all axes
G1 Z5 F5000 ; lift nozzle

M109 S190 ; wait for temperature to be reached
G21 ; set units to millimeters
G90 ; use absolute coordinates
M83 ; use relative distances for extrusion
G1 Z0.240 F7800.000
;G1 X34.718 Y60.667 F7800.000 ; replaced by represure
G1 X32.2345479706 Y56.3273610729 Z0.24 ; travel partially
G1 X34.718 Y60.667 E0.5 F600; long travel extraShot
G1 X71.718 Y41.996 E1.77196 F1800.000
G1 X75.000 Y41.215 E0.14425
G1 X115.000 Y41.215 E1.71022
G1 X118.284 Y41.997 E0.14433
G1 X155.281 Y60.678 E1.77203
G1 X157.220 Y62.102 E0.10287
G1 X158.589 Y64.080 E0.10287
G1 X159.240 Y66.396 E0.10287
G1 X158.879 Y69.571 E0.13663
G1 X155.382 Y79.640 E0.45572
G1 X154.228 Y81.751 E0.10287
G1 X152.450 Y83.372 E0.10287
G1 X151.352 Y83.954 E0.05315
G1 X117.852 Y98.204 E1.55651
G1 X115.000 Y98.785 E0.12444
G1 X75.000 Y98.785 E1.71022
G1 X72.148 Y98.204 E0.12444
G1 X38.648 Y83.954 E1.55651
G1 X36.620 Y82.660 E0.10287
G1 X35.124 Y80.775 E0.10287
G1 X34.618 Y79.640 E0.05316
G1 X31.118 Y69.561 E0.45618
G1 X30.715 Y67.189 E0.10287
G1 X31.106 Y64.815 E0.10287
G1 X32.249 Y62.698 E0.10287
;G1 X34.671 Y60.705 E0.13413 ; replaced by coast
G1 X34.671 Y60.705 Z0.24 E-0.156828991261; coast(3.13657982522) & retract
G1 X34.671 Y60.705 Z0.24 E-0.3; & endwipe
;G1 X34.911 Y61.049 F7800.000 ; replaced by represure
G1 X34.851 Y60.963 Z0.24 ; travel partially
G1 X34.911 Y61.049 E0.456828991261 F600; tipRepresure
G1 X71.911 Y42.378 E1.77196 F1800.000
G1 X75.000 Y41.643 E0.13577
G1 X115.000 Y41.643 E1.71022
G1 X118.091 Y42.379 E0.13584
G1 X155.088 Y61.060 E1.77203
G1 X156.961 Y62.451 E0.09977
G1 X158.260 Y64.390 E0.09977
G1 X158.833 Y66.652 E0.09977
G1 X158.474 Y69.431 E0.11980
G1 X154.977 Y79.500 E0.45572
G1 X153.848 Y81.542 E0.09977
G1 X151.184 Y83.560 E0.14289
G1 X117.684 Y97.810 E1.55651
G1 X115.000 Y98.357 E0.11712
G1 X75.000 Y98.357 E1.71022
G1 X72.316 Y97.810 E0.11712
G1 X38.816 Y83.560 E1.55651
G1 X36.855 Y82.294 E0.09977
G1 X35.022 Y79.499 E0.14290
G1 X31.522 Y69.420 E0.45618
G1 X31.143 Y67.118 E0.09977
G1 X31.558 Y64.821 E0.09977
G1 X32.719 Y62.797 E0.09977
;G1 X34.864 Y61.087 E0.11729 ; replaced by coast
G1 X34.864 Y61.087 Z0.24 E-0.13715980643; coast(2.74319612861) & retract
G1 X34.864 Y61.087 Z0.24 E-0.3; & endwipe
;G1 X35.104 Y61.432 F7800.000 ; replaced by represure
G1 X35.044 Y61.34575 Z0.24 ; travel partially
G1 X35.104 Y61.432 E0.43715980643 F600; tipRepresure
G1 X72.104 Y42.761 E1.77196 F1800.000
G1 X75.000 Y42.072 E0.12728
G1 X115.000 Y42.072 E1.71022
G1 X117.898 Y42.762 E0.12735
G1 X154.894 Y61.443 E1.77203
G1 X156.701 Y62.799 E0.09658
G1 X157.926 Y64.697 E0.09658
G1 X158.419 Y66.901 E0.09658
G1 X158.070 Y69.290 E0.10322
G1 X154.573 Y79.359 E0.45572
G1 X153.468 Y81.330 E0.09658
G1 X151.016 Y83.166 E0.13096
G1 X117.516 Y97.416 E1.55651
G1 X115.000 Y97.928 E0.10980
G1 X75.000 Y97.928 E1.71022
G1 X72.484 Y97.416 E0.10980
G1 X38.984 Y83.166 E1.55651
G1 X37.093 Y81.930 E0.09658
G1 X35.427 Y79.359 E0.13097
G1 X31.927 Y69.280 E0.45618
G1 X31.573 Y67.049 E0.09658
G1 X32.012 Y64.833 E0.09658
G1 X33.190 Y62.906 E0.09658
;G1 X35.056 Y61.468 E0.10071 ; replaced by coast
G1 X35.056 Y61.468 Z0.24 E-0.117790067493; coast(2.35580134986) & retract
G1 X35.056 Y61.468 Z0.24 E-0.3; & endwipe
;G1 X112.329 Y86.722 F7800.000 ; replaced by represure
G1 X107.576372132 Y85.1687684163 Z0.24 ; travel partially
G1 X112.329 Y86.722 E0.417790067493 F600; tipRepresure
G1 X112.329 Y86.722 E0.5 F600; long travel extraShot
G1 X111.494 Y87.664 E0.05382 F300.000
G1 X110.317 Y88.111 E0.05382
G1 X109.067 Y87.959 E0.05382
G1 X108.032 Y87.244 E0.05381
G1 X107.447 Y86.129 E0.05382
G1 X107.447 Y84.871 E0.05382
G1 X108.032 Y83.756 E0.05382
G1 X109.067 Y83.041 E0.05381
G1 X110.294 Y82.892 E0.05281
G1 X111.490 Y83.331 E0.05447
G1 X112.329 Y84.278 E0.05409
G1 X112.630 Y85.500 E0.05382
;G1 X112.343 Y86.664 E0.05125 ; replaced by coast
G1 X112.343 Y86.664 Z0.24 E-0.0599429937524; coast(1.19885987505) & retract
G1 X112.343 Y86.664 Z0.24 E-0.3; & endwipe
;G1 X111.938 Y86.517 F7800.000 ; replaced by represure
G1 X112.03925 Y86.55375 Z0.24 ; travel partially
G1 X111.938 Y86.517 E0.359942993752 F600; tipRepresure
G1 X111.243 Y87.301 E0.04479 F300.000
G1 X110.264 Y87.673 E0.04479
G1 X109.224 Y87.546 E0.04479
G1 X108.362 Y86.951 E0.04478
G1 X107.875 Y86.024 E0.04479
G1 X107.875 Y84.976 E0.04479
G1 X108.362 Y84.049 E0.04479
G1 X109.224 Y83.454 E0.04478
G1 X110.243 Y83.330 E0.04388
G1 X111.241 Y83.696 E0.04544
G1 X111.938 Y84.483 E0.04495
G1 X112.189 Y85.500 E0.04479
;G1 X111.952 Y86.459 E0.04222 ; replaced by coast
G1 X111.952 Y86.459 Z0.24 E-0.0493925601685; coast(0.98785120337) & retract
G1 X111.952 Y86.459 Z0.24 E-0.3; & endwipe
;G1 X111.547 Y86.312 F7800.000 ; replaced by represure
G1 X111.64825 Y86.34875 Z0.24 ; travel partially
G1 X111.547 Y86.312 E0.349392560169 F600; tipRepresure
G1 X110.993 Y86.938 E0.03575 F300.000
G1 X110.211 Y87.234 E0.03576
G1 X109.380 Y87.134 E0.03575
G1 X108.692 Y86.659 E0.03575
G1 X108.304 Y85.918 E0.03575
G1 X108.304 Y85.082 E0.03576
G1 X108.692 Y84.341 E0.03575
G1 X109.380 Y83.866 E0.03575
G1 X110.192 Y83.768 E0.03496
G1 X110.992 Y84.061 E0.03641
G1 X111.547 Y84.688 E0.03581
G1 X111.747 Y85.500 E0.03575
;G1 X111.561 Y86.254 E0.03319 ; replaced by coast
G1 X111.561 Y86.254 Z0.24 E-0.0388301429305; coast(0.776602858609) & retract
G1 X111.561 Y86.254 Z0.24 E-0.3; & endwipe
G1 X111.733 Y86.666 F7800.000
;G1 X110.317 Y57.111 F7800.000 ; replaced by represure
G1 X110.556278908 Y62.1052712786 Z0.24 ; travel partially
G1 X110.317 Y57.111 E0.33883014293 F600; tipRepresure
G1 X110.317 Y57.111 E0.5 F600; long travel extraShot
G1 X109.067 Y56.959 E0.05382 F300.000
G1 X108.032 Y56.244 E0.05381
G1 X107.447 Y55.129 E0.05382
G1 X107.447 Y53.871 E0.05382
G1 X108.032 Y52.756 E0.05382
G1 X109.067 Y52.041 E0.05381
G1 X110.294 Y51.892 E0.05281
G1 X111.490 Y52.331 E0.05447
G1 X112.329 Y53.278 E0.05409
G1 X112.630 Y54.500 E0.05382
G1 X112.329 Y55.722 E0.05382
G1 X111.494 Y56.664 E0.05382
;G1 X110.373 Y57.089 E0.05125 ; replaced by coast
G1 X110.373 Y57.089 Z0.24 E-0.0599430146055; coast(1.19886029211) & retract
G1 X110.373 Y57.089 Z0.24 E-0.3; & endwipe
;G1 X110.264 Y56.673 F7800.000 ; replaced by represure
G1 X110.29125 Y56.777 Z0.24 ; travel partially
G1 X110.264 Y56.673 E0.359943014606 F600; tipRepresure
G1 X109.224 Y56.546 E0.04479 F300.000
G1 X108.362 Y55.951 E0.04478
G1 X107.875 Y55.024 E0.04479
G1 X107.875 Y53.976 E0.04479
G1 X108.362 Y53.049 E0.04479
G1 X109.224 Y52.454 E0.04478
G1 X110.243 Y52.330 E0.04388
G1 X111.241 Y52.696 E0.04544
G1 X111.938 Y53.483 E0.04495
G1 X112.189 Y54.500 E0.04479
G1 X111.938 Y55.517 E0.04479
G1 X111.243 Y56.301 E0.04479
;G1 X110.320 Y56.651 E0.04222 ; replaced by coast
G1 X110.32 Y56.651 Z0.24 E-0.0493565851736; coast(0.987131703472) & retract
G1 X110.32 Y56.651 Z0.24 E-0.3; & endwipe
;G1 X110.211 Y56.234 F7800.000 ; replaced by represure
G1 X110.23825 Y56.33825 Z0.24 ; travel partially
G1 X110.211 Y56.234 E0.349356585174 F600; tipRepresure
G1 X109.380 Y56.134 E0.03575 F300.000
G1 X108.692 Y55.659 E0.03575
G1 X108.304 Y54.918 E0.03575
G1 X108.304 Y54.082 E0.03576
G1 X108.692 Y53.341 E0.03575
G1 X109.380 Y52.866 E0.03575
G1 X110.192 Y52.768 E0.03496
G1 X110.992 Y53.061 E0.03641
G1 X111.547 Y53.688 E0.03581
G1 X111.747 Y54.500 E0.03576
G1 X111.547 Y55.312 E0.03576
G1 X110.993 Y55.938 E0.03575
;G1 X110.267 Y56.213 E0.03319 ; replaced by coast
G1 X110.267 Y56.213 Z0.24 E-0.0388169099749; coast(0.776338199498) & retract
G1 X110.267 Y56.213 Z0.24 E-0.3; & endwipe
G1 X110.025 Y56.589 F7800.000
;G1 X113.903 Y49.597 F7800.000 ; replaced by represure
G1 X111.477865535 Y53.9694961781 Z0.24 ; travel partially
G1 X113.903 Y49.597 E0.338816909975 F600; tipRepresure
G1 X113.903 Y90.403 E1.74468 F600.000
G1 X106.097 Y90.403 E0.33375
G1 X106.097 Y49.597 E1.74468
;G1 X113.843 Y49.597 E0.33118 ; replaced by coast
G1 X108.843 Y49.597 E0.33118 ; extrude all
G1 X113.843 Y49.597 Z0.24 E-0.25; coast(5) & retract
G1 X113.843 Y49.597 Z0.24 E-0.3; & endwipe
;G1 X114.332 Y49.168 F7800.000 ; replaced by represure
G1 X114.20975 Y49.27525 Z0.24 ; travel partially
G1 X114.332 Y49.168 E0.05; represure(0.05,0.162627257863)
G1 X114.332 Y49.168 E0.5 F600; tipRepresure
G1 X114.332 Y90.832 E1.78132 F600.000
G1 X105.668 Y90.832 E0.37039
G1 X105.668 Y49.168 E1.78132
;G1 X114.272 Y49.168 E0.36783 ; replaced by coast
G1 X109.272 Y49.168 E0.36783 ; extrude all
G1 X114.272 Y49.168 Z0.24 E-0.25; coast(5) & retract
G1 X114.272 Y49.168 Z0.24 E-0.3; & endwipe
;G1 X114.760 Y48.740 F7800.000 ; replaced by represure
G1 X114.638 Y48.847 Z0.24 ; travel partially
G1 X114.76 Y48.74 E0.05; represure(0.05,0.162274458865)
G1 X114.76 Y48.74 E0.5 F600; tipRepresure
G1 X114.760 Y91.260 E1.81796 F600.000
G1 X105.240 Y91.260 E0.40703
G1 X105.240 Y48.740 E1.81796
;G1 X114.700 Y48.740 E0.40447 ; replaced by coast
G1 X109.7 Y48.74 E0.40447 ; extrude all
G1 X114.7 Y48.74 Z0.24 E-0.25; coast(5) & retract
G1 X114.7 Y48.74 Z0.24 E-0.3; & endwipe
G1 X114.560 Y49.086 F7800.000
;G1 X113.693 Y50.029 F7800.000 ; replaced by represure
G1 X113.90975 Y49.79325 Z0.24 ; travel partially
G1 X113.693 Y50.029 E0.05; represure(0.05,0.320247755652)
G1 X113.693 Y50.029 E0.5 F600; tipRepresure
G1 X113.471 Y49.807 E0.01343 F600.000
G1 X112.864 Y49.807 E0.02597
G1 X113.693 Y50.636 E0.05016
G1 X113.693 Y51.243 E0.02597
G1 X112.257 Y49.807 E0.08690
G1 X111.651 Y49.807 E0.02597
G1 X113.693 Y51.849 E0.12363
G1 X113.693 Y52.456 E0.02597
G1 X111.044 Y49.807 E0.16036
G1 X110.437 Y49.807 E0.02597
G1 X113.693 Y53.063 E0.19710
G1 X113.693 Y53.670 E0.02597
G1 X109.830 Y49.807 E0.23383
G1 X109.223 Y49.807 E0.02597
;G1 X111.480 Y52.064 E0.13661 ; replaced by coast
G1 X111.48 Y52.064 Z0.24 E-0.159594000514; coast(3.19188001028) & retract
G1 X111.48 Y52.064 Z0.24 E-0.3; & endwipe
;G1 X110.522 Y51.712 F7800.000 ; replaced by represure
G1 X110.7615 Y51.8 Z0.24 ; travel partially
G1 X110.522 Y51.712 E0.459594000514 F600; tipRepresure
G1 X108.617 Y49.807 E0.11533 F600.000
G1 X108.010 Y49.807 E0.02597
G1 X109.936 Y51.734 E0.11663
G1 X109.395 Y51.800 E0.02333
G1 X107.403 Y49.807 E0.12061
G1 X106.796 Y49.807 E0.02597
G1 X108.920 Y51.931 E0.12854
G1 X108.561 Y52.178 E0.01867
G1 X106.307 Y49.925 E0.13641
G1 X106.307 Y50.532 E0.02597
G1 X108.202 Y52.426 E0.11468
G1 X107.863 Y52.694 E0.01849
G1 X106.307 Y51.139 E0.09415
G1 X106.307 Y51.745 E0.02597
G1 X107.654 Y53.092 E0.08150
G1 X107.445 Y53.490 E0.01924
G1 X106.307 Y52.352 E0.06886
G1 X106.307 Y52.959 E0.02597
G1 X107.236 Y53.888 E0.05623
G1 X107.236 Y54.494 E0.02597
G1 X106.307 Y53.566 E0.05623
G1 X106.307 Y54.172 E0.02597
;G1 X107.236 Y55.101 E0.05623 ; replaced by coast
G1 X107.236 Y55.101 Z0.24 E-0.0656902199722; coast(1.31380439944) & retract
G1 X107.236 Y55.101 Z0.24 E-0.3; & endwipe
;G1 X106.307 Y55.386 F7800.000 ; replaced by represure
G1 X106.53925 Y55.31475 Z0.24 ; travel partially
G1 X106.307 Y55.386 E0.365690219972 F600; tipRepresure
G1 X113.693 Y62.771 E0.44711 F600.000
G1 X113.693 Y63.378 E0.02597
G1 X106.307 Y55.993 E0.44711
G1 X106.307 Y56.599 E0.02597
G1 X113.693 Y63.985 E0.44711
G1 X113.693 Y64.591 E0.02597
G1 X106.307 Y57.206 E0.44711
G1 X106.307 Y57.813 E0.02597
G1 X113.693 Y65.198 E0.44711
G1 X113.693 Y65.805 E0.02597
G1 X106.307 Y58.420 E0.44711
G1 X106.307 Y59.026 E0.02597
G1 X113.693 Y66.412 E0.44711
G1 X113.693 Y67.018 E0.02597
G1 X106.307 Y59.633 E0.44711
G1 X106.307 Y60.240 E0.02597
G1 X113.693 Y67.625 E0.44711
G1 X113.693 Y68.232 E0.02597
G1 X106.307 Y60.847 E0.44711
G1 X106.307 Y61.453 E0.02597
G1 X113.693 Y68.839 E0.44711
G1 X113.693 Y69.445 E0.02597
G1 X106.307 Y62.060 E0.44711
G1 X106.307 Y62.667 E0.02597
G1 X113.693 Y70.052 E0.44711
G1 X113.693 Y70.659 E0.02597
G1 X106.307 Y63.274 E0.44711
G1 X106.307 Y63.880 E0.02597
G1 X113.693 Y71.266 E0.44711
G1 X113.693 Y71.872 E0.02597
G1 X106.307 Y64.487 E0.44711
G1 X106.307 Y65.094 E0.02597
G1 X113.693 Y72.479 E0.44711
G1 X113.693 Y73.086 E0.02597
G1 X106.307 Y65.701 E0.44711
G1 X106.307 Y66.307 E0.02597
G1 X113.693 Y73.693 E0.44711
G1 X113.693 Y74.299 E0.02597
G1 X106.307 Y66.914 E0.44711
G1 X106.307 Y67.521 E0.02597
G1 X113.693 Y74.906 E0.44711
G1 X113.693 Y75.513 E0.02597
G1 X106.307 Y68.128 E0.44711
G1 X106.307 Y68.734 E0.02597
G1 X113.693 Y76.120 E0.44711
G1 X113.693 Y76.726 E0.02597
G1 X106.307 Y69.341 E0.44711
G1 X106.307 Y69.948 E0.02597
G1 X113.693 Y77.333 E0.44711
G1 X113.693 Y77.940 E0.02597
G1 X106.307 Y70.555 E0.44711
G1 X106.307 Y71.161 E0.02597
G1 X113.693 Y78.547 E0.44711
G1 X113.693 Y79.153 E0.02597
G1 X106.307 Y71.768 E0.44711
G1 X106.307 Y72.375 E0.02597
G1 X113.693 Y79.760 E0.44711
G1 X113.693 Y80.367 E0.02597
G1 X106.307 Y72.982 E0.44711
G1 X106.307 Y73.589 E0.02597
G1 X113.693 Y80.974 E0.44711
G1 X113.693 Y81.580 E0.02597
G1 X106.307 Y74.195 E0.44711
G1 X106.307 Y74.802 E0.02597
G1 X113.693 Y82.187 E0.44711
G1 X113.693 Y82.794 E0.02597
G1 X106.307 Y75.409 E0.44711
G1 X106.307 Y76.016 E0.02597
G1 X113.693 Y83.401 E0.44711
G1 X113.693 Y84.007 E0.02597
G1 X106.307 Y76.622 E0.44711
G1 X106.307 Y77.229 E0.02597
G1 X113.693 Y84.614 E0.44711
G1 X113.693 Y85.221 E0.02597
G1 X112.498 Y84.026 E0.07233
G1 X112.710 Y84.845 E0.03623
G1 X113.693 Y85.828 E0.05946
G1 X113.693 Y86.434 E0.02597
G1 X112.813 Y85.555 E0.05323
G1 X112.693 Y86.042 E0.02146
G1 X113.693 Y87.041 E0.06050
G1 X113.693 Y87.648 E0.02597
G1 X112.573 Y86.529 E0.06776
G1 X112.372 Y86.934 E0.01938
G1 X113.693 Y88.255 E0.07995
G1 X113.693 Y88.861 E0.02597
G1 X112.087 Y87.256 E0.09721
G1 X111.802 Y87.578 E0.01840
G1 X113.693 Y89.468 E0.11446
G1 X113.693 Y90.075 E0.02597
G1 X111.483 Y87.865 E0.13377
G1 X111.043 Y88.032 E0.02014
G1 X113.203 Y90.193 E0.13079
G1 X112.597 Y90.193 E0.02597
G1 X110.603 Y88.199 E0.12069
G1 X110.106 Y88.309 E0.02179
G1 X111.990 Y90.193 E0.11405
G1 X111.383 Y90.193 E0.02597
;G1 X109.416 Y88.225 E0.11913 ; replaced by coast
G1 X109.416 Y88.225 Z0.24 E-0.139123263691; coast(2.78246527382) & retract
G1 X109.416 Y88.225 Z0.24 E-0.3; & endwipe
;G1 X108.465 Y87.881 F7800.000 ; replaced by represure
G1 X108.70275 Y87.967 Z0.24 ; travel partially
G1 X108.465 Y87.881 E0.439123263691 F600; tipRepresure
G1 X110.776 Y90.193 E0.13995 F600.000
G1 X110.170 Y90.193 E0.02597
G1 X106.307 Y86.330 E0.23383
G1 X106.307 Y85.724 E0.02597
;G1 X107.631 Y87.047 E0.08015 ; replaced by coast
G1 X107.631 Y87.047 Z0.24 E-0.0935855891684; coast(1.87171178337) & retract
G1 X107.631 Y87.047 Z0.24 E-0.3; & endwipe
;G1 X107.236 Y86.046 F7800.000 ; replaced by represure
G1 X107.33475 Y86.29625 Z0.24 ; travel partially
G1 X107.236 Y86.046 E0.393585589168 F600; tipRepresure
G1 X106.307 Y85.117 E0.05623 F600.000
G1 X106.307 Y84.510 E0.02597
G1 X107.236 Y85.439 E0.05623
G1 X107.255 Y84.851 E0.02517
G1 X106.307 Y83.903 E0.05738
G1 X106.307 Y83.297 E0.02597
G1 X107.464 Y84.453 E0.07002
G1 X107.673 Y84.055 E0.01924
G1 X106.307 Y82.690 E0.08266
G1 X106.307 Y82.083 E0.02597
G1 X107.882 Y83.657 E0.09531
G1 X108.235 Y83.403 E0.01861
G1 X106.307 Y81.476 E0.11667
G1 X106.307 Y80.870 E0.02597
G1 X108.594 Y83.156 E0.13841
G1 X108.953 Y82.908 E0.01867
G1 X106.307 Y80.263 E0.16014
G1 X106.307 Y79.656 E0.02597
G1 X109.445 Y82.794 E0.18996
G1 X109.986 Y82.728 E0.02333
G1 X106.307 Y79.049 E0.22271
G1 X106.307 Y78.443 E0.02597
;G1 X110.610 Y82.745 E0.26046 ; replaced by coast
G1 X107.074055248 Y79.2098769877 E0.26046 ; extrude all
G1 X110.61 Y82.745 Z0.24 E-0.25; coast(5) & retract
G1 X110.61 Y82.745 Z0.24 E-0.3; & endwipe
;G1 X111.568 Y83.096 F7800.000 ; replaced by represure
G1 X111.3285 Y83.00825 Z0.24 ; travel partially
G1 X111.568 Y83.096 E0.05; represure(0.05,0.255069230798)
G1 X111.568 Y83.096 E0.5 F600; tipRepresure
;G1 X106.307 Y77.836 E0.31847 F600.000 ; replaced by coast
G1 X109.842869935 Y81.3711978445 E0.31847 ; extrude all
