; generated by Slic3r 1.2.9 on 2017-01-28 at 17:34:27

; external perimeters extrusion width = 0.40mm
; perimeters extrusion width = 0.48mm
; infill extrusion width = 0.48mm
; solid infill extrusion width = 0.48mm
; top infill extrusion width = 0.48mm

M104 S190 ; set temperature
G28 ; home all axes
G1 Z5 F5000 ; lift nozzle

M109 S190 ; wait for temperature to be reached
G21 ; set units to millimeters
G90 ; use absolute coordinates
M83 ; use relative distances for extrusion
G1 Z0.240 F7800.000
G1 X49.035 Y51.828 F7800.000
G1 X51.241 Y50.870 E0.10287 F1800.000
G1 X53.000 Y50.654 E0.07575
G1 X137.000 Y50.654 E3.59146
G1 X139.373 Y51.052 E0.10287
G1 X141.487 Y52.200 E0.10287
G1 X143.112 Y53.975 E0.10287
G1 X144.070 Y56.181 E0.10287
G1 X144.285 Y57.940 E0.07575
G1 X144.285 Y72.008 E0.60149
G1 X144.059 Y73.812 E0.07772
G1 X141.892 Y82.291 E0.37417
G1 X141.743 Y82.798 E0.02260
G1 X140.409 Y86.785 E0.17975
G1 X139.280 Y88.909 E0.10287
G1 X137.520 Y90.550 E0.10287
G1 X135.322 Y91.528 E0.10287
G1 X133.500 Y91.759 E0.07853
G1 X56.500 Y91.759 E3.29217
G1 X54.127 Y91.362 E0.10287
G1 X52.013 Y90.214 E0.10287
G1 X50.388 Y88.439 E0.10287
G1 X49.591 Y86.785 E0.07853
G1 X48.257 Y82.798 E0.17975
G1 X48.108 Y82.291 E0.02261
G1 X45.941 Y73.812 E0.37417
G1 X45.715 Y72.008 E0.07772
G1 X45.715 Y57.940 E0.60149
G1 X46.112 Y55.567 E0.10287
G1 X47.260 Y53.453 E0.10287
G1 X48.990 Y51.869 E0.10030
G1 X49.446 Y52.076 F7800.000
G1 X51.619 Y51.224 E0.09977 F1800.000
G1 X53.000 Y51.083 E0.05937
G1 X137.000 Y51.083 E3.59146
G1 X139.300 Y51.480 E0.09977
G1 X141.333 Y52.625 E0.09977
G1 X142.864 Y54.386 E0.09977
G1 X143.716 Y56.558 E0.09977
G1 X143.857 Y57.940 E0.05937
G1 X143.857 Y72.008 E0.60149
G1 X143.644 Y73.706 E0.07315
G1 X141.477 Y82.184 E0.37417
G1 X141.336 Y82.662 E0.02128
G1 X140.003 Y86.649 E0.17975
G1 X138.897 Y88.704 E0.09977
G1 X137.166 Y90.269 E0.09977
G1 X135.010 Y91.163 E0.09977
G1 X133.500 Y91.331 E0.06498
G1 X56.500 Y91.331 E3.29217
G1 X54.200 Y90.934 E0.09977
G1 X52.167 Y89.789 E0.09977
G1 X50.636 Y88.028 E0.09977
G1 X49.997 Y86.649 E0.06498
G1 X48.664 Y82.662 E0.17975
G1 X48.523 Y82.184 E0.02128
G1 X46.356 Y73.706 E0.37417
G1 X46.143 Y72.008 E0.07315
G1 X46.143 Y57.940 E0.60149
G1 X46.540 Y55.640 E0.09977
G1 X47.685 Y53.607 E0.09977
G1 X49.401 Y52.115 E0.09721
G1 X49.856 Y52.333 F7800.000
G1 X53.000 Y51.511 E0.13896 F1800.000
G1 X137.000 Y51.511 E3.59146
G1 X139.224 Y51.908 E0.09658
G1 X141.173 Y53.050 E0.09658
G1 X142.607 Y54.795 E0.09658
G1 X143.428 Y57.940 E0.13896
G1 X143.428 Y72.008 E0.60149
G1 X143.228 Y73.600 E0.06858
G1 X141.062 Y82.078 E0.37417
G1 X140.930 Y82.526 E0.01995
G1 X139.597 Y86.513 E0.17975
G1 X138.515 Y88.496 E0.09658
G1 X136.814 Y89.983 E0.09658
G1 X134.704 Y90.789 E0.09658
G1 X133.500 Y90.902 E0.05169
G1 X56.500 Y90.902 E3.29217
G1 X54.276 Y90.506 E0.09658
G1 X52.327 Y89.364 E0.09658
G1 X50.893 Y87.618 E0.09658
G1 X50.403 Y86.513 E0.05169
G1 X49.070 Y82.526 E0.17975
G1 X48.938 Y82.078 E0.01995
G1 X46.772 Y73.599 E0.37417
G1 X46.572 Y72.008 E0.06858
G1 X46.572 Y57.940 E0.60149
G1 X46.968 Y55.716 E0.09658
G1 X48.110 Y53.767 E0.09658
G1 X49.809 Y52.371 E0.09402
G1 X129.532 Y78.718 F7800.000
G1 X128.947 Y77.603 E0.05382 F300.000
G1 X128.947 Y76.345 E0.05382
G1 X129.532 Y75.230 E0.05382
G1 X130.567 Y74.515 E0.05382
G1 X131.799 Y74.365 E0.05304
G1 X132.991 Y74.806 E0.05432
G1 X133.829 Y75.752 E0.05403
G1 X134.130 Y76.974 E0.05382
G1 X133.829 Y78.196 E0.05382
G1 X132.994 Y79.138 E0.05382
G1 X131.817 Y79.585 E0.05382
G1 X130.567 Y79.433 E0.05381
G1 X129.581 Y78.752 E0.05125
G1 X129.862 Y78.425 F7800.000
G1 X129.375 Y77.498 E0.04479 F300.000
G1 X129.375 Y76.450 E0.04479
G1 X129.862 Y75.523 E0.04479
G1 X130.724 Y74.928 E0.04479
G1 X131.748 Y74.803 E0.04409
G1 X132.741 Y75.171 E0.04529
G1 X133.438 Y75.957 E0.04491
G1 X133.688 Y76.974 E0.04479
G1 X133.438 Y77.991 E0.04479
G1 X132.743 Y78.775 E0.04479
G1 X131.764 Y79.147 E0.04479
G1 X130.724 Y79.020 E0.04478
G1 X129.911 Y78.459 E0.04222
G1 X130.192 Y78.133 F7800.000
G1 X129.804 Y77.392 E0.03575 F300.000
G1 X129.804 Y76.556 E0.03576
G1 X130.192 Y75.815 E0.03575
G1 X130.880 Y75.340 E0.03575
G1 X131.696 Y75.241 E0.03514
G1 X132.492 Y75.535 E0.03626
G1 X133.047 Y76.162 E0.03580
G1 X133.247 Y76.974 E0.03575
G1 X133.047 Y77.786 E0.03575
G1 X132.493 Y78.412 E0.03576
G1 X131.711 Y78.708 E0.03576
G1 X130.880 Y78.608 E0.03575
G1 X130.242 Y78.167 E0.03319
G1 X129.795 Y78.181 F7800.000
G1 X121.053 Y77.603 F7800.000
G1 X120.468 Y78.718 E0.05382 F300.000
G1 X119.433 Y79.433 E0.05382
G1 X118.183 Y79.585 E0.05382
G1 X117.006 Y79.138 E0.05382
G1 X116.171 Y78.196 E0.05382
G1 X115.870 Y76.974 E0.05382
G1 X116.171 Y75.752 E0.05382
G1 X117.006 Y74.810 E0.05382
G1 X118.166 Y74.370 E0.05304
G1 X119.428 Y74.512 E0.05432
G1 X120.468 Y75.230 E0.05403
G1 X121.053 Y76.345 E0.05382
G1 X121.053 Y77.543 E0.05125
G1 X120.625 Y77.498 F7800.000
G1 X120.138 Y78.425 E0.04479 F300.000
G1 X119.276 Y79.020 E0.04479
G1 X118.236 Y79.147 E0.04478
G1 X117.257 Y78.775 E0.04479
G1 X116.562 Y77.991 E0.04479
G1 X116.312 Y76.974 E0.04479
G1 X116.562 Y75.957 E0.04479
G1 X117.257 Y75.173 E0.04479
G1 X118.221 Y74.807 E0.04409
G1 X119.274 Y74.926 E0.04529
G1 X120.138 Y75.523 E0.04491
G1 X120.625 Y76.450 E0.04479
G1 X120.625 Y77.438 E0.04222
G1 X120.196 Y77.392 F7800.000
G1 X119.808 Y78.133 E0.03575 F300.000
G1 X119.120 Y78.608 E0.03575
G1 X118.289 Y78.708 E0.03575
G1 X117.507 Y78.412 E0.03576
G1 X116.953 Y77.786 E0.03576
G1 X116.753 Y76.974 E0.03575
G1 X116.953 Y76.162 E0.03575
G1 X117.507 Y75.536 E0.03576
G1 X118.276 Y75.245 E0.03514
G1 X119.119 Y75.340 E0.03626
G1 X119.808 Y75.815 E0.03580
G1 X120.196 Y76.556 E0.03575
G1 X120.196 Y77.332 E0.03319
G1 X120.462 Y77.692 F7800.000
G1 X115.970 Y76.974 F7800.000
G1 X113.777 Y70.425 F7800.000
G1 X75.317 Y70.777 F7800.000
G1 X74.325 Y75.280 F7800.000
G1 X74.364 Y76.896 F7800.000
G1 X74.031 Y76.978 F7800.000
G1 X74.131 Y76.979 F7800.000
G1 X73.817 Y78.210 E0.05432 F300.000
G1 X72.994 Y79.138 E0.05304
G1 X71.817 Y79.585 E0.05382
G1 X70.567 Y79.433 E0.05382
G1 X69.532 Y78.718 E0.05382
G1 X68.947 Y77.603 E0.05382
G1 X68.947 Y76.345 E0.05382
G1 X69.532 Y75.230 E0.05382
G1 X70.567 Y74.515 E0.05382
G1 X71.799 Y74.365 E0.05304
G1 X72.991 Y74.806 E0.05432
G1 X73.829 Y75.752 E0.05403
G1 X74.117 Y76.920 E0.05146
G1 X73.689 Y76.977 F7800.000
G1 X73.427 Y78.003 E0.04529 F300.000
G1 X72.743 Y78.775 E0.04409
G1 X71.764 Y79.147 E0.04479
G1 X70.724 Y79.020 E0.04478
G1 X69.862 Y78.425 E0.04479
G1 X69.375 Y77.498 E0.04479
G1 X69.375 Y76.450 E0.04479
G1 X69.862 Y75.523 E0.04479
G1 X70.724 Y74.928 E0.04479
G1 X71.748 Y74.803 E0.04409
G1 X72.741 Y75.171 E0.04529
G1 X73.438 Y75.957 E0.04491
G1 X73.675 Y76.919 E0.04235
G1 X73.247 Y76.975 F7800.000
G1 X73.038 Y77.797 E0.03626 F300.000
G1 X72.493 Y78.412 E0.03514
G1 X71.711 Y78.708 E0.03576
G1 X70.880 Y78.608 E0.03575
G1 X70.192 Y78.133 E0.03575
G1 X69.804 Y77.392 E0.03575
G1 X69.804 Y76.556 E0.03576
G1 X70.192 Y75.815 E0.03575
G1 X70.880 Y75.340 E0.03575
G1 X71.696 Y75.241 E0.03514
G1 X72.492 Y75.535 E0.03626
G1 X73.047 Y76.162 E0.03580
G1 X73.233 Y76.917 E0.03324
G1 X73.575 Y77.204 F7800.000
G1 X61.053 Y77.603 F7800.000
G1 X60.468 Y78.718 E0.05382 F300.000
G1 X59.433 Y79.433 E0.05382
G1 X58.183 Y79.585 E0.05382
G1 X57.006 Y79.138 E0.05382
G1 X56.171 Y78.196 E0.05382
G1 X55.870 Y76.974 E0.05382
G1 X56.171 Y75.752 E0.05382
G1 X57.006 Y74.810 E0.05382
G1 X58.166 Y74.370 E0.05304
G1 X59.428 Y74.512 E0.05432
G1 X60.468 Y75.230 E0.05403
G1 X61.053 Y76.345 E0.05382
G1 X61.053 Y77.543 E0.05125
G1 X60.625 Y77.498 F7800.000
G1 X60.138 Y78.425 E0.04479 F300.000
G1 X59.276 Y79.020 E0.04479
G1 X58.236 Y79.147 E0.04478
G1 X57.257 Y78.775 E0.04479
G1 X56.562 Y77.991 E0.04479
G1 X56.312 Y76.974 E0.04479
G1 X56.562 Y75.957 E0.04479
G1 X57.257 Y75.173 E0.04479
G1 X58.221 Y74.807 E0.04409
G1 X59.274 Y74.926 E0.04529
G1 X60.138 Y75.523 E0.04491
G1 X60.625 Y76.450 E0.04479
G1 X60.625 Y77.438 E0.04222
G1 X60.196 Y77.392 F7800.000
G1 X59.808 Y78.133 E0.03575 F300.000
G1 X59.120 Y78.608 E0.03575
G1 X58.289 Y78.708 E0.03575
G1 X57.507 Y78.412 E0.03576
G1 X56.953 Y77.786 E0.03576
G1 X56.753 Y76.974 E0.03575
G1 X56.953 Y76.162 E0.03575
G1 X57.507 Y75.536 E0.03576
G1 X58.276 Y75.245 E0.03514
G1 X59.119 Y75.340 E0.03626
G1 X59.808 Y75.815 E0.03580
G1 X60.196 Y76.556 E0.03575
G1 X60.196 Y77.332 E0.03319
G1 X60.462 Y77.692 F7800.000
G1 X76.148 Y70.911 F7800.000
G1 X73.780 Y80.177 E0.40889 F600.000
G1 X72.710 Y83.377 E0.14428
G1 X57.290 Y83.377 E0.65930
G1 X56.219 Y80.177 E0.14428
G1 X54.097 Y71.870 E0.36656
G1 X54.097 Y69.938 E0.08259
G1 X135.903 Y69.938 E3.49765
G1 X135.903 Y71.870 E0.08259
G1 X133.780 Y80.177 E0.36656
G1 X132.710 Y83.377 E0.14428
G1 X117.290 Y83.377 E0.65930
G1 X116.219 Y80.177 E0.14428
G1 X113.852 Y70.911 E0.40889
G1 X76.208 Y70.911 E1.60948
G1 X76.481 Y71.340 F7800.000
G1 X74.192 Y80.298 E0.39532 F600.000
G1 X73.019 Y83.805 E0.15813
G1 X56.981 Y83.805 E0.68569
G1 X55.808 Y80.298 E0.15813
G1 X53.668 Y71.924 E0.36953
G1 X53.668 Y69.510 E0.10322
G1 X136.332 Y69.510 E3.53429
G1 X136.332 Y71.924 E0.10322
G1 X134.192 Y80.298 E0.36953
G1 X133.019 Y83.805 E0.15813
G1 X116.981 Y83.805 E0.68569
G1 X115.808 Y80.298 E0.15813
G1 X113.519 Y71.340 E0.39532
G1 X76.541 Y71.340 E1.58102
G1 X76.814 Y71.768 F7800.000
G1 X74.603 Y80.419 E0.38176 F600.000
G1 X73.327 Y84.234 E0.17199
G1 X56.673 Y84.234 E0.71207
G1 X55.397 Y80.419 E0.17199
G1 X53.240 Y71.978 E0.37250
G1 X53.240 Y69.081 E0.12384
G1 X136.760 Y69.081 E3.57094
G1 X136.760 Y71.978 E0.12384
G1 X134.603 Y80.419 E0.37250
G1 X133.327 Y84.234 E0.17199
G1 X116.673 Y84.234 E0.71207
G1 X115.397 Y80.419 E0.17199
G1 X113.186 Y71.768 E0.38176
G1 X76.874 Y71.768 E1.55257
G1 X76.419 Y71.702 F7800.000
G1 X76.051 Y70.425 F7800.000
G1 X113.949 Y70.425 E3.43541 F900.000
G1 X115.632 Y75.963 F7800.000
G1 X115.636 Y76.984 E0.04364 F900.000
G1 X115.977 Y78.316 F7800.000
G1 X116.477 Y79.259 E0.04566 F900.000
G1 X116.424 Y79.490 F7800.000
G1 X120.101 Y83.167 E0.22642 F600.000
G1 X120.718 Y83.167 E0.02687
G1 X116.924 Y79.373 E0.23359
G1 X116.468 Y80.151 F7800.000
G1 X119.483 Y83.167 E0.18567 F600.000
G1 X118.866 Y83.167 E0.02687
G1 X116.778 Y81.079 E0.12857
G1 X117.089 Y82.006 F7800.000
G1 X118.249 Y83.167 E0.07147 F600.000
G1 X117.632 Y83.167 E0.02687
G1 X117.399 Y82.933 E0.01437
G1 X117.919 Y79.750 F7800.000
G1 X121.335 Y83.167 E0.21037 F600.000
G1 X121.952 Y83.167 E0.02687
G1 X118.530 Y79.744 E0.21074
G1 X119.080 Y79.677 E0.02414
G1 X122.569 Y83.167 E0.21486
G1 X123.186 Y83.167 E0.02687
G1 X119.570 Y79.550 E0.22267
G1 X119.935 Y79.298 E0.01932
G1 X123.803 Y83.167 E0.23819
G1 X124.420 Y83.167 E0.02687
G1 X120.300 Y79.046 E0.25370
G1 X120.642 Y78.771 E0.01911
G1 X125.038 Y83.167 E0.27065
G1 X125.655 Y83.167 E0.02687
G1 X120.855 Y78.366 E0.29558
G1 X121.067 Y77.962 E0.01990
G1 X126.272 Y83.167 E0.32050
G1 X126.889 Y83.167 E0.02687
G1 X121.264 Y77.541 E0.34638
G1 X121.264 Y76.924 E0.02687
G1 X127.506 Y83.167 E0.38438
G1 X128.123 Y83.167 E0.02687
G1 X121.264 Y76.307 E0.42238
G1 X115.772 Y75.752 F7800.000
G1 X115.181 Y75.162 E0.03636 F600.000
G1 X114.970 Y74.333 E0.03725
G1 X116.151 Y75.514 E0.07274
G1 X116.441 Y75.187 E0.01904
G1 X114.758 Y73.504 E0.10363
G1 X114.546 Y72.675 E0.03725
G1 X116.731 Y74.860 E0.13453
G1 X117.075 Y74.587 E0.01913
G1 X114.334 Y71.846 E0.16876
G1 X114.159 Y71.054 E0.03532
G1 X117.522 Y74.417 E0.20709
G1 X117.970 Y74.247 E0.02084
G1 X114.159 Y70.437 E0.23464
G1 X114.488 Y70.149 E0.01904
G1 X118.527 Y74.188 E0.24872
G1 X119.223 Y74.266 E0.03049
G1 X115.105 Y70.149 E0.25356
G1 X115.723 Y70.149 E0.02687
G1 X128.740 Y83.167 E0.80160
G1 X129.358 Y83.167 E0.02687
G1 X116.340 Y70.149 E0.80160
G1 X116.957 Y70.149 E0.02687
G1 X129.975 Y83.167 E0.80160
G1 X130.592 Y83.167 E0.02687
G1 X117.574 Y70.149 E0.80160
G1 X118.191 Y70.149 E0.02687
G1 X131.209 Y83.167 E0.80160
G1 X131.826 Y83.167 E0.02687
G1 X118.808 Y70.149 E0.80160
G1 X119.425 Y70.149 E0.02687
G1 X132.443 Y83.167 E0.80160
G1 X132.703 Y82.810 E0.01923
G1 X120.043 Y70.149 E0.77963
G1 X120.660 Y70.149 E0.02687
G1 X129.241 Y78.730 E0.52839
G1 X129.645 Y79.134 F7800.000
G1 X132.858 Y82.347 E0.19783 F600.000
G1 X133.013 Y81.885 E0.02123
G1 X130.815 Y79.687 E0.13536
G1 X131.517 Y79.772 E0.03081
G1 X133.167 Y81.422 E0.10162
G1 X133.322 Y80.960 E0.02123
G1 X132.054 Y79.692 E0.07809
G1 X132.501 Y79.522 E0.02084
G1 X133.477 Y80.497 E0.06006
G1 X133.622 Y80.026 E0.02149
G1 X132.949 Y79.352 E0.04146
G1 X134.285 Y75.752 F7800.000
G1 X128.682 Y70.149 E0.34501 F600.000
G1 X129.299 Y70.149 E0.02687
G1 X134.753 Y75.602 E0.33579
G1 X134.878 Y75.110 E0.02209
G1 X129.917 Y70.149 E0.30552
G1 X130.534 Y70.149 E0.02687
G1 X135.004 Y74.619 E0.27525
G1 X135.129 Y74.127 E0.02209
G1 X131.151 Y70.149 E0.24499
G1 X131.768 Y70.149 E0.02687
G1 X135.255 Y73.636 E0.21472
G1 X135.381 Y73.144 E0.02209
G1 X132.385 Y70.149 E0.18445
G1 X133.002 Y70.149 E0.02687
G1 X135.506 Y72.653 E0.15418
G1 X135.632 Y72.161 E0.02209
G1 X133.619 Y70.149 E0.12392
G1 X134.236 Y70.149 E0.02687
G1 X135.693 Y71.605 E0.08966
G1 X135.693 Y70.988 E0.02687
G1 X134.854 Y70.149 E0.05166
G1 X135.471 Y70.149 E0.02687
G1 X135.693 Y70.371 E0.01366
G1 X132.146 Y74.230 F7800.000
G1 X128.065 Y70.149 E0.25131 F600.000
G1 X127.448 Y70.149 E0.02687
G1 X131.500 Y74.200 E0.24948
G1 X130.949 Y74.267 E0.02414
G1 X126.831 Y70.149 E0.25360
G1 X126.214 Y70.149 E0.02687
G1 X130.449 Y74.384 E0.26081
G1 X130.084 Y74.636 E0.01932
G1 X125.597 Y70.149 E0.27632
G1 X124.980 Y70.149 E0.02687
G1 X129.719 Y74.888 E0.29184
G1 X129.369 Y75.155 E0.01917
G1 X124.362 Y70.149 E0.30829
G1 X123.745 Y70.149 E0.02687
G1 X129.157 Y75.560 E0.33321
G1 X128.944 Y75.965 E0.01990
G1 X123.128 Y70.149 E0.35814
G1 X122.511 Y70.149 E0.02687
G1 X128.736 Y76.374 E0.38333
G1 X128.736 Y76.991 E0.02687
G1 X121.894 Y70.149 E0.42133
G1 X121.277 Y70.149 E0.02687
G1 X128.736 Y77.608 E0.45933
G1 X134.364 Y76.984 F7800.000
G1 X134.368 Y75.963 E0.04364 F900.000
G1 X134.023 Y78.316 F7800.000
G1 X133.523 Y79.259 E0.04566 F900.000
G1 X131.329 Y81.458 F7800.000
G1 X125.000 Y74.357 F7800.000
G1 X118.439 Y72.162 F7800.000
G1 X114.683 Y70.777 F7800.000
G1 X113.777 Y70.425 F7800.000
G1 X76.223 Y70.425 F7800.000
G1 X75.841 Y70.371 F7800.000
G1 X75.619 Y70.149 E0.01345 F600.000
G1 X75.011 Y70.149 E0.02608
G1 X75.841 Y70.978 E0.05033
G1 X75.791 Y71.537 E0.02405
G1 X74.403 Y70.149 E0.08420
G1 X73.795 Y70.149 E0.02608
G1 X75.668 Y72.021 E0.11358
G1 X75.544 Y72.505 E0.02144
G1 X73.187 Y70.149 E0.14295
G1 X72.579 Y70.149 E0.02608
G1 X75.420 Y72.990 E0.17232
G1 X75.296 Y73.474 E0.02144
G1 X71.971 Y70.149 E0.20169
G1 X71.363 Y70.149 E0.02608
G1 X75.173 Y73.958 E0.23106
G1 X75.049 Y74.442 E0.02144
G1 X70.755 Y70.149 E0.26044
G1 X70.148 Y70.149 E0.02608
G1 X74.925 Y74.926 E0.28981
G1 X74.801 Y75.411 E0.02144
G1 X69.540 Y70.149 E0.31918
G1 X68.932 Y70.149 E0.02608
G1 X74.536 Y75.753 E0.33994
G1 X72.556 Y74.382 F7800.000
G1 X68.324 Y70.149 E0.25676 F600.000
G1 X67.716 Y70.149 E0.02608
G1 X71.738 Y74.171 E0.24400
G1 X71.196 Y74.237 E0.02342
G1 X67.108 Y70.149 E0.24800
G1 X66.500 Y70.149 E0.02608
G1 X70.654 Y74.303 E0.25199
G1 X70.259 Y74.516 E0.01925
G1 X65.892 Y70.149 E0.26489
G1 X65.284 Y70.149 E0.02608
G1 X69.899 Y74.764 E0.27995
G1 X69.539 Y75.012 E0.01875
G1 X64.676 Y70.149 E0.29501
G1 X64.068 Y70.149 E0.02608
G1 X69.268 Y75.348 E0.31540
G1 X69.058 Y75.747 E0.01931
G1 X63.460 Y70.149 E0.33959
G1 X62.852 Y70.149 E0.02608
G1 X68.849 Y76.146 E0.36377
G1 X68.736 Y76.641 E0.02177
G1 X62.244 Y70.149 E0.39379
G1 X61.636 Y70.149 E0.02608
G1 X68.736 Y77.248 E0.43067
G1 X68.833 Y77.953 E0.03052
G1 X61.029 Y70.149 E0.47343
G1 X60.421 Y70.149 E0.02608
G1 X72.798 Y82.526 E0.75083
G1 X72.951 Y82.071 E0.02060
G1 X70.532 Y79.652 E0.14671
G1 X71.224 Y79.736 E0.02990
G1 X73.103 Y81.615 E0.11397
G1 X73.255 Y81.160 E0.02060
G1 X71.861 Y79.765 E0.08460
G1 X72.301 Y79.598 E0.02022
G1 X73.408 Y80.704 E0.06710
G1 X73.560 Y80.249 E0.02060
G1 X72.742 Y79.431 E0.04961
G1 X73.425 Y79.506 E0.02947
G1 X73.688 Y79.768 E0.01594
G1 X72.646 Y82.982 F7800.000
G1 X59.813 Y70.149 E0.77846 F600.000
G1 X59.205 Y70.149 E0.02608
