; generated by Slic3r 1.2.9 on 2017-01-29 at 12:50:00

; external perimeters extrusion width = 0.40mm
; perimeters extrusion width = 0.48mm
; infill extrusion width = 0.48mm
; solid infill extrusion width = 0.48mm
; top infill extrusion width = 0.48mm

M104 S185 ; set temperature
G28 ; home all axes
G1 Z5 F5000 ; lift nozzle

M109 S185 ; wait for temperature to be reached
G21 ; set units to millimeters
G90 ; use absolute coordinates
M83 ; use relative distances for extrusion
G1 Z0.240 F7800.000
G1 X52.291 Y41.513 F7800.000
G1 X54.066 Y39.888 E0.10287 F1800.000
G1 X56.272 Y38.930 E0.10287
G1 X58.031 Y38.715 E0.07575
G1 X131.969 Y38.715 E3.16125
G1 X134.342 Y39.112 E0.10287
G1 X136.456 Y40.260 E0.10287
G1 X138.081 Y42.035 E0.10287
G1 X139.039 Y44.241 E0.10287
G1 X139.254 Y46.000 E0.07575
G1 X139.254 Y94.000 E2.05226
G1 X138.857 Y96.373 E0.10287
G1 X137.709 Y98.487 E0.10287
G1 X135.934 Y100.112 E0.10287
G1 X133.728 Y101.070 E0.10287
G1 X131.969 Y101.285 E0.07575
G1 X58.031 Y101.285 E3.16125
G1 X55.658 Y100.888 E0.10287
G1 X53.544 Y99.740 E0.10287
G1 X51.919 Y97.965 E0.10287
G1 X50.961 Y95.759 E0.10287
G1 X50.746 Y94.000 E0.07575
G1 X50.746 Y46.000 E2.05226
G1 X51.143 Y43.627 E0.10287
G1 X52.263 Y41.566 E0.10030
G1 X52.716 Y41.667 F7800.000
G1 X54.477 Y40.136 E0.09977 F1800.000
G1 X56.650 Y39.284 E0.09977
G1 X58.031 Y39.143 E0.05937
G1 X131.969 Y39.143 E3.16125
G1 X134.268 Y39.540 E0.09977
G1 X136.302 Y40.685 E0.09977
G1 X137.833 Y42.446 E0.09977
G1 X138.685 Y44.619 E0.09977
G1 X138.826 Y46.000 E0.05937
G1 X138.826 Y94.000 E2.05226
G1 X138.429 Y96.300 E0.09977
G1 X137.284 Y98.333 E0.09977
G1 X135.523 Y99.864 E0.09977
G1 X133.350 Y100.716 E0.09977
G1 X131.969 Y100.857 E0.05937
G1 X58.031 Y100.857 E3.16125
G1 X55.732 Y100.460 E0.09977
G1 X53.698 Y99.315 E0.09977
G1 X52.167 Y97.554 E0.09977
G1 X51.315 Y95.381 E0.09977
G1 X51.174 Y94.000 E0.05937
G1 X51.174 Y46.000 E2.05226
G1 X51.571 Y43.700 E0.09977
G1 X52.687 Y41.720 E0.09721
G1 X53.141 Y41.827 F7800.000
G1 X54.887 Y40.393 E0.09658 F1800.000
G1 X58.031 Y39.572 E0.13896
G1 X131.969 Y39.572 E3.16125
G1 X134.193 Y39.968 E0.09658
G1 X136.142 Y41.110 E0.09658
G1 X137.576 Y42.856 E0.09658
G1 X138.397 Y46.000 E0.13896
G1 X138.397 Y94.000 E2.05226
G1 X138.001 Y96.224 E0.09658
G1 X136.859 Y98.173 E0.09658
G1 X135.113 Y99.607 E0.09658
G1 X131.969 Y100.428 E0.13896
G1 X58.031 Y100.428 E3.16125
G1 X55.807 Y100.032 E0.09658
G1 X53.858 Y98.890 E0.09658
G1 X52.424 Y97.144 E0.09658
G1 X51.603 Y94.000 E0.13896
G1 X51.603 Y46.000 E2.05226
G1 X51.999 Y43.776 E0.09658
G1 X53.111 Y41.879 E0.09402
G1 X130.006 Y92.903 F7800.000
G1 X130.006 Y47.097 E1.95846 F600.000
G1 X130.872 Y47.097 E0.03704
G1 X130.872 Y92.903 E1.95846
G1 X130.066 Y92.903 E0.03448
G1 X129.577 Y93.332 F7800.000
G1 X129.577 Y46.668 E1.99510 F600.000
G1 X131.300 Y46.668 E0.07369
G1 X131.300 Y93.332 E1.99510
G1 X129.637 Y93.332 E0.07112
G1 X129.149 Y93.760 F7800.000
G1 X129.149 Y46.240 E2.03174 F600.000
G1 X131.729 Y46.240 E0.11033
G1 X131.729 Y93.760 E2.03174
G1 X129.209 Y93.760 E0.10776
G1 X129.349 Y93.414 F7800.000
G1 X130.439 Y92.689 F7800.000
G1 X130.439 Y47.311 E4.11347 F900.000
G1 X128.909 Y46.000 F7800.000
G1 X126.909 Y46.000 F7800.000
G1 X123.091 Y46.000 F7800.000
G1 X121.091 Y46.000 F7800.000
G1 X112.829 Y86.722 F7800.000
G1 X111.994 Y87.664 E0.05382 F300.000
G1 X110.817 Y88.111 E0.05382
G1 X109.567 Y87.959 E0.05381
G1 X108.532 Y87.244 E0.05382
G1 X107.947 Y86.129 E0.05382
G1 X107.947 Y84.871 E0.05382
G1 X108.532 Y83.756 E0.05382
G1 X109.567 Y83.041 E0.05382
G1 X110.759 Y82.896 E0.05132
G1 X111.984 Y83.324 E0.05547
G1 X112.829 Y84.278 E0.05448
G1 X113.130 Y85.500 E0.05382
G1 X112.843 Y86.664 E0.05125
G1 X112.438 Y86.517 F7800.000
G1 X111.743 Y87.301 E0.04479 F300.000
G1 X110.764 Y87.673 E0.04479
G1 X109.724 Y87.546 E0.04478
G1 X108.862 Y86.951 E0.04479
G1 X108.375 Y86.024 E0.04479
G1 X108.375 Y84.976 E0.04479
G1 X108.862 Y84.049 E0.04479
G1 X109.724 Y83.454 E0.04479
G1 X110.712 Y83.334 E0.04254
G1 X111.737 Y83.692 E0.04643
G1 X112.438 Y84.483 E0.04519
G1 X112.688 Y85.500 E0.04479
G1 X112.452 Y86.459 E0.04222
G1 X112.047 Y86.312 F7800.000
G1 X111.493 Y86.938 E0.03576 F300.000
G1 X110.711 Y87.234 E0.03576
G1 X109.880 Y87.134 E0.03575
G1 X109.192 Y86.659 E0.03575
G1 X108.804 Y85.918 E0.03575
G1 X108.804 Y85.082 E0.03576
G1 X109.192 Y84.341 E0.03575
G1 X109.880 Y83.866 E0.03575
G1 X110.664 Y83.771 E0.03377
G1 X111.490 Y84.060 E0.03740
G1 X112.047 Y84.688 E0.03590
G1 X112.247 Y85.500 E0.03575
G1 X112.061 Y86.254 E0.03319
G1 X112.233 Y86.666 F7800.000
G1 X110.817 Y57.111 F7800.000
G1 X109.567 Y56.959 E0.05382 F300.000
G1 X108.532 Y56.244 E0.05382
G1 X107.947 Y55.129 E0.05382
G1 X107.947 Y53.871 E0.05382
G1 X108.532 Y52.756 E0.05382
G1 X109.567 Y52.041 E0.05382
G1 X110.759 Y51.896 E0.05132
G1 X111.984 Y52.324 E0.05547
G1 X112.829 Y53.278 E0.05448
G1 X113.130 Y54.500 E0.05382
G1 X112.829 Y55.722 E0.05382
G1 X111.994 Y56.664 E0.05382
G1 X110.873 Y57.089 E0.05125
G1 X110.764 Y56.673 F7800.000
G1 X109.724 Y56.546 E0.04478 F300.000
G1 X108.862 Y55.951 E0.04479
G1 X108.375 Y55.024 E0.04479
G1 X108.375 Y53.976 E0.04479
G1 X108.862 Y53.049 E0.04479
G1 X109.724 Y52.454 E0.04479
G1 X110.712 Y52.334 E0.04254
G1 X111.737 Y52.692 E0.04643
G1 X112.438 Y53.483 E0.04519
G1 X112.688 Y54.500 E0.04479
G1 X112.438 Y55.517 E0.04479
G1 X111.743 Y56.301 E0.04479
G1 X110.820 Y56.651 E0.04222
G1 X110.711 Y56.234 F7800.000
G1 X109.880 Y56.134 E0.03575 F300.000
G1 X109.192 Y55.659 E0.03575
G1 X108.804 Y54.918 E0.03575
G1 X108.804 Y54.082 E0.03576
G1 X109.192 Y53.341 E0.03575
G1 X109.880 Y52.866 E0.03575
G1 X110.664 Y52.771 E0.03377
G1 X111.490 Y53.060 E0.03740
G1 X112.047 Y53.688 E0.03590
G1 X112.247 Y54.500 E0.03575
G1 X112.047 Y55.312 E0.03575
G1 X111.493 Y55.938 E0.03576
G1 X110.767 Y56.213 E0.03319
G1 X110.525 Y56.589 F7800.000
G1 X108.432 Y60.241 F7800.000
G1 X110.171 Y63.253 E0.14868 F600.000
G1 X111.261 Y66.748 E0.15654
G1 X111.603 Y70.000 E0.13981
G1 X111.240 Y73.452 E0.14840
G1 X110.168 Y76.753 E0.14840
G1 X108.432 Y79.759 E0.14840
G1 X106.110 Y82.338 E0.14840
G1 X103.302 Y84.379 E0.14840
G1 X100.131 Y85.790 E0.14840
G1 X96.735 Y86.512 E0.14840
G1 X93.265 Y86.512 E0.14840
G1 X89.869 Y85.790 E0.14840
G1 X86.698 Y84.379 E0.14840
G1 X83.890 Y82.338 E0.14840
G1 X81.568 Y79.759 E0.14840
G1 X79.829 Y76.747 E0.14868
G1 X78.739 Y73.252 E0.15654
G1 X78.397 Y70.000 E0.13981
G1 X78.760 Y66.548 E0.14840
G1 X79.832 Y63.247 E0.14840
G1 X81.568 Y60.241 E0.14840
G1 X83.890 Y57.662 E0.14840
G1 X86.698 Y55.621 E0.14840
G1 X89.869 Y54.210 E0.14840
G1 X93.265 Y53.488 E0.14840
G1 X96.735 Y53.488 E0.14840
G1 X100.131 Y54.210 E0.14840
G1 X103.302 Y55.621 E0.14840
G1 X106.110 Y57.662 E0.14840
G1 X108.392 Y60.196 E0.14584
G1 X108.084 Y60.494 F7800.000
G1 X109.776 Y63.426 E0.14472 F600.000
G1 X110.840 Y66.835 E0.15269
G1 X111.172 Y70.000 E0.13607
G1 X110.819 Y73.362 E0.14455
G1 X109.774 Y76.578 E0.14455
G1 X108.084 Y79.506 E0.14455
G1 X105.821 Y82.018 E0.14455
G1 X103.086 Y84.006 E0.14455
G1 X99.997 Y85.381 E0.14455
G1 X96.690 Y86.084 E0.14455
G1 X93.310 Y86.084 E0.14455
G1 X90.003 Y85.381 E0.14455
G1 X86.914 Y84.006 E0.14455
G1 X84.179 Y82.018 E0.14455
G1 X81.916 Y79.506 E0.14455
G1 X80.224 Y76.574 E0.14472
G1 X79.160 Y73.165 E0.15269
G1 X78.828 Y70.000 E0.13607
G1 X79.181 Y66.638 E0.14455
G1 X80.226 Y63.422 E0.14455
G1 X81.916 Y60.494 E0.14455
G1 X84.179 Y57.982 E0.14455
G1 X86.914 Y55.994 E0.14455
G1 X90.003 Y54.619 E0.14455
G1 X93.310 Y53.916 E0.14455
G1 X96.690 Y53.916 E0.14455
G1 X99.997 Y54.619 E0.14455
G1 X103.086 Y55.994 E0.14455
G1 X105.821 Y57.982 E0.14455
G1 X108.043 Y60.450 E0.14199
G1 X107.735 Y60.747 F7800.000
G1 X109.381 Y63.599 E0.14076 F600.000
G1 X110.418 Y66.922 E0.14884
G1 X110.741 Y70.000 E0.13233
G1 X110.397 Y73.273 E0.14070
G1 X109.380 Y76.403 E0.14070
G1 X107.735 Y79.253 E0.14070
G1 X105.533 Y81.698 E0.14070
G1 X102.871 Y83.632 E0.14070
G1 X99.864 Y84.971 E0.14070
G1 X96.645 Y85.655 E0.14070
G1 X93.355 Y85.655 E0.14070
G1 X90.136 Y84.971 E0.14070
G1 X87.129 Y83.632 E0.14070
G1 X84.467 Y81.698 E0.14070
G1 X82.265 Y79.253 E0.14070
G1 X80.619 Y76.401 E0.14076
G1 X79.582 Y73.078 E0.14884
G1 X79.259 Y70.000 E0.13233
G1 X79.603 Y66.727 E0.14070
G1 X80.620 Y63.597 E0.14070
G1 X82.265 Y60.747 E0.14070
G1 X84.467 Y58.302 E0.14070
G1 X87.129 Y56.368 E0.14070
G1 X90.136 Y55.029 E0.14070
G1 X93.355 Y54.345 E0.14070
G1 X96.645 Y54.345 E0.14070
G1 X99.864 Y55.029 E0.14070
G1 X102.871 Y56.368 E0.14070
G1 X105.533 Y58.302 E0.14070
G1 X107.695 Y60.703 E0.13814
G1 X108.134 Y60.720 F7800.000
G1 X93.275 Y53.585 F7800.000
G1 X85.366 Y52.105 F7800.000
G1 X84.653 Y53.895 F7800.000
G1 X84.036 Y55.105 F7800.000
G1 X81.956 Y55.105 F7800.000
G1 X82.053 Y55.129 F7800.000
G1 X81.468 Y56.244 E0.05382 F300.000
G1 X80.433 Y56.959 E0.05382
G1 X79.183 Y57.111 E0.05382
G1 X78.006 Y56.664 E0.05382
G1 X77.171 Y55.722 E0.05382
G1 X76.870 Y54.500 E0.05382
G1 X77.171 Y53.278 E0.05382
G1 X78.006 Y52.336 E0.05382
G1 X79.128 Y51.910 E0.05132
G1 X80.420 Y52.032 E0.05546
G1 X81.468 Y52.756 E0.05448
G1 X82.053 Y53.871 E0.05382
G1 X82.053 Y55.069 E0.05125
G1 X81.625 Y55.024 F7800.000
G1 X81.138 Y55.951 E0.04479 F300.000
G1 X80.276 Y56.546 E0.04479
G1 X79.236 Y56.673 E0.04478
G1 X78.257 Y56.301 E0.04479
G1 X77.562 Y55.517 E0.04479
G1 X77.312 Y54.500 E0.04479
G1 X77.562 Y53.483 E0.04479
G1 X78.257 Y52.699 E0.04479
G1 X79.187 Y52.346 E0.04255
G1 X80.268 Y52.448 E0.04643
G1 X81.138 Y53.049 E0.04519
G1 X81.625 Y53.976 E0.04479
G1 X81.625 Y54.964 E0.04222
G1 X81.196 Y54.918 F7800.000
G1 X80.808 Y55.659 E0.03575 F300.000
G1 X80.120 Y56.134 E0.03575
G1 X79.289 Y56.234 E0.03575
G1 X78.507 Y55.938 E0.03576
G1 X77.953 Y55.312 E0.03576
G1 X77.753 Y54.500 E0.03575
G1 X77.953 Y53.688 E0.03575
G1 X78.507 Y53.062 E0.03576
G1 X79.246 Y52.782 E0.03377
G1 X80.117 Y52.864 E0.03740
G1 X80.808 Y53.341 E0.03590
G1 X81.196 Y54.082 E0.03575
G1 X81.196 Y54.858 E0.03319
G1 X81.462 Y55.218 F7800.000
G1 X79.195 Y57.012 F7800.000
G1 X74.213 Y69.550 F7800.000
G1 X75.178 Y79.009 F7800.000
G1 X76.546 Y79.420 F7800.000
G1 X77.973 Y79.928 F7800.000
G1 X79.142 Y83.009 F7800.000
G1 X79.128 Y82.910 F7800.000
G1 X80.420 Y83.032 E0.05546 F300.000
G1 X81.468 Y83.756 E0.05448
G1 X82.053 Y84.871 E0.05382
G1 X82.053 Y86.129 E0.05382
G1 X81.468 Y87.244 E0.05382
G1 X80.433 Y87.959 E0.05382
G1 X79.183 Y88.111 E0.05382
G1 X78.006 Y87.664 E0.05382
G1 X77.171 Y86.722 E0.05382
G1 X76.870 Y85.500 E0.05382
G1 X77.171 Y84.278 E0.05382
G1 X78.006 Y83.336 E0.05382
G1 X79.072 Y82.931 E0.04876
G1 X79.187 Y83.346 F7800.000
G1 X80.268 Y83.448 E0.04643 F300.000
G1 X81.138 Y84.049 E0.04519
G1 X81.625 Y84.976 E0.04479
G1 X81.625 Y86.024 E0.04479
G1 X81.138 Y86.951 E0.04479
G1 X80.276 Y87.546 E0.04479
G1 X79.236 Y87.673 E0.04478
G1 X78.257 Y87.301 E0.04479
G1 X77.562 Y86.517 E0.04479
G1 X77.312 Y85.500 E0.04479
G1 X77.562 Y84.483 E0.04479
G1 X78.257 Y83.699 E0.04479
G1 X79.131 Y83.367 E0.03998
G1 X79.246 Y83.782 F7800.000
G1 X80.117 Y83.864 E0.03740 F300.000
G1 X80.808 Y84.341 E0.03590
G1 X81.196 Y85.082 E0.03575
G1 X81.196 Y85.918 E0.03576
G1 X80.808 Y86.659 E0.03575
G1 X80.120 Y87.134 E0.03575
G1 X79.289 Y87.234 E0.03575
G1 X78.507 Y86.938 E0.03576
G1 X77.953 Y86.312 E0.03576
G1 X77.753 Y85.500 E0.03575
G1 X77.953 Y84.688 E0.03575
G1 X78.507 Y84.062 E0.03576
G1 X79.190 Y83.803 E0.03120
G1 X79.426 Y83.425 F7800.000
G1 X70.006 Y92.903 F7800.000
G1 X70.006 Y47.097 E1.95846 F600.000
G1 X119.994 Y47.097 E2.13730
G1 X119.994 Y92.903 E1.95846
G1 X70.066 Y92.903 E2.13473
G1 X69.577 Y93.332 F7800.000
G1 X69.577 Y46.668 E1.99510 F600.000
G1 X120.423 Y46.668 E2.17394
G1 X120.423 Y93.332 E1.99510
G1 X69.637 Y93.332 E2.17138
G1 X69.149 Y93.760 F7800.000
G1 X69.149 Y46.240 E2.03174 F600.000
G1 X120.851 Y46.240 E2.21058
G1 X120.851 Y93.760 E2.03174
G1 X69.209 Y93.760 E2.20802
G1 X69.349 Y93.414 F7800.000
G1 X70.438 Y92.693 F7800.000
G1 X70.216 Y92.471 E0.01349 F600.000
G1 X70.216 Y91.861 E0.02623
G1 X71.047 Y92.693 E0.05058
G1 X71.657 Y92.693 E0.02623
G1 X70.216 Y91.251 E0.08768
G1 X70.216 Y90.642 E0.02623
G1 X72.267 Y92.693 E0.12478
G1 X72.877 Y92.693 E0.02623
G1 X70.216 Y90.032 E0.16187
G1 X70.216 Y89.422 E0.02623
G1 X73.486 Y92.693 E0.19897
G1 X74.096 Y92.693 E0.02623
G1 X70.216 Y88.812 E0.23607
G1 X70.216 Y88.203 E0.02623
G1 X74.706 Y92.693 E0.27316
G1 X75.316 Y92.693 E0.02623
G1 X70.216 Y87.593 E0.31026
G1 X70.216 Y86.983 E0.02623
G1 X75.925 Y92.693 E0.34736
G1 X76.535 Y92.693 E0.02623
G1 X70.216 Y86.373 E0.38445
G1 X70.216 Y85.764 E0.02623
G1 X77.145 Y92.693 E0.42155
G1 X77.755 Y92.693 E0.02623
G1 X70.216 Y85.154 E0.45865
G1 X70.216 Y84.544 E0.02623
G1 X78.364 Y92.693 E0.49574
G1 X78.974 Y92.693 E0.02623
G1 X70.216 Y83.935 E0.53284
G1 X70.216 Y83.325 E0.02623
G1 X79.584 Y92.693 E0.56994
G1 X80.194 Y92.693 E0.02623
G1 X70.216 Y82.715 E0.60703
G1 X70.216 Y82.105 E0.02623
G1 X80.803 Y92.693 E0.64413
G1 X81.413 Y92.693 E0.02623
G1 X70.216 Y81.496 E0.68123
G1 X70.216 Y80.886 E0.02623
G1 X82.023 Y92.693 E0.71832
G1 X82.632 Y92.693 E0.02623
G1 X77.787 Y87.847 E0.29480
G1 X77.689 Y87.749 F7800.000
G1 X70.216 Y80.276 E0.45464 F600.000
G1 X70.216 Y79.666 E0.02623
G1 X76.818 Y86.268 E0.40164
G1 X76.670 Y85.511 E0.03317
G1 X70.216 Y79.057 E0.39269
G1 X70.216 Y78.447 E0.02623
G1 X76.791 Y85.022 E0.40002
G1 X76.912 Y84.533 E0.02167
G1 X70.216 Y77.837 E0.40736
G1 X70.216 Y77.227 E0.02623
G1 X77.093 Y84.105 E0.41843
G1 X77.380 Y83.782 E0.01858
G1 X70.216 Y76.618 E0.43585
G1 X70.216 Y76.008 E0.02623
G1 X77.666 Y83.458 E0.45328
G1 X77.970 Y83.152 E0.01855
G1 X70.216 Y75.398 E0.47177
G1 X70.216 Y74.788 E0.02623
G1 X78.412 Y82.985 E0.49866
G1 X78.854 Y82.817 E0.02034
G1 X70.216 Y74.179 E0.52556
G1 X70.216 Y73.569 E0.02623
G1 X79.358 Y82.711 E0.55623
G1 X80.032 Y82.775 E0.02911
G1 X70.216 Y72.959 E0.59720
G1 X70.216 Y72.349 E0.02623
G1 X80.875 Y83.009 E0.64850
G1 X81.924 Y84.057 F7800.000
G1 X90.559 Y92.693 E0.52539 F600.000
G1 X91.169 Y92.693 E0.02623
G1 X70.216 Y71.740 E1.27477
G1 X70.216 Y71.130 E0.02623
G1 X91.779 Y92.693 E1.31187
G1 X92.388 Y92.693 E0.02623
G1 X70.216 Y70.520 E1.34896
G1 X70.216 Y69.911 E0.02623
G1 X92.998 Y92.693 E1.38606
G1 X89.067 Y85.712 F7800.000
G1 X96.047 Y92.693 E0.42467 F600.000
G1 X96.656 Y92.693 E0.02623
G1 X90.024 Y86.060 E0.40354
G1 X90.798 Y86.224 E0.03406
G1 X97.266 Y92.693 E0.39353
G1 X97.876 Y92.693 E0.02623
G1 X91.572 Y86.389 E0.38351
G1 X92.347 Y86.553 E0.03406
G1 X98.486 Y92.693 E0.37350
G1 X99.095 Y92.693 E0.02623
G1 X93.121 Y86.718 E0.36349
G1 X93.735 Y86.723 E0.02642
G1 X99.705 Y92.693 E0.36322
G1 X100.315 Y92.693 E0.02623
G1 X94.345 Y86.723 E0.36322
G1 X94.955 Y86.723 E0.02623
G1 X100.925 Y92.693 E0.36322
G1 X101.534 Y92.693 E0.02623
G1 X95.564 Y86.723 E0.36322
G1 X96.174 Y86.723 E0.02623
G1 X102.144 Y92.693 E0.36322
G1 X102.754 Y92.693 E0.02623
G1 X96.765 Y86.704 E0.36436
G1 X97.268 Y86.597 E0.02212
G1 X103.364 Y92.693 E0.37087
G1 X103.973 Y92.693 E0.02623
G1 X97.771 Y86.490 E0.37737
G1 X98.274 Y86.383 E0.02212
G1 X104.583 Y92.693 E0.38387
G1 X105.193 Y92.693 E0.02623
G1 X98.776 Y86.276 E0.39037
G1 X99.279 Y86.169 E0.02212
G1 X105.803 Y92.693 E0.39688
G1 X106.412 Y92.693 E0.02623
G1 X99.782 Y86.062 E0.40338
G1 X100.261 Y85.931 E0.02134
G1 X107.022 Y92.693 E0.41137
G1 X107.632 Y92.693 E0.02623
G1 X100.682 Y85.743 E0.42280
G1 X101.104 Y85.555 E0.01987
G1 X108.242 Y92.693 E0.43423
G1 X108.851 Y92.693 E0.02623
G1 X101.526 Y85.368 E0.44565
G1 X101.948 Y85.180 E0.01987
G1 X109.461 Y92.693 E0.45708
G1 X110.071 Y92.693 E0.02623
G1 X102.370 Y84.992 E0.46851
G1 X102.792 Y84.804 E0.01987
G1 X110.680 Y92.693 E0.47994
G1 X111.290 Y92.693 E0.02623
G1 X103.214 Y84.616 E0.49137
G1 X103.591 Y84.384 E0.01906
G1 X111.900 Y92.693 E0.50551
G1 X112.510 Y92.693 E0.02623
G1 X103.944 Y84.127 E0.52112
G1 X104.297 Y83.871 E0.01878
G1 X113.119 Y92.693 E0.53673
G1 X113.729 Y92.693 E0.02623
G1 X108.812 Y87.776 E0.29914
G1 X108.183 Y87.147 F7800.000
G1 X104.651 Y83.614 E0.21493 F600.000
G1 X105.004 Y83.357 E0.01878
G1 X107.736 Y86.090 E0.16624
G1 X107.736 Y85.480 E0.02623
G1 X105.357 Y83.101 E0.14475
G1 X105.710 Y82.844 E0.01878
