; generated by Slic3r 1.2.9 on 2017-02-09 at 18:38:53

; external perimeters extrusion width = 0.40mm
; perimeters extrusion width = 0.48mm
; infill extrusion width = 0.48mm
; solid infill extrusion width = 0.48mm
; top infill extrusion width = 0.48mm

M104 S185 ; set temperature
G28 ; home all axes
G1 Z5 F5000 ; lift nozzle

M109 S185 ; wait for temperature to be reached
G21 ; set units to millimeters
G90 ; use absolute coordinates
M83 ; use relative distances for extrusion
G1 Z0.240 F7800.000
G1 X61.510 Y41.497 F7800.000
G1 X64.251 Y39.344 E0.14903 F1800.000
G1 X67.507 Y37.874 E0.15272
G1 X68.991 Y37.388 E0.06676
G1 X71.138 Y36.931 E0.09385
G1 X72.688 Y36.772 E0.06662
G1 X74.934 Y36.783 E0.09606
G1 X76.398 Y36.939 E0.06295
G1 X104.739 Y42.898 E1.23820
G1 X105.845 Y43.224 E0.04932
G1 X125.356 Y50.696 E0.89327
G1 X127.430 Y51.916 E0.10287
G1 X128.993 Y53.745 E0.10287
G1 X129.876 Y55.983 E0.10287
G1 X130.035 Y57.500 E0.06523
G1 X130.035 Y82.500 E1.06889
G1 X129.638 Y84.873 E0.10287
G1 X128.490 Y86.987 E0.10287
G1 X126.715 Y88.612 E0.10287
G1 X125.356 Y89.304 E0.06523
G1 X105.845 Y96.776 E0.89327
G1 X104.739 Y97.102 E0.04932
G1 X76.347 Y103.072 E1.24046
G1 X74.848 Y103.228 E0.06445
G1 X72.652 Y103.228 E0.09385
G1 X71.138 Y103.069 E0.06512
G1 X68.991 Y102.612 E0.09385
G1 X67.507 Y102.126 E0.06676
G1 X64.251 Y100.656 E0.15272
G1 X62.252 Y99.317 E0.10287
G1 X60.798 Y97.400 E0.10287
G1 X59.965 Y94.016 E0.14903
G1 X59.965 Y45.984 E2.05363
G1 X60.362 Y43.611 E0.10287
G1 X61.482 Y41.550 E0.10030
G1 X61.935 Y41.651 F7800.000
G1 X64.428 Y39.735 E0.13443 F1800.000
G1 X67.683 Y38.265 E0.15272
G1 X69.080 Y37.807 E0.06283
G1 X71.227 Y37.350 E0.09385
G1 X72.686 Y37.201 E0.06270
G1 X74.932 Y37.211 E0.09606
G1 X76.310 Y37.358 E0.05925
G1 X104.650 Y43.318 E1.23820
G1 X105.692 Y43.624 E0.04642
G1 X125.202 Y51.097 E0.89327
G1 X127.208 Y52.290 E0.09977
G1 X128.697 Y54.086 E0.09977
G1 X129.497 Y56.279 E0.09977
G1 X129.607 Y57.500 E0.05243
G1 X129.607 Y82.500 E1.06889
G1 X129.210 Y84.800 E0.09977
G1 X128.065 Y86.833 E0.09977
G1 X126.304 Y88.364 E0.09977
G1 X125.202 Y88.903 E0.05243
G1 X105.692 Y96.376 E0.89327
G1 X104.650 Y96.682 E0.04642
G1 X76.259 Y102.653 E1.24046
G1 X74.848 Y102.799 E0.06066
G1 X72.652 Y102.799 E0.09385
G1 X71.227 Y102.650 E0.06129
G1 X69.080 Y102.193 E0.09385
G1 X67.683 Y101.735 E0.06283
G1 X64.428 Y100.265 E0.15272
G1 X62.496 Y98.957 E0.09977
G1 X61.114 Y97.076 E0.09977
G1 X60.393 Y94.016 E0.13443
G1 X60.393 Y45.984 E2.05363
G1 X60.790 Y43.684 E0.09977
G1 X61.906 Y41.704 E0.09721
G1 X62.360 Y41.811 F7800.000
G1 X64.604 Y40.125 E0.12000 F1800.000
G1 X67.860 Y38.655 E0.15272
G1 X69.169 Y38.226 E0.05891
G1 X71.316 Y37.769 E0.09385
G1 X72.683 Y37.629 E0.05878
G1 X74.930 Y37.640 E0.09606
G1 X76.222 Y37.777 E0.05555
G1 X104.562 Y43.737 E1.23820
G1 X105.539 Y44.025 E0.04352
G1 X125.049 Y51.497 E0.89327
G1 X126.984 Y52.663 E0.09658
G1 X128.396 Y54.426 E0.09658
G1 X129.178 Y57.500 E0.13562
G1 X129.178 Y82.500 E1.06889
G1 X128.782 Y84.724 E0.09658
G1 X127.640 Y86.673 E0.09658
G1 X125.049 Y88.503 E0.13562
G1 X105.539 Y95.975 E0.89327
G1 X104.562 Y96.263 E0.04352
G1 X76.170 Y102.233 E1.24046
G1 X74.848 Y102.371 E0.05686
G1 X72.652 Y102.371 E0.09385
G1 X71.316 Y102.231 E0.05746
G1 X69.169 Y101.774 E0.09385
G1 X67.860 Y101.345 E0.05891
G1 X64.604 Y99.875 E0.15272
G1 X62.741 Y98.598 E0.09658
G1 X61.434 Y96.755 E0.09658
G1 X60.822 Y94.016 E0.12000
G1 X60.822 Y45.984 E2.05363
G1 X61.218 Y43.760 E0.09658
G1 X62.330 Y41.863 E0.09402
G1 X121.653 Y81.400 F7800.000
G1 X114.511 Y81.378 E0.30537 F600.000
G1 X110.145 Y84.727 E0.23526
G1 X106.698 Y87.231 E0.18216
G1 X102.900 Y88.923 E0.17779
G1 X74.733 Y94.846 E1.23060
G1 X72.768 Y94.846 E0.08404
G1 X70.849 Y94.438 E0.08387
G1 X68.347 Y93.308 E0.11738
G1 X68.347 Y92.150 E0.04949
G1 X69.448 Y92.950 E0.05821
G1 X71.092 Y93.682 E0.07690
G1 X72.851 Y94.056 E0.07690
G1 X74.649 Y94.056 E0.07690
G1 X76.408 Y93.682 E0.07690
G1 X78.052 Y92.950 E0.07690
G1 X79.507 Y91.893 E0.07690
G1 X80.710 Y90.557 E0.07690
G1 X81.609 Y88.999 E0.07690
G1 X82.165 Y87.289 E0.07690
G1 X82.353 Y85.500 E0.07690
G1 X82.165 Y83.711 E0.07690
G1 X81.609 Y82.001 E0.07690
G1 X81.481 Y81.779 E0.01096
G1 X81.668 Y81.643 E0.00990
G1 X83.968 Y84.196 E0.14691
G1 X87.198 Y86.544 E0.17075
G1 X90.847 Y88.168 E0.17075
G1 X94.753 Y88.998 E0.17075
G1 X98.747 Y88.998 E0.17075
G1 X102.653 Y88.168 E0.17075
G1 X106.302 Y86.544 E0.17075
G1 X109.532 Y84.196 E0.17075
G1 X112.205 Y81.228 E0.17075
G1 X114.201 Y77.770 E0.17075
G1 X115.436 Y73.972 E0.17075
G1 X115.633 Y72.097 E0.08060
G1 X121.653 Y72.097 E0.25740
G1 X121.653 Y81.340 E0.39517
G1 X116.277 Y78.980 F7800.000
G1 X106.499 Y86.886 F7800.000
G1 X102.777 Y88.544 F7800.000
G1 X90.508 Y89.813 F7800.000
G1 X83.360 Y85.050 F7800.000
G1 X81.727 Y81.921 F7800.000
G1 X81.241 Y81.248 F7800.000
G1 X80.769 Y80.431 F7800.000
G1 X80.751 Y80.404 F7800.000
G1 X80.527 Y79.897 F7800.000
G1 X80.339 Y80.033 E0.00990 F600.000
G1 X79.507 Y79.107 E0.05324
G1 X78.052 Y78.050 E0.07692
G1 X76.408 Y77.318 E0.07690
G1 X74.649 Y76.944 E0.07690
G1 X72.851 Y76.944 E0.07690
G1 X71.092 Y77.318 E0.07690
G1 X69.448 Y78.050 E0.07690
G1 X68.347 Y78.850 E0.05821
G1 X68.347 Y61.150 E0.75676
G1 X69.449 Y61.951 E0.05824
G1 X71.100 Y62.684 E0.07722
G1 X72.851 Y63.056 E0.07654
G1 X74.650 Y63.056 E0.07692
G1 X76.416 Y62.679 E0.07722
G1 X78.052 Y61.950 E0.07654
G1 X79.507 Y60.893 E0.07690
G1 X80.337 Y59.971 E0.05306
G1 X80.524 Y60.107 E0.00990
G1 X79.299 Y62.230 E0.10481
G1 X78.064 Y66.028 E0.17075
G1 X77.647 Y70.000 E0.17075
G1 X78.064 Y73.972 E0.17075
G1 X79.299 Y77.770 E0.17075
G1 X80.497 Y79.845 E0.10246
G1 X73.099 Y67.808 F7800.000
G1 X78.788 Y62.075 F7800.000
G1 X80.747 Y59.604 F7800.000
G1 X81.241 Y58.752 F7800.000
G1 X81.258 Y58.725 F7800.000
G1 X81.727 Y58.079 F7800.000
G1 X81.668 Y58.357 F7800.000
G1 X81.481 Y58.221 E0.00990 F600.000
G1 X81.609 Y57.999 E0.01096
G1 X82.165 Y56.289 E0.07690
G1 X82.353 Y54.500 E0.07690
G1 X82.165 Y52.711 E0.07690
G1 X81.609 Y51.001 E0.07690
G1 X80.714 Y49.451 E0.07654
G1 X79.507 Y48.107 E0.07723
G1 X78.052 Y47.050 E0.07692
G1 X76.408 Y46.318 E0.07690
G1 X74.649 Y45.944 E0.07690
G1 X72.851 Y45.944 E0.07690
G1 X71.092 Y46.318 E0.07690
G1 X69.448 Y47.050 E0.07690
G1 X68.347 Y47.850 E0.05821
G1 X68.347 Y46.692 E0.04949
G1 X70.849 Y45.562 E0.11738
G1 X72.765 Y45.155 E0.08375
G1 X74.782 Y45.165 E0.08625
G1 X102.900 Y51.077 E1.22845
G1 X106.698 Y52.769 E0.17779
G1 X110.145 Y55.273 E0.18216
G1 X114.478 Y58.597 E0.23347
G1 X121.653 Y58.597 E0.30679
G1 X121.653 Y67.903 E0.39788
G1 X115.633 Y67.903 E0.25740
G1 X115.436 Y66.028 E0.08060
G1 X114.201 Y62.230 E0.17075
G1 X112.205 Y58.772 E0.17075
G1 X109.532 Y55.804 E0.17075
G1 X106.302 Y53.456 E0.17075
G1 X102.653 Y51.832 E0.17075
G1 X98.747 Y51.002 E0.17075
G1 X94.753 Y51.002 E0.17075
G1 X90.847 Y51.832 E0.17075
G1 X87.198 Y53.456 E0.17075
G1 X83.968 Y55.804 E0.17075
G1 X81.708 Y58.313 E0.14435
G1 X67.918 Y60.170 F7800.000
G1 X68.282 Y60.573 E0.02321 F600.000
G1 X69.664 Y61.578 E0.07306
G1 X71.233 Y62.274 E0.07337
G1 X72.896 Y62.627 E0.07270
G1 X74.605 Y62.627 E0.07306
G1 X76.283 Y62.269 E0.07337
G1 X77.836 Y61.577 E0.07270
G1 X79.218 Y60.573 E0.07305
G1 X80.361 Y59.303 E0.07305
G1 X81.216 Y57.824 E0.07305
G1 X81.744 Y56.199 E0.07305
G1 X81.922 Y54.500 E0.07304
G1 X81.744 Y52.801 E0.07304
G1 X81.216 Y51.176 E0.07305
G1 X80.366 Y49.704 E0.07270
G1 X79.219 Y48.427 E0.07337
G1 X77.836 Y47.423 E0.07306
G1 X76.275 Y46.728 E0.07304
G1 X74.604 Y46.373 E0.07305
G1 X72.896 Y46.373 E0.07305
G1 X71.225 Y46.728 E0.07305
G1 X69.664 Y47.423 E0.07304
G1 X68.282 Y48.427 E0.07305
G1 X67.918 Y48.830 E0.02321
G1 X67.918 Y46.416 E0.10324
G1 X70.715 Y45.153 E0.13118
G1 X72.721 Y44.726 E0.08770
G1 X74.828 Y44.736 E0.09008
G1 X103.032 Y50.667 E1.23226
G1 X106.914 Y52.396 E0.18166
G1 X110.402 Y54.930 E0.18433
G1 X114.623 Y58.168 E0.22749
G1 X122.082 Y58.168 E0.31889
G1 X122.082 Y68.332 E0.43452
G1 X115.247 Y68.332 E0.29222
G1 X115.014 Y66.118 E0.09517
G1 X113.808 Y62.405 E0.16690
G1 X111.856 Y59.025 E0.16690
G1 X109.244 Y56.124 E0.16690
G1 X106.086 Y53.829 E0.16690
G1 X102.520 Y52.242 E0.16690
G1 X98.702 Y51.430 E0.16690
G1 X94.798 Y51.430 E0.16690
G1 X90.980 Y52.242 E0.16690
G1 X87.414 Y53.829 E0.16690
G1 X84.256 Y56.124 E0.16690
G1 X81.644 Y59.025 E0.16690
G1 X79.692 Y62.405 E0.16690
G1 X78.486 Y66.118 E0.16690
G1 X78.078 Y70.000 E0.16690
G1 X78.486 Y73.882 E0.16690
G1 X79.692 Y77.595 E0.16690
G1 X81.644 Y80.975 E0.16690
G1 X84.256 Y83.876 E0.16690
G1 X87.414 Y86.171 E0.16690
G1 X90.980 Y87.758 E0.16690
G1 X94.798 Y88.570 E0.16690
G1 X98.702 Y88.570 E0.16690
G1 X102.520 Y87.758 E0.16690
G1 X106.086 Y86.171 E0.16690
G1 X109.244 Y83.876 E0.16690
G1 X111.856 Y80.975 E0.16690
G1 X113.808 Y77.595 E0.16690
G1 X115.014 Y73.882 E0.16690
G1 X115.247 Y71.668 E0.09517
G1 X122.082 Y71.668 E0.29222
G1 X122.082 Y81.829 E0.43444
G1 X114.656 Y81.806 E0.31749
G1 X110.402 Y85.070 E0.22925
G1 X106.914 Y87.604 E0.18433
G1 X103.032 Y89.333 E0.18166
G1 X74.778 Y95.274 E1.23445
G1 X72.723 Y95.274 E0.08788
G1 X70.715 Y94.847 E0.08777
G1 X67.918 Y93.584 E0.13118
G1 X67.918 Y91.170 E0.10324
G1 X68.282 Y91.573 E0.02321
G1 X69.664 Y92.577 E0.07305
G1 X71.225 Y93.272 E0.07304
G1 X72.896 Y93.627 E0.07305
G1 X74.604 Y93.627 E0.07305
G1 X76.275 Y93.272 E0.07305
G1 X77.836 Y92.577 E0.07304
G1 X79.218 Y91.573 E0.07305
G1 X80.361 Y90.303 E0.07305
G1 X81.216 Y88.824 E0.07305
G1 X81.744 Y87.199 E0.07305
G1 X81.922 Y85.500 E0.07304
G1 X81.744 Y83.801 E0.07304
G1 X81.216 Y82.176 E0.07305
G1 X80.366 Y80.704 E0.07270
G1 X79.219 Y79.427 E0.07337
G1 X77.836 Y78.423 E0.07306
G1 X76.275 Y77.728 E0.07305
G1 X74.604 Y77.373 E0.07305
G1 X72.896 Y77.373 E0.07305
G1 X71.225 Y77.728 E0.07305
G1 X69.664 Y78.423 E0.07305
G1 X68.282 Y79.427 E0.07305
G1 X67.918 Y79.830 E0.02321
G1 X67.918 Y60.230 E0.83803
G1 X67.490 Y59.053 F7800.000
G1 X68.570 Y60.253 E0.06901 F600.000
G1 X69.879 Y61.204 E0.06920
G1 X71.366 Y61.864 E0.06952
G1 X72.941 Y62.199 E0.06885
G1 X74.559 Y62.199 E0.06920
G1 X76.149 Y61.859 E0.06952
G1 X77.621 Y61.204 E0.06885
G1 X78.930 Y60.253 E0.06919
G1 X80.013 Y59.050 E0.06919
G1 X80.822 Y57.649 E0.06920
G1 X81.322 Y56.109 E0.06919
G1 X81.491 Y54.500 E0.06919
G1 X81.322 Y52.891 E0.06919
G1 X80.822 Y51.351 E0.06920
G1 X80.017 Y49.957 E0.06886
G1 X78.930 Y48.747 E0.06952
G1 X77.621 Y47.796 E0.06920
G1 X76.142 Y47.138 E0.06919
G1 X74.559 Y46.801 E0.06919
G1 X72.941 Y46.801 E0.06919
G1 X71.358 Y47.138 E0.06919
G1 X69.879 Y47.796 E0.06919
G1 X68.570 Y48.747 E0.06919
G1 X67.490 Y49.947 E0.06901
G1 X67.490 Y46.139 E0.16280
G1 X70.581 Y44.743 E0.14499
G1 X72.677 Y44.298 E0.09164
G1 X74.874 Y44.308 E0.09392
G1 X103.165 Y50.257 E1.23607
G1 X107.129 Y52.022 E0.18554
G1 X110.658 Y54.586 E0.18649
G1 X114.769 Y57.740 E0.22151
G1 X122.510 Y57.740 E0.33099
G1 X122.510 Y68.760 E0.47117
G1 X114.861 Y68.760 E0.32704
G1 X114.593 Y66.207 E0.10974
G1 X113.414 Y62.581 E0.16305
G1 X111.508 Y59.278 E0.16305
G1 X108.956 Y56.444 E0.16305
G1 X105.871 Y54.203 E0.16305
G1 X102.387 Y52.651 E0.16305
G1 X98.657 Y51.859 E0.16305
G1 X94.843 Y51.859 E0.16305
G1 X91.113 Y52.651 E0.16305
G1 X87.629 Y54.203 E0.16305
G1 X84.544 Y56.444 E0.16305
G1 X81.992 Y59.278 E0.16305
G1 X80.086 Y62.581 E0.16305
G1 X78.907 Y66.207 E0.16305
G1 X78.509 Y70.000 E0.16305
G1 X78.907 Y73.793 E0.16305
G1 X80.086 Y77.419 E0.16305
G1 X81.992 Y80.722 E0.16305
G1 X84.544 Y83.556 E0.16305
G1 X87.629 Y85.797 E0.16305
G1 X91.113 Y87.349 E0.16305
G1 X94.843 Y88.141 E0.16305
G1 X98.657 Y88.141 E0.16305
G1 X102.387 Y87.349 E0.16305
G1 X105.871 Y85.797 E0.16305
G1 X108.956 Y83.556 E0.16305
G1 X111.508 Y80.722 E0.16305
G1 X113.414 Y77.419 E0.16305
G1 X114.593 Y73.793 E0.16305
G1 X114.861 Y71.240 E0.10974
G1 X122.510 Y71.240 E0.32704
G1 X122.510 Y82.259 E0.47113
G1 X114.801 Y82.235 E0.32962
G1 X110.658 Y85.414 E0.22324
G1 X107.129 Y87.978 E0.18649
G1 X103.165 Y89.743 E0.18554
G1 X74.823 Y95.703 E1.23830
G1 X72.678 Y95.703 E0.09171
G1 X70.581 Y95.257 E0.09167
G1 X67.490 Y93.861 E0.14499
G1 X67.490 Y90.053 E0.16280
G1 X68.570 Y91.253 E0.06901
G1 X69.879 Y92.204 E0.06919
G1 X71.358 Y92.862 E0.06919
G1 X72.941 Y93.199 E0.06919
G1 X74.559 Y93.199 E0.06919
G1 X76.142 Y92.862 E0.06919
G1 X77.621 Y92.204 E0.06919
G1 X78.930 Y91.253 E0.06919
G1 X80.013 Y90.050 E0.06919
G1 X80.822 Y88.649 E0.06920
G1 X81.322 Y87.109 E0.06919
G1 X81.491 Y85.500 E0.06919
G1 X81.322 Y83.891 E0.06919
G1 X80.822 Y82.351 E0.06919
G1 X80.017 Y80.957 E0.06886
G1 X78.930 Y79.747 E0.06952
G1 X77.621 Y78.796 E0.06920
G1 X76.142 Y78.138 E0.06919
G1 X74.559 Y77.801 E0.06919
G1 X72.941 Y77.801 E0.06919
G1 X71.358 Y78.138 E0.06919
G1 X69.879 Y78.796 E0.06919
G1 X68.570 Y79.747 E0.06919
G1 X67.490 Y80.947 E0.06901
G1 X67.490 Y59.113 E0.93349
G1 X67.678 Y59.407 F7800.000
G1 X69.943 Y62.449 F7800.000
G1 X77.449 Y69.956 E0.45593 F600.000
G1 X77.489 Y70.604 E0.02790
G1 X68.576 Y61.691 E0.54135
G1 X68.557 Y62.281 E0.02536
G1 X77.560 Y71.284 E0.54682
G1 X77.632 Y71.964 E0.02938
G1 X68.557 Y62.890 E0.55117
G1 X68.557 Y63.499 E0.02614
G1 X77.703 Y72.645 E0.55551
G1 X77.775 Y73.325 E0.02938
G1 X68.557 Y64.108 E0.55985
G1 X68.557 Y64.716 E0.02614
G1 X77.846 Y74.005 E0.56419
G1 X78.100 Y74.868 E0.03861
G1 X68.557 Y65.325 E0.57960
G1 X68.557 Y65.934 E0.02614
G1 X78.393 Y75.769 E0.59740
G1 X78.686 Y76.671 E0.04072
G1 X68.557 Y66.542 E0.61520
G1 X68.557 Y67.151 E0.02614
G1 X78.979 Y77.573 E0.63299
G1 X78.736 Y77.938 E0.01885
G1 X68.557 Y67.760 E0.61821
G1 X68.557 Y68.369 E0.02614
G1 X77.885 Y77.696 E0.56652
G1 X76.787 Y77.207 F7800.000
G1 X68.557 Y68.977 E0.49988 F600.000
G1 X68.557 Y69.586 E0.02614
G1 X75.957 Y76.986 E0.44944
G1 X75.184 Y76.821 E0.03394
G1 X68.557 Y70.195 E0.40248
G1 X68.557 Y70.804 E0.02614
G1 X74.488 Y76.734 E0.36019
G1 X73.879 Y76.734 E0.02614
G1 X68.557 Y71.412 E0.32322
G1 X68.557 Y72.021 E0.02614
G1 X73.270 Y76.734 E0.28624
G1 X72.705 Y76.777 E0.02434
G1 X68.557 Y72.630 E0.25191
G1 X68.557 Y73.238 E0.02614
G1 X72.203 Y76.884 E0.22142
G1 X71.701 Y76.991 E0.02204
G1 X68.557 Y73.847 E0.19093
G1 X68.557 Y74.456 E0.02614
G1 X71.199 Y77.097 E0.16044
G1 X70.760 Y77.267 E0.02021
G1 X68.557 Y75.065 E0.13378
G1 X68.557 Y75.673 E0.02614
G1 X70.339 Y77.455 E0.10819
G1 X69.918 Y77.642 E0.01980
G1 X68.557 Y76.282 E0.08261
G1 X68.557 Y76.891 E0.02614
G1 X69.496 Y77.830 E0.05703
G1 X69.126 Y78.068 E0.01891
G1 X68.557 Y77.500 E0.03454
G1 X68.557 Y78.108 E0.02614
G1 X68.774 Y78.324 E0.01313
G1 X71.002 Y62.899 F7800.000
G1 X77.507 Y69.405 E0.39513 F600.000
G1 X77.565 Y68.854 E0.02379
G1 X71.775 Y63.064 E0.35169
G1 X72.548 Y63.228 E0.03394
G1 X77.623 Y68.303 E0.30825
G1 X77.681 Y67.752 E0.02379
G1 X73.195 Y63.266 E0.27247
G1 X73.804 Y63.266 E0.02614
G1 X77.739 Y67.201 E0.23901
G1 X77.796 Y66.651 E0.02379
G1 X74.412 Y63.266 E0.20555
G1 X74.945 Y63.191 E0.02312
G1 X77.854 Y66.100 E0.17670
G1 X77.996 Y65.633 E0.02095
G1 X75.447 Y63.083 E0.15486
G1 X75.948 Y62.976 E0.02203
G1 X78.146 Y65.174 E0.13346
G1 X78.295 Y64.714 E0.02075
G1 X76.445 Y62.864 E0.11236
G1 X76.866 Y62.677 E0.01980
G1 X78.444 Y64.255 E0.09585
G1 X78.594 Y63.795 E0.02075
G1 X77.287 Y62.489 E0.07933
G1 X77.709 Y62.302 E0.01980
G1 X78.743 Y63.336 E0.06282
G1 X78.892 Y62.876 E0.02075
G1 X78.127 Y62.111 E0.04647
G1 X78.478 Y61.853 E0.01870
G1 X78.700 Y62.075 E0.01349
G1 X73.010 Y69.502 F7800.000
G1 X75.780 Y74.725 F7800.000
G1 X78.354 Y77.345 F7800.000
G1 X78.788 Y77.925 F7800.000
G1 X78.871 Y78.028 F7800.000
G1 X79.152 Y77.970 F7800.000
G1 X79.162 Y78.016 E0.00202 F900.000
G1 X79.105 Y78.287 E0.01184
G1 X79.672 Y78.918 E0.03628
G1 X79.801 Y79.094 E0.00932
G1 X80.559 Y80.139 F7800.000
G1 X80.775 Y80.441 E0.03371 F900.000
G1 X81.235 Y81.238 E0.08334
G1 X81.449 Y81.537 E0.03341
G1 X81.937 Y82.278 F7800.000
G1 X82.439 Y83.148 E0.04297 F900.000
G1 X82.332 Y83.388 E0.01121
G1 X82.350 Y83.546 E0.00680
G1 X77.647 Y93.701 F7800.000
G1 X76.513 Y94.066 E0.10801 F900.000
G1 X74.692 Y94.450 E0.16869
G1 X72.809 Y94.450 E0.17070
G1 X70.973 Y94.060 E0.17019
G1 X69.270 Y93.297 E0.16919
G1 X68.561 Y92.888 E0.07415
G1 X78.133 Y93.933 F7800.000
