; generated by Slic3r 1.2.9 on 2017-01-28 at 17:34:27

; external perimeters extrusion width = 0.40mm
; perimeters extrusion width = 0.48mm
; infill extrusion width = 0.48mm
; solid infill extrusion width = 0.48mm
; top infill extrusion width = 0.48mm

M104 S190 ; set temperature
G28 ; home all axes
G1 Z5 F5000 ; lift nozzle

M109 S190 ; wait for temperature to be reached
G21 ; set units to millimeters
G90 ; use absolute coordinates
M83 ; use relative distances for extrusion
G1 Z0.240 F7800.000
;G1 X49.035 Y51.828 F7800.000 ; replaced by represure
G1 X45.5986858752 Y48.1959557773 Z0.24 ; travel partially
G1 X49.035 Y51.828 E0.5 F600; long travel extraShot
G1 X51.241 Y50.870 E0.10287 F1800.000
G1 X53.000 Y50.654 E0.07575
G1 X137.000 Y50.654 E3.59146
G1 X139.373 Y51.052 E0.10287
G1 X141.487 Y52.200 E0.10287
G1 X143.112 Y53.975 E0.10287
G1 X144.070 Y56.181 E0.10287
G1 X144.285 Y57.940 E0.07575
G1 X144.285 Y72.008 E0.60149
G1 X144.059 Y73.812 E0.07772
G1 X141.892 Y82.291 E0.37417
G1 X141.743 Y82.798 E0.02260
G1 X140.409 Y86.785 E0.17975
G1 X139.280 Y88.909 E0.10287
G1 X137.520 Y90.550 E0.10287
G1 X135.322 Y91.528 E0.10287
G1 X133.500 Y91.759 E0.07853
G1 X56.500 Y91.759 E3.29217
G1 X54.127 Y91.362 E0.10287
G1 X52.013 Y90.214 E0.10287
G1 X50.388 Y88.439 E0.10287
G1 X49.591 Y86.785 E0.07853
G1 X48.257 Y82.798 E0.17975
G1 X48.108 Y82.291 E0.02261
G1 X45.941 Y73.812 E0.37417
G1 X45.715 Y72.008 E0.07772
G1 X45.715 Y57.940 E0.60149
G1 X46.112 Y55.567 E0.10287
G1 X47.260 Y53.453 E0.10287
;G1 X48.990 Y51.869 E0.10030 ; replaced by coast
G1 X48.99 Y51.869 Z0.24 E-0.117281243172; coast(2.34562486344) & retract
G1 X48.99 Y51.869 Z0.24 E-0.3; & endwipe
;G1 X49.446 Y52.076 F7800.000 ; replaced by represure
G1 X49.332 Y52.02425 Z0.24 ; travel partially
G1 X49.446 Y52.076 E0.417281243172 F600; tipRepresure
G1 X51.619 Y51.224 E0.09977 F1800.000
G1 X53.000 Y51.083 E0.05937
G1 X137.000 Y51.083 E3.59146
G1 X139.300 Y51.480 E0.09977
G1 X141.333 Y52.625 E0.09977
G1 X142.864 Y54.386 E0.09977
G1 X143.716 Y56.558 E0.09977
G1 X143.857 Y57.940 E0.05937
G1 X143.857 Y72.008 E0.60149
G1 X143.644 Y73.706 E0.07315
G1 X141.477 Y82.184 E0.37417
G1 X141.336 Y82.662 E0.02128
G1 X140.003 Y86.649 E0.17975
G1 X138.897 Y88.704 E0.09977
G1 X137.166 Y90.269 E0.09977
G1 X135.010 Y91.163 E0.09977
G1 X133.500 Y91.331 E0.06498
G1 X56.500 Y91.331 E3.29217
G1 X54.200 Y90.934 E0.09977
G1 X52.167 Y89.789 E0.09977
G1 X50.636 Y88.028 E0.09977
G1 X49.997 Y86.649 E0.06498
G1 X48.664 Y82.662 E0.17975
G1 X48.523 Y82.184 E0.02128
G1 X46.356 Y73.706 E0.37417
G1 X46.143 Y72.008 E0.07315
G1 X46.143 Y57.940 E0.60149
G1 X46.540 Y55.640 E0.09977
G1 X47.685 Y53.607 E0.09977
;G1 X49.401 Y52.115 E0.09721 ; replaced by coast
G1 X49.401 Y52.115 Z0.24 E-0.113696086124; coast(2.27392172249) & retract
G1 X49.401 Y52.115 Z0.24 E-0.3; & endwipe
;G1 X49.856 Y52.333 F7800.000 ; replaced by represure
G1 X49.74225 Y52.2785 Z0.24 ; travel partially
G1 X49.856 Y52.333 E0.413696086124 F600; tipRepresure
G1 X53.000 Y51.511 E0.13896 F1800.000
G1 X137.000 Y51.511 E3.59146
G1 X139.224 Y51.908 E0.09658
G1 X141.173 Y53.050 E0.09658
G1 X142.607 Y54.795 E0.09658
G1 X143.428 Y57.940 E0.13896
G1 X143.428 Y72.008 E0.60149
G1 X143.228 Y73.600 E0.06858
G1 X141.062 Y82.078 E0.37417
G1 X140.930 Y82.526 E0.01995
G1 X139.597 Y86.513 E0.17975
G1 X138.515 Y88.496 E0.09658
G1 X136.814 Y89.983 E0.09658
G1 X134.704 Y90.789 E0.09658
G1 X133.500 Y90.902 E0.05169
G1 X56.500 Y90.902 E3.29217
G1 X54.276 Y90.506 E0.09658
G1 X52.327 Y89.364 E0.09658
G1 X50.893 Y87.618 E0.09658
G1 X50.403 Y86.513 E0.05169
G1 X49.070 Y82.526 E0.17975
G1 X48.938 Y82.078 E0.01995
G1 X46.772 Y73.599 E0.37417
G1 X46.572 Y72.008 E0.06858
G1 X46.572 Y57.940 E0.60149
G1 X46.968 Y55.716 E0.09658
G1 X48.110 Y53.767 E0.09658
;G1 X49.809 Y52.371 E0.09402 ; replaced by coast
G1 X49.809 Y52.371 Z0.24 E-0.10994790812; coast(2.1989581624) & retract
G1 X49.809 Y52.371 Z0.24 E-0.3; & endwipe
;G1 X129.532 Y78.718 F7800.000 ; replaced by represure
G1 X124.784537884 Y77.1490502066 Z0.24 ; travel partially
G1 X129.532 Y78.718 E0.40994790812 F600; tipRepresure
G1 X129.532 Y78.718 E0.5 F600; long travel extraShot
G1 X128.947 Y77.603 E0.05382 F300.000
G1 X128.947 Y76.345 E0.05382
G1 X129.532 Y75.230 E0.05382
G1 X130.567 Y74.515 E0.05382
G1 X131.799 Y74.365 E0.05304
G1 X132.991 Y74.806 E0.05432
G1 X133.829 Y75.752 E0.05403
G1 X134.130 Y76.974 E0.05382
G1 X133.829 Y78.196 E0.05382
G1 X132.994 Y79.138 E0.05382
G1 X131.817 Y79.585 E0.05382
G1 X130.567 Y79.433 E0.05381
;G1 X129.581 Y78.752 E0.05125 ; replaced by coast
G1 X129.581 Y78.752 Z0.24 E-0.0599157116289; coast(1.19831423258) & retract
G1 X129.581 Y78.752 Z0.24 E-0.3; & endwipe
;G1 X129.862 Y78.425 F7800.000 ; replaced by represure
G1 X129.79175 Y78.50675 Z0.24 ; travel partially
G1 X129.862 Y78.425 E0.359915711629 F600; tipRepresure
G1 X129.375 Y77.498 E0.04479 F300.000
G1 X129.375 Y76.450 E0.04479
G1 X129.862 Y75.523 E0.04479
G1 X130.724 Y74.928 E0.04479
G1 X131.748 Y74.803 E0.04409
G1 X132.741 Y75.171 E0.04529
G1 X133.438 Y75.957 E0.04491
G1 X133.688 Y76.974 E0.04479
G1 X133.438 Y77.991 E0.04479
G1 X132.743 Y78.775 E0.04479
G1 X131.764 Y79.147 E0.04479
G1 X130.724 Y79.020 E0.04478
;G1 X129.911 Y78.459 E0.04222 ; replaced by coast
G1 X129.911 Y78.459 Z0.24 E-0.0493885108097; coast(0.987770216194) & retract
G1 X129.911 Y78.459 Z0.24 E-0.3; & endwipe
;G1 X130.192 Y78.133 F7800.000 ; replaced by represure
G1 X130.12175 Y78.2145 Z0.24 ; travel partially
G1 X130.192 Y78.133 E0.34938851081 F600; tipRepresure
G1 X129.804 Y77.392 E0.03575 F300.000
G1 X129.804 Y76.556 E0.03576
G1 X130.192 Y75.815 E0.03575
G1 X130.880 Y75.340 E0.03575
G1 X131.696 Y75.241 E0.03514
G1 X132.492 Y75.535 E0.03626
G1 X133.047 Y76.162 E0.03580
G1 X133.247 Y76.974 E0.03575
G1 X133.047 Y77.786 E0.03575
G1 X132.493 Y78.412 E0.03576
G1 X131.711 Y78.708 E0.03576
G1 X130.880 Y78.608 E0.03575
;G1 X130.242 Y78.167 E0.03319 ; replaced by coast
G1 X130.242 Y78.167 Z0.24 E-0.0387790213904; coast(0.775580427809) & retract
G1 X130.242 Y78.167 Z0.24 E-0.3; & endwipe
G1 X129.795 Y78.181 F7800.000
;G1 X121.053 Y77.603 F7800.000 ; replaced by represure
G1 X126.042106861 Y77.932867738 Z0.24 ; travel partially
G1 X121.053 Y77.603 E0.33877902139 F600; tipRepresure
G1 X120.468 Y78.718 E0.05382 F300.000
G1 X119.433 Y79.433 E0.05382
G1 X118.183 Y79.585 E0.05382
G1 X117.006 Y79.138 E0.05382
G1 X116.171 Y78.196 E0.05382
G1 X115.870 Y76.974 E0.05382
G1 X116.171 Y75.752 E0.05382
G1 X117.006 Y74.810 E0.05382
G1 X118.166 Y74.370 E0.05304
G1 X119.428 Y74.512 E0.05432
G1 X120.468 Y75.230 E0.05403
G1 X121.053 Y76.345 E0.05382
;G1 X121.053 Y77.543 E0.05125 ; replaced by coast
G1 X121.053 Y77.543 Z0.24 E-0.0599; coast(1.198) & retract
G1 X121.053 Y77.543 Z0.24 E-0.3; & endwipe
;G1 X120.625 Y77.498 F7800.000 ; replaced by represure
G1 X120.732 Y77.50925 Z0.24 ; travel partially
G1 X120.625 Y77.498 E0.3599 F600; tipRepresure
G1 X120.138 Y78.425 E0.04479 F300.000
G1 X119.276 Y79.020 E0.04479
G1 X118.236 Y79.147 E0.04478
G1 X117.257 Y78.775 E0.04479
G1 X116.562 Y77.991 E0.04479
G1 X116.312 Y76.974 E0.04479
G1 X116.562 Y75.957 E0.04479
G1 X117.257 Y75.173 E0.04479
G1 X118.221 Y74.807 E0.04409
G1 X119.274 Y74.926 E0.04529
G1 X120.138 Y75.523 E0.04491
G1 X120.625 Y76.450 E0.04479
;G1 X120.625 Y77.438 E0.04222 ; replaced by coast
G1 X120.625 Y77.438 Z0.24 E-0.0494; coast(0.988) & retract
G1 X120.625 Y77.438 Z0.24 E-0.3; & endwipe
;G1 X120.196 Y77.392 F7800.000 ; replaced by represure
G1 X120.30325 Y77.4035 Z0.24 ; travel partially
G1 X120.196 Y77.392 E0.3494 F600; tipRepresure
G1 X119.808 Y78.133 E0.03575 F300.000
G1 X119.120 Y78.608 E0.03575
G1 X118.289 Y78.708 E0.03575
G1 X117.507 Y78.412 E0.03576
G1 X116.953 Y77.786 E0.03576
G1 X116.753 Y76.974 E0.03575
G1 X116.953 Y76.162 E0.03575
G1 X117.507 Y75.536 E0.03576
G1 X118.276 Y75.245 E0.03514
G1 X119.119 Y75.340 E0.03626
G1 X119.808 Y75.815 E0.03580
G1 X120.196 Y76.556 E0.03575
;G1 X120.196 Y77.332 E0.03319 ; replaced by coast
G1 X120.196 Y77.332 Z0.24 E-0.0388; coast(0.776) & retract
G1 X120.196 Y77.332 Z0.24 E-0.3; & endwipe
G1 X120.462 Y77.692 F7800.000
G1 X115.970 Y76.974 F7800.000
G1 X113.777 Y70.425 F7800.000
G1 X75.317 Y70.777 F7800.000
G1 X74.325 Y75.280 F7800.000
G1 X74.364 Y76.896 F7800.000
G1 X74.031 Y76.978 F7800.000
;G1 X74.131 Y76.979 F7800.000 ; replaced by represure
G1 X74.131 Y76.979 E0.3388 F600; tipRepresure
G1 X74.131 Y76.979 E0.5 F600; long travel extraShot
G1 X73.817 Y78.210 E0.05432 F300.000
G1 X72.994 Y79.138 E0.05304
G1 X71.817 Y79.585 E0.05382
G1 X70.567 Y79.433 E0.05382
G1 X69.532 Y78.718 E0.05382
G1 X68.947 Y77.603 E0.05382
G1 X68.947 Y76.345 E0.05382
G1 X69.532 Y75.230 E0.05382
G1 X70.567 Y74.515 E0.05382
G1 X71.799 Y74.365 E0.05304
G1 X72.991 Y74.806 E0.05432
G1 X73.829 Y75.752 E0.05403
;G1 X74.117 Y76.920 E0.05146 ; replaced by coast
G1 X74.117 Y76.92 Z0.24 E-0.0601491479574; coast(1.20298295915) & retract
G1 X74.117 Y76.92 Z0.24 E-0.3; & endwipe
;G1 X73.689 Y76.977 F7800.000 ; replaced by represure
G1 X73.796 Y76.96275 Z0.24 ; travel partially
G1 X73.689 Y76.977 E0.360149147957 F600; tipRepresure
G1 X73.427 Y78.003 E0.04529 F300.000
G1 X72.743 Y78.775 E0.04409
G1 X71.764 Y79.147 E0.04479
G1 X70.724 Y79.020 E0.04478
G1 X69.862 Y78.425 E0.04479
G1 X69.375 Y77.498 E0.04479
G1 X69.375 Y76.450 E0.04479
G1 X69.862 Y75.523 E0.04479
G1 X70.724 Y74.928 E0.04479
G1 X71.748 Y74.803 E0.04409
G1 X72.741 Y75.171 E0.04529
G1 X73.438 Y75.957 E0.04491
;G1 X73.675 Y76.919 E0.04235 ; replaced by coast
G1 X73.675 Y76.919 Z0.24 E-0.0495381923368; coast(0.990763846736) & retract
G1 X73.675 Y76.919 Z0.24 E-0.3; & endwipe
;G1 X73.247 Y76.975 F7800.000 ; replaced by represure
G1 X73.354 Y76.961 Z0.24 ; travel partially
G1 X73.247 Y76.975 E0.349538192337 F600; tipRepresure
G1 X73.038 Y77.797 E0.03626 F300.000
G1 X72.493 Y78.412 E0.03514
G1 X71.711 Y78.708 E0.03576
G1 X70.880 Y78.608 E0.03575
G1 X70.192 Y78.133 E0.03575
G1 X69.804 Y77.392 E0.03575
G1 X69.804 Y76.556 E0.03576
G1 X70.192 Y75.815 E0.03575
G1 X70.880 Y75.340 E0.03575
G1 X71.696 Y75.241 E0.03514
G1 X72.492 Y75.535 E0.03626
G1 X73.047 Y76.162 E0.03580
;G1 X73.233 Y76.917 E0.03324 ; replaced by coast
G1 X73.233 Y76.917 Z0.24 E-0.0388786895355; coast(0.777573790711) & retract
G1 X73.233 Y76.917 Z0.24 E-0.3; & endwipe
G1 X73.575 Y77.204 F7800.000
;G1 X61.053 Y77.603 F7800.000 ; replaced by represure
G1 X66.0504636578 Y77.4437612203 Z0.24 ; travel partially
G1 X61.053 Y77.603 E0.338878689536 F600; tipRepresure
G1 X60.468 Y78.718 E0.05382 F300.000
G1 X59.433 Y79.433 E0.05382
G1 X58.183 Y79.585 E0.05382
G1 X57.006 Y79.138 E0.05382
G1 X56.171 Y78.196 E0.05382
G1 X55.870 Y76.974 E0.05382
G1 X56.171 Y75.752 E0.05382
G1 X57.006 Y74.810 E0.05382
G1 X58.166 Y74.370 E0.05304
G1 X59.428 Y74.512 E0.05432
G1 X60.468 Y75.230 E0.05403
G1 X61.053 Y76.345 E0.05382
;G1 X61.053 Y77.543 E0.05125 ; replaced by coast
G1 X61.053 Y77.543 Z0.24 E-0.0599; coast(1.198) & retract
G1 X61.053 Y77.543 Z0.24 E-0.3; & endwipe
;G1 X60.625 Y77.498 F7800.000 ; replaced by represure
G1 X60.732 Y77.50925 Z0.24 ; travel partially
G1 X60.625 Y77.498 E0.3599 F600; tipRepresure
G1 X60.138 Y78.425 E0.04479 F300.000
G1 X59.276 Y79.020 E0.04479
G1 X58.236 Y79.147 E0.04478
G1 X57.257 Y78.775 E0.04479
G1 X56.562 Y77.991 E0.04479
G1 X56.312 Y76.974 E0.04479
G1 X56.562 Y75.957 E0.04479
G1 X57.257 Y75.173 E0.04479
G1 X58.221 Y74.807 E0.04409
G1 X59.274 Y74.926 E0.04529
G1 X60.138 Y75.523 E0.04491
G1 X60.625 Y76.450 E0.04479
;G1 X60.625 Y77.438 E0.04222 ; replaced by coast
G1 X60.625 Y77.438 Z0.24 E-0.0494; coast(0.988) & retract
G1 X60.625 Y77.438 Z0.24 E-0.3; & endwipe
;G1 X60.196 Y77.392 F7800.000 ; replaced by represure
G1 X60.30325 Y77.4035 Z0.24 ; travel partially
G1 X60.196 Y77.392 E0.3494 F600; tipRepresure
G1 X59.808 Y78.133 E0.03575 F300.000
G1 X59.120 Y78.608 E0.03575
G1 X58.289 Y78.708 E0.03575
G1 X57.507 Y78.412 E0.03576
G1 X56.953 Y77.786 E0.03576
G1 X56.753 Y76.974 E0.03575
G1 X56.953 Y76.162 E0.03575
G1 X57.507 Y75.536 E0.03576
G1 X58.276 Y75.245 E0.03514
G1 X59.119 Y75.340 E0.03626
G1 X59.808 Y75.815 E0.03580
G1 X60.196 Y76.556 E0.03575
;G1 X60.196 Y77.332 E0.03319 ; replaced by coast
G1 X60.196 Y77.332 Z0.24 E-0.0388; coast(0.776) & retract
G1 X60.196 Y77.332 Z0.24 E-0.3; & endwipe
G1 X60.462 Y77.692 F7800.000
;G1 X76.148 Y70.911 F7800.000 ; replaced by represure
G1 X71.558487263 Y72.8950294447 Z0.24 ; travel partially
G1 X76.148 Y70.911 E0.3388 F600; tipRepresure
G1 X73.780 Y80.177 E0.40889 F600.000
G1 X72.710 Y83.377 E0.14428
G1 X57.290 Y83.377 E0.65930
G1 X56.219 Y80.177 E0.14428
G1 X54.097 Y71.870 E0.36656
G1 X54.097 Y69.938 E0.08259
G1 X135.903 Y69.938 E3.49765
G1 X135.903 Y71.870 E0.08259
G1 X133.780 Y80.177 E0.36656
G1 X132.710 Y83.377 E0.14428
G1 X117.290 Y83.377 E0.65930
G1 X116.219 Y80.177 E0.14428
G1 X113.852 Y70.911 E0.40889
;G1 X76.208 Y70.911 E1.60948 ; replaced by coast
G1 X81.208 Y70.911 E1.60948 ; extrude all
G1 X76.208 Y70.911 Z0.24 E-0.25; coast(5) & retract
G1 X76.208 Y70.911 Z0.24 E-0.3; & endwipe
;G1 X76.481 Y71.340 F7800.000 ; replaced by represure
G1 X76.41275 Y71.23275 Z0.24 ; travel partially
G1 X76.481 Y71.34 E0.05; represure(0.05,0.127124446901)
G1 X76.481 Y71.34 E0.5 F600; tipRepresure
G1 X74.192 Y80.298 E0.39532 F600.000
G1 X73.019 Y83.805 E0.15813
G1 X56.981 Y83.805 E0.68569
G1 X55.808 Y80.298 E0.15813
G1 X53.668 Y71.924 E0.36953
G1 X53.668 Y69.510 E0.10322
G1 X136.332 Y69.510 E3.53429
G1 X136.332 Y71.924 E0.10322
G1 X134.192 Y80.298 E0.36953
G1 X133.019 Y83.805 E0.15813
G1 X116.981 Y83.805 E0.68569
G1 X115.808 Y80.298 E0.15813
G1 X113.519 Y71.340 E0.39532
;G1 X76.541 Y71.340 E1.58102 ; replaced by coast
G1 X81.541 Y71.34 E1.58102 ; extrude all
G1 X76.541 Y71.34 Z0.24 E-0.25; coast(5) & retract
G1 X76.541 Y71.34 Z0.24 E-0.3; & endwipe
;G1 X76.814 Y71.768 F7800.000 ; replaced by represure
G1 X76.74575 Y71.661 Z0.24 ; travel partially
G1 X76.814 Y71.768 E0.05; represure(0.05,0.126913602502)
G1 X76.814 Y71.768 E0.5 F600; tipRepresure
G1 X74.603 Y80.419 E0.38176 F600.000
G1 X73.327 Y84.234 E0.17199
G1 X56.673 Y84.234 E0.71207
G1 X55.397 Y80.419 E0.17199
G1 X53.240 Y71.978 E0.37250
G1 X53.240 Y69.081 E0.12384
G1 X136.760 Y69.081 E3.57094
G1 X136.760 Y71.978 E0.12384
G1 X134.603 Y80.419 E0.37250
G1 X133.327 Y84.234 E0.17199
G1 X116.673 Y84.234 E0.71207
G1 X115.397 Y80.419 E0.17199
G1 X113.186 Y71.768 E0.38176
;G1 X76.874 Y71.768 E1.55257 ; replaced by coast
G1 X81.874 Y71.768 E1.55257 ; extrude all
G1 X76.874 Y71.768 Z0.24 E-0.25; coast(5) & retract
G1 X76.874 Y71.768 Z0.24 E-0.3; & endwipe
G1 X76.419 Y71.702 F7800.000
;G1 X76.051 Y70.425 F7800.000 ; replaced by represure
G1 X76.143 Y70.74425 Z0.24 ; travel partially
G1 X76.051 Y70.425 E0.05; represure(0.05,0.332241722997)
G1 X76.051 Y70.425 E0.5 F600; tipRepresure
;G1 X113.949 Y70.425 E3.43541 F900.000 ; replaced by coast
G1 X108.949 Y70.425 E3.43541 ; extrude all
G1 X113.949 Y70.425 Z0.24 E-0.25; coast(5) & retract
G1 X113.949 Y70.425 Z0.24 E-0.3; & endwipe
;G1 X115.632 Y75.963 F7800.000 ; replaced by represure
G1 X114.178151384 Y71.1790346781 Z0.24 ; travel partially
G1 X115.632 Y75.963 E0.05; represure(0.05,5.0)
G1 X115.632 Y75.963 E0.5 F600; tipRepresure
;G1 X115.636 Y76.984 E0.04364 F900.000 ; replaced by coast
G1 X115.636 Y76.984 Z0.24 E-0.0510503917713; coast(1.02100783543) & retract
G1 X115.636 Y76.984 Z0.24 E-0.3; & endwipe
;G1 X115.977 Y78.316 F7800.000 ; replaced by represure
G1 X115.89175 Y77.983 Z0.24 ; travel partially
G1 X115.977 Y78.316 E0.351050391771 F600; tipRepresure
;G1 X116.477 Y79.259 E0.04566 F900.000 ; replaced by coast
G1 X116.477 Y79.259 Z0.24 E-0.0533678039646; coast(1.06735607929) & retract
G1 X116.477 Y79.259 Z0.24 E-0.3; & endwipe
;G1 X116.424 Y79.490 F7800.000 ; replaced by represure
G1 X116.43725 Y79.43225 Z0.24 ; travel partially
G1 X116.424 Y79.49 E0.353367803965 F600; tipRepresure
G1 X120.101 Y83.167 E0.22642 F600.000
G1 X120.718 Y83.167 E0.02687
;G1 X116.924 Y79.373 E0.23359 ; replaced by coast
G1 X120.459533906 Y82.9085339059 E0.23359 ; extrude all
