; generated by Slic3r 1.2.9 on 2017-02-07 at 22:30:53

; external perimeters extrusion width = 0.40mm
; perimeters extrusion width = 0.48mm
; infill extrusion width = 0.48mm
; solid infill extrusion width = 0.48mm
; top infill extrusion width = 0.48mm

M104 S185 ; set temperature
G28 ; home all axes
G1 Z5 F5000 ; lift nozzle

M109 S185 ; wait for temperature to be reached
G21 ; set units to millimeters
G90 ; use absolute coordinates
M83 ; use relative distances for extrusion
G1 Z0.240 F7800.000
;G1 X67.687 Y58.659 F7800.000 ; replaced by represure
G1 X63.9084698602 Y55.3844450711 Z0.24 ; travel partially
G1 X67.687 Y58.659 E0.5 F600; long travel extraShot
G1 X69.226 Y56.950 E0.09832 F1800.000
G1 X70.357 Y55.931 E0.06511
G1 X72.218 Y54.580 E0.09832
G1 X73.537 Y53.818 E0.06512
G1 X76.046 Y52.716 E0.11719
G1 X107.282 Y41.020 E1.42606
G1 X108.322 Y40.716 E0.04631
G1 X109.753 Y40.412 E0.06257
G1 X111.304 Y40.253 E0.06664
G1 X112.802 Y40.260 E0.06404
G1 X114.281 Y40.419 E0.06362
G1 X115.678 Y40.716 E0.06107
G1 X117.126 Y41.187 E0.06511
G1 X118.463 Y41.782 E0.06257
G1 X119.782 Y42.544 E0.06513
G1 X120.966 Y43.404 E0.06257
G1 X122.098 Y44.423 E0.06511
G1 X123.077 Y45.511 E0.06257
G1 X123.972 Y46.743 E0.06512
G1 X124.704 Y48.010 E0.06257
G1 X125.324 Y49.402 E0.06513
G1 X125.776 Y50.793 E0.06257
G1 X126.093 Y52.283 E0.06512
G1 X126.246 Y53.738 E0.06257
G1 X126.285 Y54.500 E0.03260
G1 X126.285 Y85.500 E1.32542
G1 X126.246 Y86.262 E0.03260
G1 X126.093 Y87.717 E0.06257
G1 X125.776 Y89.207 E0.06512
G1 X125.324 Y90.598 E0.06257
G1 X124.704 Y91.990 E0.06513
G1 X123.972 Y93.257 E0.06257
G1 X123.077 Y94.490 E0.06512
G1 X122.098 Y95.577 E0.06257
G1 X120.966 Y96.596 E0.06511
G1 X119.782 Y97.456 E0.06257
G1 X118.463 Y98.218 E0.06513
G1 X117.126 Y98.813 E0.06257
G1 X115.678 Y99.284 E0.06511
G1 X114.247 Y99.588 E0.06257
G1 X112.732 Y99.747 E0.06513
G1 X111.268 Y99.747 E0.06257
G1 X109.753 Y99.588 E0.06513
G1 X108.322 Y99.284 E0.06257
G1 X107.282 Y98.980 E0.04631
G1 X76.046 Y87.284 E1.42606
G1 X73.537 Y86.182 E0.11719
G1 X72.218 Y85.420 E0.06512
G1 X70.357 Y84.069 E0.09832
G1 X69.226 Y83.050 E0.06511
G1 X67.687 Y81.341 E0.09832
G1 X66.791 Y80.108 E0.06513
G1 X65.642 Y78.117 E0.09832
G1 X65.022 Y76.725 E0.06512
G1 X64.311 Y74.538 E0.09832
G1 X63.995 Y73.049 E0.06511
G1 X63.754 Y70.762 E0.09832
G1 X63.754 Y69.238 E0.06513
G1 X63.995 Y66.951 E0.09832
G1 X64.311 Y65.462 E0.06511
G1 X65.022 Y63.275 E0.09832
G1 X65.642 Y61.883 E0.06512
G1 X66.791 Y59.892 E0.09832
;G1 X67.651 Y58.708 E0.06256 ; replaced by coast
G1 X67.651 Y58.708 Z0.24 E-0.0731685724885; coast(1.46337144977) & retract
G1 X67.651 Y58.708 Z0.24 E-0.3; & endwipe
;G1 X68.005 Y58.946 F7800.000 ; replaced by represure
G1 X67.9165 Y58.8865 Z0.24 ; travel partially
G1 X68.005 Y58.946 E0.373168572488 F600; tipRepresure
G1 X69.544 Y57.237 E0.09832 F1800.000
G1 X70.609 Y56.278 E0.06128
G1 X72.470 Y54.926 E0.09832
G1 X73.711 Y54.210 E0.06129
G1 X75.812 Y53.274 E0.09832
G1 X107.432 Y41.421 E1.44382
G1 X108.411 Y41.135 E0.04359
G1 X109.842 Y40.831 E0.06257
G1 X111.302 Y40.681 E0.06272
G1 X112.799 Y40.689 E0.06404
G1 X114.192 Y40.838 E0.05988
G1 X115.589 Y41.135 E0.06107
G1 X116.952 Y41.578 E0.06128
G1 X118.289 Y42.174 E0.06257
G1 X119.531 Y42.890 E0.06130
G1 X120.714 Y43.751 E0.06257
G1 X121.780 Y44.710 E0.06128
G1 X122.759 Y45.797 E0.06257
G1 X123.601 Y46.957 E0.06129
G1 X124.333 Y48.224 E0.06257
G1 X124.916 Y49.534 E0.06130
G1 X125.368 Y50.926 E0.06257
G1 X125.666 Y52.328 E0.06129
G1 X125.819 Y53.783 E0.06257
G1 X125.857 Y54.500 E0.03069
G1 X125.857 Y85.500 E1.32542
G1 X125.819 Y86.217 E0.03069
G1 X125.666 Y87.672 E0.06257
G1 X125.368 Y89.074 E0.06129
G1 X124.916 Y90.466 E0.06257
G1 X124.333 Y91.776 E0.06130
G1 X123.601 Y93.043 E0.06257
G1 X122.759 Y94.203 E0.06129
G1 X121.780 Y95.290 E0.06257
G1 X120.714 Y96.249 E0.06128
G1 X119.531 Y97.110 E0.06257
G1 X118.289 Y97.826 E0.06130
G1 X116.952 Y98.422 E0.06257
G1 X115.589 Y98.865 E0.06128
G1 X114.158 Y99.169 E0.06257
G1 X112.732 Y99.319 E0.06130
G1 X111.268 Y99.319 E0.06257
G1 X109.842 Y99.169 E0.06130
G1 X108.411 Y98.865 E0.06257
G1 X107.432 Y98.579 E0.04359
G1 X76.196 Y86.883 E1.42606
G1 X73.711 Y85.790 E0.11608
G1 X72.470 Y85.074 E0.06129
G1 X70.609 Y83.722 E0.09832
G1 X69.544 Y82.763 E0.06128
G1 X68.005 Y81.054 E0.09832
G1 X67.162 Y79.894 E0.06130
G1 X66.013 Y77.903 E0.09832
G1 X65.430 Y76.593 E0.06129
G1 X64.719 Y74.406 E0.09832
G1 X64.421 Y73.004 E0.06128
G1 X64.181 Y70.717 E0.09832
G1 X64.181 Y69.283 E0.06130
G1 X64.421 Y66.996 E0.09832
G1 X64.719 Y65.594 E0.06128
G1 X65.430 Y63.407 E0.09832
G1 X66.013 Y62.097 E0.06129
G1 X67.162 Y60.106 E0.09832
;G1 X67.970 Y58.995 E0.05873 ; replaced by coast
G1 X67.97 Y58.995 Z0.24 E-0.0686874260691; coast(1.37374852138) & retract
G1 X67.97 Y58.995 Z0.24 E-0.3; & endwipe
;G1 X68.324 Y59.233 F7800.000 ; replaced by represure
G1 X68.2355 Y59.1735 Z0.24 ; travel partially
G1 X68.324 Y59.233 E0.368687426069 F600; tipRepresure
G1 X69.862 Y57.524 E0.09832 F1800.000
G1 X70.861 Y56.625 E0.05745
G1 X72.721 Y55.273 E0.09832
G1 X73.885 Y54.601 E0.05746
G1 X75.986 Y53.666 E0.09832
G1 X107.583 Y41.822 E1.44271
G1 X108.500 Y41.555 E0.04086
G1 X109.932 Y41.250 E0.06257
G1 X111.300 Y41.110 E0.05880
G1 X112.797 Y41.117 E0.06404
G1 X114.103 Y41.258 E0.05613
G1 X115.500 Y41.555 E0.06107
G1 X116.778 Y41.970 E0.05745
G1 X118.115 Y42.565 E0.06257
G1 X119.279 Y43.237 E0.05747
G1 X120.463 Y44.097 E0.06257
G1 X121.461 Y44.996 E0.05745
G1 X122.440 Y46.084 E0.06257
G1 X123.230 Y47.171 E0.05746
G1 X123.962 Y48.438 E0.06257
G1 X124.509 Y49.666 E0.05747
G1 X124.961 Y51.058 E0.06257
G1 X125.240 Y52.373 E0.05746
G1 X125.393 Y53.828 E0.06257
G1 X125.428 Y54.500 E0.02877
G1 X125.428 Y85.500 E1.32542
G1 X125.393 Y86.172 E0.02877
G1 X125.240 Y87.627 E0.06257
G1 X124.961 Y88.942 E0.05746
G1 X124.509 Y90.334 E0.06257
G1 X123.962 Y91.562 E0.05747
G1 X123.230 Y92.829 E0.06257
G1 X122.440 Y93.916 E0.05746
G1 X121.461 Y95.004 E0.06257
G1 X120.463 Y95.903 E0.05745
G1 X119.279 Y96.763 E0.06257
G1 X118.115 Y97.435 E0.05747
G1 X116.778 Y98.030 E0.06257
G1 X115.500 Y98.445 E0.05745
G1 X114.068 Y98.750 E0.06257
G1 X112.732 Y98.890 E0.05747
G1 X111.268 Y98.890 E0.06257
G1 X109.932 Y98.750 E0.05747
G1 X108.500 Y98.445 E0.06257
G1 X107.583 Y98.178 E0.04086
G1 X76.347 Y86.482 E1.42606
G1 X73.885 Y85.399 E0.11497
G1 X72.721 Y84.727 E0.05746
G1 X70.861 Y83.375 E0.09832
G1 X69.862 Y82.476 E0.05745
G1 X68.324 Y80.767 E0.09832
G1 X67.534 Y79.680 E0.05747
G1 X66.384 Y77.688 E0.09832
G1 X65.837 Y76.461 E0.05746
G1 X65.127 Y74.273 E0.09832
G1 X64.847 Y72.959 E0.05746
G1 X64.607 Y70.672 E0.09832
G1 X64.607 Y69.328 E0.05747
G1 X64.847 Y67.041 E0.09832
G1 X65.127 Y65.727 E0.05745
G1 X65.837 Y63.539 E0.09832
G1 X66.384 Y62.312 E0.05746
G1 X67.534 Y60.320 E0.09832
;G1 X68.288 Y59.281 E0.05490 ; replaced by coast
G1 X68.288 Y59.281 Z0.24 E-0.0641879466878; coast(1.28375893376) & retract
G1 X68.288 Y59.281 Z0.24 E-0.3; & endwipe
;G1 X116.128 Y88.499 F7800.000 ; replaced by represure
G1 X111.860894258 Y85.8928901428 Z0.24 ; travel partially
G1 X116.128 Y88.499 E0.364187946688 F600; tipRepresure
G1 X116.128 Y88.499 E0.5 F600; long travel extraShot
G1 X115.415 Y89.292 E0.04562 F300.000
G1 X114.551 Y89.919 E0.04561
G1 X113.577 Y90.353 E0.04561
G1 X112.533 Y90.575 E0.04561
G1 X111.467 Y90.575 E0.04561
G1 X110.423 Y90.353 E0.04561
G1 X109.449 Y89.919 E0.04561
G1 X108.585 Y89.292 E0.04561
G1 X107.872 Y88.499 E0.04562
G1 X107.338 Y87.576 E0.04561
G1 X107.008 Y86.561 E0.04561
G1 X106.897 Y85.500 E0.04561
G1 X107.008 Y84.439 E0.04561
G1 X107.338 Y83.424 E0.04561
G1 X107.872 Y82.501 E0.04561
G1 X108.585 Y81.708 E0.04562
G1 X109.449 Y81.081 E0.04561
G1 X110.423 Y80.647 E0.04561
G1 X111.467 Y80.425 E0.04561
G1 X112.533 Y80.425 E0.04561
G1 X113.577 Y80.647 E0.04561
G1 X114.551 Y81.081 E0.04561
G1 X115.415 Y81.708 E0.04561
G1 X116.128 Y82.501 E0.04562
G1 X116.662 Y83.424 E0.04561
G1 X116.992 Y84.439 E0.04561
G1 X117.103 Y85.500 E0.04561
G1 X116.992 Y86.561 E0.04561
G1 X116.662 Y87.576 E0.04561
;G1 X116.158 Y88.447 E0.04305 ; replaced by coast
G1 X116.158 Y88.447 Z0.24 E-0.0503154300389; coast(1.00630860078) & retract
G1 X116.158 Y88.447 Z0.24 E-0.3; & endwipe
;G1 X115.780 Y88.246 F7800.000 ; replaced by represure
G1 X115.8745 Y88.29625 Z0.24 ; travel partially
G1 X115.78 Y88.246 E0.350315430039 F600; tipRepresure
G1 X115.126 Y88.972 E0.04176 F300.000
G1 X114.336 Y89.546 E0.04176
G1 X113.444 Y89.943 E0.04176
G1 X112.488 Y90.147 E0.04176
G1 X111.512 Y90.147 E0.04176
G1 X110.556 Y89.943 E0.04176
G1 X109.664 Y89.546 E0.04176
G1 X108.874 Y88.972 E0.04176
G1 X108.220 Y88.246 E0.04176
G1 X107.732 Y87.400 E0.04176
G1 X107.430 Y86.471 E0.04176
G1 X107.328 Y85.500 E0.04176
G1 X107.430 Y84.529 E0.04176
G1 X107.732 Y83.600 E0.04176
G1 X108.220 Y82.754 E0.04176
G1 X108.874 Y82.028 E0.04176
G1 X109.664 Y81.454 E0.04176
G1 X110.556 Y81.057 E0.04176
G1 X111.512 Y80.853 E0.04176
G1 X112.488 Y80.853 E0.04176
G1 X113.444 Y81.057 E0.04176
G1 X114.336 Y81.454 E0.04176
G1 X115.126 Y82.028 E0.04176
G1 X115.780 Y82.754 E0.04176
G1 X116.268 Y83.600 E0.04176
G1 X116.570 Y84.529 E0.04176
G1 X116.672 Y85.500 E0.04176
G1 X116.570 Y86.471 E0.04176
G1 X116.268 Y87.400 E0.04176
;G1 X115.810 Y88.194 E0.03920 ; replaced by coast
G1 X115.81 Y88.194 Z0.24 E-0.0458312120721; coast(0.916624241442) & retract
G1 X115.81 Y88.194 Z0.24 E-0.3; & endwipe
;G1 X115.431 Y87.993 F7800.000 ; replaced by represure
G1 X115.52575 Y88.04325 Z0.24 ; travel partially
G1 X115.431 Y87.993 E0.345831212072 F600; tipRepresure
G1 X114.838 Y88.652 E0.03791 F300.000
G1 X114.121 Y89.173 E0.03791
G1 X113.311 Y89.534 E0.03791
G1 X112.443 Y89.718 E0.03791
G1 X111.557 Y89.718 E0.03791
G1 X110.689 Y89.534 E0.03791
G1 X109.879 Y89.173 E0.03791
G1 X109.162 Y88.652 E0.03791
G1 X108.569 Y87.993 E0.03791
G1 X108.125 Y87.225 E0.03791
G1 X107.851 Y86.382 E0.03791
G1 X107.759 Y85.500 E0.03791
G1 X107.851 Y84.618 E0.03791
G1 X108.125 Y83.775 E0.03791
G1 X108.569 Y83.007 E0.03791
G1 X109.162 Y82.348 E0.03791
G1 X109.879 Y81.827 E0.03791
G1 X110.689 Y81.466 E0.03791
G1 X111.557 Y81.282 E0.03791
G1 X112.443 Y81.282 E0.03791
G1 X113.311 Y81.466 E0.03791
G1 X114.121 Y81.827 E0.03791
G1 X114.838 Y82.348 E0.03791
G1 X115.431 Y83.007 E0.03791
G1 X115.875 Y83.775 E0.03791
G1 X116.149 Y84.618 E0.03791
G1 X116.241 Y85.500 E0.03791
G1 X116.149 Y86.382 E0.03791
G1 X115.875 Y87.225 E0.03791
;G1 X115.461 Y87.941 E0.03534 ; replaced by coast
G1 X115.461 Y87.941 Z0.24 E-0.0413537180916; coast(0.827074361832) & retract
G1 X115.461 Y87.941 Z0.24 E-0.3; & endwipe
G1 X115.581 Y88.364 F7800.000
G1 X112.523 Y80.522 F7800.000
G1 X106.585 Y70.000 F7800.000
G1 X111.477 Y66.001 F7800.000
G1 X112.523 Y64.955 F7800.000
G1 X112.523 Y59.478 F7800.000
;G1 X112.533 Y59.575 F7800.000 ; replaced by represure
G1 X112.533 Y59.575 E0.341353718092 F600; tipRepresure
G1 X112.533 Y59.575 E0.5 F600; long travel extraShot
G1 X111.467 Y59.575 E0.04561 F300.000
G1 X110.423 Y59.353 E0.04561
G1 X109.449 Y58.919 E0.04561
G1 X108.585 Y58.292 E0.04561
G1 X107.872 Y57.499 E0.04562
G1 X107.338 Y56.576 E0.04561
G1 X107.008 Y55.561 E0.04561
G1 X106.897 Y54.500 E0.04561
G1 X107.008 Y53.439 E0.04561
G1 X107.338 Y52.424 E0.04561
G1 X107.872 Y51.501 E0.04561
G1 X108.585 Y50.708 E0.04562
G1 X109.449 Y50.081 E0.04561
G1 X110.423 Y49.647 E0.04561
G1 X111.467 Y49.425 E0.04561
G1 X112.533 Y49.425 E0.04561
G1 X113.577 Y49.647 E0.04561
G1 X114.551 Y50.081 E0.04561
G1 X115.415 Y50.708 E0.04561
G1 X116.128 Y51.501 E0.04562
G1 X116.662 Y52.424 E0.04561
G1 X116.992 Y53.439 E0.04561
G1 X117.103 Y54.500 E0.04561
G1 X116.992 Y55.561 E0.04561
G1 X116.662 Y56.576 E0.04561
G1 X116.128 Y57.499 E0.04561
G1 X115.415 Y58.292 E0.04562
G1 X114.551 Y58.919 E0.04561
G1 X113.577 Y59.353 E0.04561
;G1 X112.592 Y59.563 E0.04305 ; replaced by coast
G1 X112.592 Y59.563 Z0.24 E-0.0503568515696; coast(1.00713703139) & retract
G1 X112.592 Y59.563 Z0.24 E-0.3; & endwipe
;G1 X112.488 Y59.147 F7800.000 ; replaced by represure
G1 X112.514 Y59.251 Z0.24 ; travel partially
G1 X112.488 Y59.147 E0.35035685157 F600; tipRepresure
G1 X111.512 Y59.147 E0.04176 F300.000
G1 X110.556 Y58.943 E0.04176
G1 X109.664 Y58.546 E0.04176
G1 X108.874 Y57.972 E0.04176
G1 X108.220 Y57.246 E0.04176
G1 X107.732 Y56.400 E0.04176
G1 X107.430 Y55.471 E0.04176
G1 X107.328 Y54.500 E0.04176
G1 X107.430 Y53.529 E0.04176
G1 X107.732 Y52.600 E0.04176
G1 X108.220 Y51.754 E0.04176
G1 X108.874 Y51.028 E0.04176
G1 X109.664 Y50.454 E0.04176
G1 X110.556 Y50.057 E0.04176
G1 X111.512 Y49.853 E0.04176
G1 X112.488 Y49.853 E0.04176
G1 X113.444 Y50.057 E0.04176
G1 X114.336 Y50.454 E0.04176
G1 X115.126 Y51.028 E0.04176
G1 X115.780 Y51.754 E0.04176
G1 X116.268 Y52.600 E0.04176
G1 X116.570 Y53.529 E0.04176
G1 X116.672 Y54.500 E0.04176
G1 X116.570 Y55.471 E0.04176
G1 X116.268 Y56.400 E0.04176
G1 X115.780 Y57.246 E0.04176
G1 X115.126 Y57.972 E0.04176
G1 X114.336 Y58.546 E0.04176
G1 X113.444 Y58.943 E0.04176
;G1 X112.547 Y59.134 E0.03920 ; replaced by coast
G1 X112.547 Y59.134 Z0.24 E-0.0458554794981; coast(0.917109589962) & retract
G1 X112.547 Y59.134 Z0.24 E-0.3; & endwipe
;G1 X112.443 Y58.718 F7800.000 ; replaced by represure
G1 X112.469 Y58.822 Z0.24 ; travel partially
G1 X112.443 Y58.718 E0.345855479498 F600; tipRepresure
G1 X111.557 Y58.718 E0.03791 F300.000
G1 X110.689 Y58.534 E0.03791
G1 X109.879 Y58.173 E0.03791
G1 X109.162 Y57.652 E0.03791
G1 X108.569 Y56.993 E0.03791
G1 X108.125 Y56.225 E0.03791
G1 X107.851 Y55.382 E0.03791
G1 X107.759 Y54.500 E0.03791
G1 X107.851 Y53.618 E0.03791
G1 X108.125 Y52.775 E0.03791
G1 X108.569 Y52.007 E0.03791
G1 X109.162 Y51.348 E0.03791
G1 X109.879 Y50.827 E0.03791
G1 X110.689 Y50.466 E0.03791
G1 X111.557 Y50.282 E0.03791
G1 X112.443 Y50.282 E0.03791
G1 X113.311 Y50.466 E0.03791
G1 X114.121 Y50.827 E0.03791
G1 X114.838 Y51.348 E0.03791
G1 X115.431 Y52.007 E0.03791
G1 X115.875 Y52.775 E0.03791
G1 X116.149 Y53.618 E0.03791
G1 X116.241 Y54.500 E0.03791
G1 X116.149 Y55.382 E0.03791
G1 X115.875 Y56.225 E0.03791
G1 X115.431 Y56.993 E0.03791
G1 X114.838 Y57.652 E0.03791
G1 X114.121 Y58.173 E0.03791
G1 X113.311 Y58.534 E0.03791
;G1 X112.502 Y58.706 E0.03535 ; replaced by coast
G1 X112.502 Y58.706 Z0.24 E-0.0413541110411; coast(0.827082220822) & retract
G1 X112.502 Y58.706 Z0.24 E-0.3; & endwipe
G1 X112.268 Y59.078 F7800.000
;G1 X90.317 Y66.300 F7800.000 ; replaced by represure
G1 X95.0665469719 Y64.7373728654 Z0.24 ; travel partially
G1 X90.317 Y66.3 E0.341354111041 F600; tipRepresure
G1 X90.317 Y66.3 E0.5 F600; long travel extraShot
G1 X90.909 Y68.150 E0.08305 F600.000
G1 X91.103 Y70.000 E0.07953
G1 X90.904 Y71.893 E0.08137
G1 X90.316 Y73.703 E0.08137
G1 X89.364 Y75.351 E0.08137
G1 X88.091 Y76.765 E0.08136
G1 X86.552 Y77.883 E0.08136
G1 X84.813 Y78.657 E0.08137
G1 X82.951 Y79.053 E0.08137
G1 X81.048 Y79.053 E0.08136
G1 X79.187 Y78.657 E0.08137
G1 X77.448 Y77.883 E0.08137
G1 X75.909 Y76.765 E0.08136
G1 X74.636 Y75.351 E0.08136
G1 X73.683 Y73.700 E0.08148
G1 X73.091 Y71.850 E0.08305
G1 X72.897 Y70.000 E0.07953
G1 X73.096 Y68.107 E0.08137
G1 X73.684 Y66.297 E0.08137
G1 X74.636 Y64.649 E0.08137
G1 X75.909 Y63.235 E0.08136
G1 X77.448 Y62.117 E0.08136
G1 X79.187 Y61.343 E0.08137
G1 X81.048 Y60.947 E0.08137
G1 X82.951 Y60.947 E0.08136
G1 X84.813 Y61.343 E0.08137
G1 X86.552 Y62.117 E0.08137
G1 X88.091 Y63.235 E0.08136
G1 X89.364 Y64.649 E0.08137
;G1 X90.287 Y66.248 E0.07892 ; replaced by coast
G1 X90.287 Y66.248 Z0.24 E-0.092313731373; coast(1.84627462746) & retract
G1 X90.287 Y66.248 Z0.24 E-0.3; & endwipe
;G1 X89.923 Y66.474 F7800.000 ; replaced by represure
G1 X90.014 Y66.4175 Z0.24 ; travel partially
G1 X89.923 Y66.474 E0.392313731373 F600; tipRepresure
G1 X90.487 Y68.239 E0.07919 F600.000
G1 X90.672 Y70.000 E0.07573
G1 X90.483 Y71.803 E0.07751
G1 X89.922 Y73.527 E0.07752
G1 X89.016 Y75.097 E0.07752
G1 X87.803 Y76.445 E0.07751
G1 X86.336 Y77.510 E0.07751
G1 X84.680 Y78.248 E0.07752
G1 X82.906 Y78.625 E0.07751
G1 X81.094 Y78.625 E0.07751
G1 X79.320 Y78.248 E0.07751
G1 X77.664 Y77.510 E0.07752
G1 X76.197 Y76.445 E0.07751
G1 X74.984 Y75.097 E0.07751
