; generated by Slic3r 1.2.9 on 2017-01-31 at 20:59:09

; external perimeters extrusion width = 0.40mm
; perimeters extrusion width = 0.48mm
; infill extrusion width = 0.48mm
; solid infill extrusion width = 0.48mm
; top infill extrusion width = 0.48mm

M104 S185 ; set temperature
G28 ; home all axes
G1 Z5 F5000 ; lift nozzle

M109 S185 ; wait for temperature to be reached
G21 ; set units to millimeters
G90 ; use absolute coordinates
M83 ; use relative distances for extrusion
G1 Z0.240 F7800.000
G1 X69.510 Y45.171 F7800.000
G1 X71.285 Y43.546 E0.10287 F1800.000
G1 X73.491 Y42.587 E0.10287
G1 X75.250 Y42.372 E0.07575
G1 X114.750 Y42.372 E1.68884
G1 X117.123 Y42.769 E0.10287
G1 X119.237 Y43.918 E0.10287
G1 X120.862 Y45.692 E0.10287
G1 X121.820 Y47.899 E0.10287
G1 X122.035 Y49.658 E0.07575
G1 X122.035 Y90.342 E1.73950
G1 X121.638 Y92.715 E0.10287
G1 X120.490 Y94.829 E0.10287
G1 X118.715 Y96.454 E0.10287
G1 X116.509 Y97.413 E0.10287
G1 X114.750 Y97.628 E0.07575
G1 X75.250 Y97.628 E1.68884
G1 X72.877 Y97.231 E0.10287
G1 X70.763 Y96.082 E0.10287
G1 X69.138 Y94.308 E0.10287
G1 X68.180 Y92.101 E0.10287
G1 X67.965 Y90.342 E0.07575
G1 X67.965 Y49.658 E1.73950
G1 X68.362 Y47.285 E0.10287
G1 X69.482 Y45.223 E0.10030
G1 X69.935 Y45.325 F7800.000
G1 X71.696 Y43.793 E0.09977 F1800.000
G1 X73.869 Y42.941 E0.09977
G1 X75.250 Y42.801 E0.05937
G1 X114.750 Y42.801 E1.68884
G1 X117.050 Y43.198 E0.09977
G1 X119.083 Y44.343 E0.09977
G1 X120.614 Y46.104 E0.09977
G1 X121.466 Y48.276 E0.09977
G1 X121.607 Y49.658 E0.05937
G1 X121.607 Y90.342 E1.73950
G1 X121.210 Y92.642 E0.09977
G1 X120.065 Y94.675 E0.09977
G1 X118.304 Y96.207 E0.09977
G1 X116.131 Y97.059 E0.09977
G1 X114.750 Y97.199 E0.05937
G1 X75.250 Y97.199 E1.68884
G1 X72.950 Y96.802 E0.09977
G1 X70.917 Y95.657 E0.09977
G1 X69.386 Y93.896 E0.09977
G1 X68.534 Y91.724 E0.09977
G1 X68.393 Y90.342 E0.05937
G1 X68.393 Y49.658 E1.73950
G1 X68.790 Y47.358 E0.09977
G1 X69.906 Y45.377 E0.09721
G1 X70.360 Y45.485 F7800.000
G1 X72.106 Y44.051 E0.09658 F1800.000
G1 X75.250 Y43.229 E0.13896
G1 X114.750 Y43.229 E1.68884
G1 X116.974 Y43.626 E0.09658
G1 X118.923 Y44.768 E0.09658
G1 X120.357 Y46.513 E0.09658
G1 X121.178 Y49.658 E0.13896
G1 X121.178 Y90.342 E1.73950
G1 X120.782 Y92.566 E0.09658
G1 X119.640 Y94.515 E0.09658
G1 X117.894 Y95.949 E0.09658
G1 X114.750 Y96.771 E0.13896
G1 X75.250 Y96.771 E1.68884
G1 X73.026 Y96.374 E0.09658
G1 X71.077 Y95.232 E0.09658
G1 X69.643 Y93.487 E0.09658
G1 X68.822 Y90.342 E0.13896
G1 X68.822 Y49.658 E1.73950
G1 X69.218 Y47.434 E0.09658
G1 X70.330 Y45.536 E0.09402
G1 X109.847 Y61.561 F7800.000
G1 X80.653 Y61.561 E1.24820 F600.000
G1 X80.653 Y63.284 E0.07368
G1 X76.347 Y63.284 E0.18411
G1 X76.347 Y61.864 E0.06073
G1 X77.302 Y61.439 E0.04467
G1 X78.165 Y60.811 E0.04561
G1 X78.878 Y60.019 E0.04561
G1 X79.412 Y59.095 E0.04561
G1 X79.742 Y58.080 E0.04561
G1 X79.853 Y57.019 E0.04561
G1 X79.742 Y55.958 E0.04561
G1 X79.412 Y54.944 E0.04561
G1 X78.878 Y54.020 E0.04561
G1 X78.165 Y53.227 E0.04561
G1 X77.302 Y52.600 E0.04561
G1 X76.347 Y52.175 E0.04467
G1 X76.347 Y50.755 E0.06073
G1 X80.653 Y50.755 E0.18411
G1 X80.653 Y52.478 E0.07368
G1 X109.847 Y52.478 E1.24820
G1 X109.847 Y50.755 E0.07368
G1 X113.653 Y50.755 E0.16273
G1 X113.653 Y63.284 E0.53570
G1 X109.847 Y63.284 E0.16273
G1 X109.847 Y61.621 E0.07111
G1 X109.418 Y61.989 F7800.000
G1 X81.082 Y61.989 E1.21156 F600.000
G1 X81.082 Y63.712 E0.07368
G1 X75.918 Y63.712 E0.22075
G1 X75.918 Y61.521 E0.09368
G1 X76.194 Y61.463 E0.01203
G1 X77.086 Y61.065 E0.04176
G1 X77.876 Y60.491 E0.04176
G1 X78.530 Y59.765 E0.04176
G1 X79.018 Y58.920 E0.04176
G1 X79.320 Y57.991 E0.04176
G1 X79.422 Y57.019 E0.04176
G1 X79.320 Y56.048 E0.04176
G1 X79.018 Y55.119 E0.04176
G1 X78.530 Y54.273 E0.04176
G1 X77.876 Y53.547 E0.04176
G1 X77.086 Y52.973 E0.04176
G1 X76.194 Y52.576 E0.04176
G1 X75.918 Y52.517 E0.01203
G1 X75.918 Y50.326 E0.09368
G1 X81.082 Y50.326 E0.22075
G1 X81.082 Y52.049 E0.07368
G1 X109.418 Y52.049 E1.21156
G1 X109.418 Y50.326 E0.07368
G1 X114.082 Y50.326 E0.19937
G1 X114.082 Y63.712 E0.57234
G1 X109.418 Y63.712 E0.19937
G1 X109.418 Y62.049 E0.07111
G1 X108.990 Y62.418 F7800.000
G1 X81.510 Y62.418 E1.17492 F600.000
G1 X81.510 Y64.141 E0.07368
G1 X75.490 Y64.141 E0.25739
G1 X75.490 Y61.174 E0.12684
G1 X76.061 Y61.053 E0.02494
G1 X76.871 Y60.692 E0.03791
G1 X77.588 Y60.171 E0.03791
G1 X78.181 Y59.512 E0.03791
G1 X78.625 Y58.744 E0.03791
G1 X78.899 Y57.901 E0.03791
G1 X78.991 Y57.019 E0.03791
G1 X78.899 Y56.137 E0.03791
G1 X78.625 Y55.294 E0.03791
G1 X78.181 Y54.526 E0.03791
G1 X77.588 Y53.867 E0.03791
G1 X76.871 Y53.346 E0.03791
G1 X76.061 Y52.985 E0.03791
G1 X75.490 Y52.864 E0.02494
G1 X75.490 Y49.898 E0.12684
G1 X81.510 Y49.898 E0.25739
G1 X81.510 Y51.621 E0.07368
G1 X108.990 Y51.621 E1.17492
G1 X108.990 Y49.898 E0.07368
G1 X114.510 Y49.898 E0.23601
G1 X114.510 Y64.141 E0.60898
G1 X108.990 Y64.141 E0.23601
G1 X108.990 Y62.478 E0.07111
G1 X108.990 Y62.018 F7800.000
G1 X110.057 Y62.367 F7800.000
G1 X110.764 Y63.073 E0.04279 F600.000
G1 X111.371 Y63.073 E0.02599
G1 X110.057 Y61.760 E0.07954
G1 X109.648 Y61.350 F7800.000
G1 X100.986 Y52.688 E0.52451 F600.000
G1 X101.593 Y52.688 E0.02599
G1 X111.978 Y63.073 E0.62886
G1 X112.585 Y63.073 E0.02599
G1 X102.200 Y52.688 E0.62886
G1 X102.807 Y52.688 E0.02599
G1 X113.192 Y63.073 E0.62886
G1 X113.443 Y62.717 E0.01865
G1 X103.413 Y52.688 E0.60731
G1 X104.020 Y52.688 E0.02599
G1 X113.443 Y62.111 E0.57056
G1 X113.443 Y61.504 E0.02599
G1 X104.627 Y52.688 E0.53381
G1 X105.234 Y52.688 E0.02599
G1 X113.443 Y60.897 E0.49706
G1 X113.443 Y60.290 E0.02599
G1 X105.841 Y52.688 E0.46031
G1 X106.448 Y52.688 E0.02599
G1 X113.443 Y59.683 E0.42356
G1 X113.443 Y59.076 E0.02599
G1 X107.055 Y52.688 E0.38681
G1 X107.662 Y52.688 E0.02599
G1 X113.443 Y58.469 E0.35007
G1 X113.443 Y57.862 E0.02599
G1 X108.268 Y52.688 E0.31332
G1 X108.875 Y52.688 E0.02599
G1 X113.443 Y57.256 E0.27657
G1 X113.443 Y56.649 E0.02599
G1 X109.482 Y52.688 E0.23982
G1 X110.057 Y52.657 E0.02467
G1 X113.443 Y56.042 E0.20498
G1 X113.443 Y55.435 E0.02599
G1 X110.057 Y52.050 E0.20498
G1 X110.057 Y51.443 E0.02599
G1 X113.443 Y54.828 E0.20498
G1 X113.443 Y54.221 E0.02599
G1 X110.186 Y50.965 E0.19717
G1 X110.793 Y50.965 E0.02599
G1 X113.443 Y53.614 E0.16043
G1 X113.443 Y53.007 E0.02599
G1 X111.400 Y50.965 E0.12368
G1 X112.007 Y50.965 E0.02599
G1 X113.443 Y52.401 E0.08693
G1 X113.443 Y51.794 E0.02599
G1 X112.614 Y50.965 E0.05018
G1 X113.221 Y50.965 E0.02599
G1 X113.443 Y51.187 E0.01343
G1 X109.041 Y61.350 F7800.000
G1 X100.379 Y52.688 E0.52451 F600.000
G1 X99.772 Y52.688 E0.02599
G1 X108.434 Y61.350 E0.52451
G1 X107.827 Y61.350 E0.02599
G1 X99.165 Y52.688 E0.52451
G1 X98.558 Y52.688 E0.02599
G1 X107.220 Y61.350 E0.52451
G1 X106.613 Y61.350 E0.02599
G1 X97.952 Y52.688 E0.52451
G1 X97.345 Y52.688 E0.02599
G1 X106.007 Y61.350 E0.52451
G1 X105.400 Y61.350 E0.02599
G1 X96.738 Y52.688 E0.52451
G1 X96.131 Y52.688 E0.02599
G1 X104.793 Y61.350 E0.52451
G1 X104.186 Y61.350 E0.02599
G1 X95.524 Y52.688 E0.52451
G1 X94.917 Y52.688 E0.02599
G1 X103.579 Y61.350 E0.52451
G1 X102.972 Y61.350 E0.02599
G1 X94.310 Y52.688 E0.52451
G1 X93.703 Y52.688 E0.02599
G1 X102.365 Y61.350 E0.52451
G1 X101.758 Y61.350 E0.02599
G1 X93.097 Y52.688 E0.52451
G1 X92.490 Y52.688 E0.02599
G1 X101.152 Y61.350 E0.52451
G1 X100.545 Y61.350 E0.02599
G1 X91.883 Y52.688 E0.52451
G1 X91.276 Y52.688 E0.02599
G1 X99.938 Y61.350 E0.52451
G1 X99.331 Y61.350 E0.02599
G1 X90.669 Y52.688 E0.52451
G1 X90.062 Y52.688 E0.02599
G1 X98.724 Y61.350 E0.52451
G1 X98.117 Y61.350 E0.02599
G1 X89.455 Y52.688 E0.52451
G1 X88.848 Y52.688 E0.02599
G1 X97.510 Y61.350 E0.52451
G1 X96.903 Y61.350 E0.02599
G1 X88.242 Y52.688 E0.52451
G1 X87.635 Y52.688 E0.02599
G1 X96.297 Y61.350 E0.52451
G1 X95.690 Y61.350 E0.02599
G1 X87.028 Y52.688 E0.52451
G1 X86.421 Y52.688 E0.02599
G1 X95.083 Y61.350 E0.52451
G1 X94.476 Y61.350 E0.02599
G1 X85.814 Y52.688 E0.52451
G1 X85.207 Y52.688 E0.02599
G1 X93.869 Y61.350 E0.52451
G1 X93.262 Y61.350 E0.02599
G1 X84.600 Y52.688 E0.52451
G1 X83.993 Y52.688 E0.02599
G1 X92.655 Y61.350 E0.52451
G1 X92.048 Y61.350 E0.02599
G1 X83.387 Y52.688 E0.52451
G1 X82.780 Y52.688 E0.02599
G1 X91.442 Y61.350 E0.52451
G1 X90.835 Y61.350 E0.02599
G1 X82.173 Y52.688 E0.52451
G1 X81.566 Y52.688 E0.02599
G1 X90.228 Y61.350 E0.52451
G1 X89.621 Y61.350 E0.02599
G1 X80.959 Y52.688 E0.52451
G1 X80.443 Y52.779 E0.02245
G1 X78.629 Y50.965 E0.10982
G1 X78.022 Y50.965 E0.02599
G1 X88.407 Y61.350 E0.62886
G1 X89.014 Y61.350 E0.02599
G1 X80.352 Y52.688 E0.52451
G1 X80.443 Y52.172 E0.02245
G1 X79.236 Y50.965 E0.07307
G1 X79.843 Y50.965 E0.02599
G1 X80.443 Y51.565 E0.03633
G1 X79.095 Y53.858 F7800.000
G1 X86.587 Y61.350 E0.45365 F600.000
G1 X85.980 Y61.350 E0.02599
G1 X79.713 Y55.083 E0.37949
G1 X79.961 Y55.938 E0.03814
G1 X85.373 Y61.350 E0.32770
G1 X84.766 Y61.350 E0.02599
G1 X80.032 Y56.617 E0.28663
G1 X80.034 Y57.225 E0.02605
G1 X84.159 Y61.350 E0.24979
G1 X83.552 Y61.350 E0.02599
G1 X79.976 Y57.774 E0.21654
G1 X79.874 Y58.278 E0.02203
G1 X82.945 Y61.350 E0.18601
G1 X82.338 Y61.350 E0.02599
G1 X79.725 Y58.736 E0.15827
G1 X79.565 Y59.184 E0.02033
G1 X81.732 Y61.350 E0.13119
G1 X81.125 Y61.350 E0.02599
G1 X79.343 Y59.568 E0.10789
G1 X79.121 Y59.953 E0.01902
G1 X80.518 Y61.350 E0.08459
G1 X80.443 Y61.882 E0.02299
G1 X78.859 Y60.298 E0.09587
G1 X78.572 Y60.618 E0.01840
G1 X80.443 Y62.489 E0.11329
G1 X80.420 Y63.073 E0.02506
G1 X78.284 Y60.937 E0.12936
G1 X77.934 Y61.194 E0.01859
G1 X79.814 Y63.073 E0.11379
G1 X79.207 Y63.073 E0.02599
G1 X77.583 Y61.450 E0.09832
G1 X77.206 Y61.680 E0.01891
G1 X78.600 Y63.073 E0.08440
G1 X77.993 Y63.073 E0.02599
G1 X76.786 Y61.867 E0.07308
G1 X76.557 Y62.245 E0.01892
G1 X77.386 Y63.073 E0.05018
G1 X76.779 Y63.073 E0.02599
G1 X76.557 Y62.852 E0.01343
G1 X77.986 Y52.749 F7800.000
G1 X76.557 Y51.321 E0.08649 F600.000
G1 X76.808 Y50.965 E0.01865
G1 X87.193 Y61.350 E0.62886
G1 X87.800 Y61.350 E0.02599
G1 X77.415 Y50.965 E0.62886
G1 X74.836 Y68.000 F7800.000
G1 X74.836 Y68.000 F7800.000
G1 X74.836 Y70.000 F7800.000
G1 X74.836 Y72.000 F7800.000
G1 X109.847 Y87.522 F7800.000
G1 X80.653 Y87.522 E1.24820 F600.000
G1 X80.653 Y89.245 E0.07368
G1 X76.347 Y89.245 E0.18411
G1 X76.347 Y87.825 E0.06073
G1 X77.302 Y87.400 E0.04467
G1 X78.165 Y86.773 E0.04561
G1 X78.878 Y85.980 E0.04561
G1 X79.412 Y85.056 E0.04561
G1 X79.742 Y84.042 E0.04561
G1 X79.853 Y82.981 E0.04561
G1 X79.742 Y81.920 E0.04561
G1 X79.412 Y80.905 E0.04561
G1 X78.878 Y79.981 E0.04561
G1 X78.165 Y79.189 E0.04561
G1 X77.302 Y78.561 E0.04561
G1 X76.347 Y78.136 E0.04467
G1 X76.347 Y76.716 E0.06073
G1 X80.653 Y76.716 E0.18411
G1 X80.653 Y78.439 E0.07368
G1 X109.847 Y78.439 E1.24820
G1 X109.847 Y76.716 E0.07368
G1 X113.653 Y76.716 E0.16273
G1 X113.653 Y89.245 E0.53570
G1 X109.847 Y89.245 E0.16273
G1 X109.847 Y87.582 E0.07111
G1 X109.418 Y87.951 F7800.000
G1 X81.082 Y87.951 E1.21156 F600.000
G1 X81.082 Y89.674 E0.07368
G1 X75.918 Y89.674 E0.22075
G1 X75.918 Y87.483 E0.09368
G1 X76.194 Y87.424 E0.01203
G1 X77.086 Y87.027 E0.04176
G1 X77.876 Y86.453 E0.04176
G1 X78.530 Y85.727 E0.04176
G1 X79.018 Y84.881 E0.04176
G1 X79.320 Y83.952 E0.04176
G1 X79.422 Y82.981 E0.04176
G1 X79.320 Y82.009 E0.04176
G1 X79.018 Y81.080 E0.04176
G1 X78.530 Y80.235 E0.04176
G1 X77.876 Y79.509 E0.04176
G1 X77.086 Y78.935 E0.04176
G1 X76.194 Y78.537 E0.04176
G1 X75.918 Y78.479 E0.01203
G1 X75.918 Y76.288 E0.09368
G1 X81.082 Y76.288 E0.22075
G1 X81.082 Y78.011 E0.07368
G1 X109.418 Y78.011 E1.21156
G1 X109.418 Y76.288 E0.07368
G1 X114.082 Y76.288 E0.19937
G1 X114.082 Y89.674 E0.57234
G1 X109.418 Y89.674 E0.19937
G1 X109.418 Y88.011 E0.07111
G1 X108.990 Y88.379 F7800.000
G1 X81.510 Y88.379 E1.17492 F600.000
G1 X81.510 Y90.102 E0.07368
G1 X75.490 Y90.102 E0.25739
G1 X75.490 Y87.136 E0.12684
G1 X76.061 Y87.015 E0.02494
G1 X76.871 Y86.654 E0.03791
G1 X77.588 Y86.133 E0.03791
G1 X78.181 Y85.474 E0.03791
G1 X78.625 Y84.706 E0.03791
G1 X78.899 Y83.863 E0.03791
G1 X78.991 Y82.981 E0.03791
G1 X78.899 Y82.099 E0.03791
G1 X78.625 Y81.256 E0.03791
G1 X78.181 Y80.488 E0.03791
G1 X77.588 Y79.829 E0.03791
G1 X76.871 Y79.308 E0.03791
G1 X76.061 Y78.947 E0.03791
G1 X75.490 Y78.826 E0.02494
G1 X75.490 Y75.859 E0.12684
G1 X81.510 Y75.859 E0.25739
G1 X81.510 Y77.582 E0.07368
G1 X108.990 Y77.582 E1.17492
G1 X108.990 Y75.859 E0.07368
G1 X114.510 Y75.859 E0.23601
G1 X114.510 Y90.102 E0.60898
G1 X108.990 Y90.102 E0.23601
G1 X108.990 Y88.439 E0.07111
G1 X108.990 Y87.979 F7800.000
G1 X110.057 Y88.328 F7800.000
G1 X110.764 Y89.035 E0.04279 F600.000
G1 X111.371 Y89.035 E0.02599
G1 X110.057 Y87.721 E0.07954
G1 X109.648 Y87.312 F7800.000
G1 X100.986 Y78.650 E0.52451 F600.000
G1 X101.593 Y78.650 E0.02599
G1 X111.978 Y89.035 E0.62886
G1 X112.585 Y89.035 E0.02599
G1 X102.200 Y78.650 E0.62886
G1 X102.807 Y78.650 E0.02599
G1 X113.192 Y89.035 E0.62886
G1 X113.443 Y88.679 E0.01865
G1 X103.413 Y78.650 E0.60731
G1 X104.020 Y78.650 E0.02599
G1 X113.443 Y88.072 E0.57056
G1 X113.443 Y87.465 E0.02599
G1 X104.627 Y78.650 E0.53381
G1 X105.234 Y78.650 E0.02599
G1 X113.443 Y86.858 E0.49706
G1 X113.443 Y86.252 E0.02599
G1 X105.841 Y78.650 E0.46031
G1 X106.448 Y78.650 E0.02599
G1 X113.443 Y85.645 E0.42356
G1 X113.443 Y85.038 E0.02599
G1 X107.055 Y78.650 E0.38681
G1 X107.662 Y78.650 E0.02599
G1 X113.443 Y84.431 E0.35007
G1 X113.443 Y83.824 E0.02599
G1 X108.268 Y78.650 E0.31332
G1 X108.875 Y78.650 E0.02599
G1 X113.443 Y83.217 E0.27657
G1 X113.443 Y82.610 E0.02599
G1 X109.482 Y78.650 E0.23982
G1 X110.057 Y78.618 E0.02467
G1 X113.443 Y82.003 E0.20498
G1 X113.443 Y81.397 E0.02599
G1 X110.057 Y78.011 E0.20498
G1 X110.057 Y77.405 E0.02599
G1 X113.443 Y80.790 E0.20498
G1 X113.443 Y80.183 E0.02599
G1 X110.186 Y76.927 E0.19717
G1 X110.793 Y76.927 E0.02599
G1 X113.443 Y79.576 E0.16043
G1 X113.443 Y78.969 E0.02599
G1 X111.400 Y76.927 E0.12368
G1 X112.007 Y76.927 E0.02599
G1 X113.443 Y78.362 E0.08693
G1 X113.443 Y77.755 E0.02599
G1 X112.614 Y76.927 E0.05018
G1 X113.221 Y76.927 E0.02599
G1 X113.443 Y77.148 E0.01343
G1 X109.041 Y87.312 F7800.000
G1 X100.379 Y78.650 E0.52451 F600.000
G1 X99.772 Y78.650 E0.02599
G1 X108.434 Y87.312 E0.52451
G1 X107.827 Y87.312 E0.02599
G1 X99.165 Y78.650 E0.52451
G1 X98.558 Y78.650 E0.02599
G1 X107.220 Y87.312 E0.52451
G1 X106.613 Y87.312 E0.02599
G1 X97.952 Y78.650 E0.52451
G1 X97.345 Y78.650 E0.02599
G1 X106.007 Y87.312 E0.52451
G1 X105.400 Y87.312 E0.02599
G1 X96.738 Y78.650 E0.52451
G1 X96.131 Y78.650 E0.02599
G1 X104.793 Y87.312 E0.52451
G1 X104.186 Y87.312 E0.02599
G1 X95.524 Y78.650 E0.52451
G1 X94.917 Y78.650 E0.02599
G1 X103.579 Y87.312 E0.52451
G1 X102.972 Y87.312 E0.02599
G1 X94.310 Y78.650 E0.52451
G1 X93.703 Y78.650 E0.02599
G1 X102.365 Y87.312 E0.52451
G1 X101.758 Y87.312 E0.02599
G1 X93.097 Y78.650 E0.52451
G1 X92.490 Y78.650 E0.02599
G1 X101.152 Y87.312 E0.52451
G1 X100.545 Y87.312 E0.02599
G1 X91.883 Y78.650 E0.52451
G1 X91.276 Y78.650 E0.02599
G1 X99.938 Y87.312 E0.52451
G1 X99.331 Y87.312 E0.02599
G1 X90.669 Y78.650 E0.52451
G1 X90.062 Y78.650 E0.02599
G1 X98.724 Y87.312 E0.52451
G1 X98.117 Y87.312 E0.02599
G1 X89.455 Y78.650 E0.52451
G1 X88.848 Y78.650 E0.02599
G1 X97.510 Y87.312 E0.52451
G1 X96.903 Y87.312 E0.02599
G1 X88.242 Y78.650 E0.52451
G1 X87.635 Y78.650 E0.02599
G1 X96.297 Y87.312 E0.52451
G1 X95.690 Y87.312 E0.02599
G1 X87.028 Y78.650 E0.52451
G1 X86.421 Y78.650 E0.02599
G1 X95.083 Y87.312 E0.52451
G1 X94.476 Y87.312 E0.02599
G1 X85.814 Y78.650 E0.52451
G1 X85.207 Y78.650 E0.02599
G1 X93.869 Y87.312 E0.52451
G1 X93.262 Y87.312 E0.02599
G1 X84.600 Y78.650 E0.52451
G1 X83.993 Y78.650 E0.02599
G1 X92.655 Y87.312 E0.52451
G1 X92.048 Y87.312 E0.02599
G1 X83.387 Y78.650 E0.52451
G1 X82.780 Y78.650 E0.02599
G1 X91.442 Y87.312 E0.52451
G1 X90.835 Y87.312 E0.02599
G1 X82.173 Y78.650 E0.52451
G1 X81.566 Y78.650 E0.02599
G1 X90.228 Y87.312 E0.52451
G1 X89.621 Y87.312 E0.02599
G1 X80.959 Y78.650 E0.52451
G1 X80.443 Y78.740 E0.02245
G1 X78.629 Y76.927 E0.10982
G1 X78.022 Y76.927 E0.02599
G1 X88.407 Y87.312 E0.62886
G1 X89.014 Y87.312 E0.02599
G1 X80.352 Y78.650 E0.52451
