; generated by Slic3r 1.2.9 on 2017-02-08 at 21:07:02

; external perimeters extrusion width = 0.40mm
; perimeters extrusion width = 0.48mm
; infill extrusion width = 0.48mm
; solid infill extrusion width = 0.48mm
; top infill extrusion width = 0.48mm

M104 S185 ; set temperature
G28 ; home all axes
G1 Z5 F5000 ; lift nozzle

M109 S185 ; wait for temperature to be reached
G21 ; set units to millimeters
G90 ; use absolute coordinates
M83 ; use relative distances for extrusion
G1 Z0.240 F7800.000
;G1 X49.188 Y55.188 F7800.000 ; replaced by represure
G1 X45.8611965393 Y51.4553898229 Z0.24 ; travel partially
G1 X49.188 Y55.188 E0.5 F600; long travel extraShot
G1 X51.218 Y53.714 E0.10726 F1800.000
G1 X52.451 Y52.991 E0.06111
G1 X85.206 Y37.897 E1.54201
G1 X86.741 Y37.388 E0.06912
G1 X88.888 Y36.931 E0.09385
G1 X90.411 Y36.772 E0.06547
G1 X92.618 Y36.775 E0.09436
G1 X94.109 Y36.930 E0.06409
G1 X122.489 Y42.898 E1.23993
G1 X123.595 Y43.224 E0.04932
G1 X143.106 Y50.696 E0.89327
G1 X145.180 Y51.916 E0.10287
G1 X146.743 Y53.745 E0.10287
G1 X147.626 Y55.983 E0.10287
G1 X147.785 Y57.500 E0.06523
G1 X147.785 Y82.500 E1.06889
G1 X147.388 Y84.873 E0.10287
G1 X146.240 Y86.987 E0.10287
G1 X144.465 Y88.612 E0.10287
G1 X143.106 Y89.304 E0.06523
G1 X123.595 Y96.776 E0.89327
G1 X122.489 Y97.102 E0.04932
G1 X94.097 Y103.072 E1.24046
G1 X92.598 Y103.228 E0.06445
G1 X90.402 Y103.228 E0.09385
G1 X88.888 Y103.069 E0.06512
G1 X86.741 Y102.612 E0.09385
G1 X85.292 Y102.142 E0.06511
G1 X83.195 Y101.208 E0.09814
G1 X52.445 Y87.007 E1.44816
G1 X51.218 Y86.286 E0.06085
G1 X49.188 Y84.812 E0.10726
G1 X48.056 Y83.793 E0.06513
G1 X46.378 Y81.928 E0.10726
G1 X45.482 Y80.696 E0.06512
G1 X44.228 Y78.524 E0.10726
G1 X43.609 Y77.132 E0.06511
G1 X42.833 Y74.746 E0.10726
G1 X42.517 Y73.256 E0.06513
G1 X42.254 Y70.761 E0.10726
G1 X42.254 Y69.239 E0.06511
G1 X42.517 Y66.744 E0.10726
G1 X42.833 Y65.254 E0.06513
G1 X43.609 Y62.868 E0.10726
G1 X44.228 Y61.476 E0.06511
G1 X45.467 Y59.330 E0.10597
G1 X46.351 Y58.111 E0.06436
G1 X48.044 Y56.221 E0.10852
;G1 X49.144 Y55.228 E0.06333 ; replaced by coast
G1 X49.144 Y55.228 Z0.24 E-0.0740953608534; coast(1.48190721707) & retract
G1 X49.144 Y55.228 Z0.24 E-0.3; & endwipe
;G1 X49.440 Y55.535 F7800.000 ; replaced by represure
G1 X49.366 Y55.45825 Z0.24 ; travel partially
G1 X49.44 Y55.535 E0.374095360853 F600; tipRepresure
G1 X51.470 Y54.060 E0.10726 F1800.000
G1 X52.630 Y53.380 E0.05752
G1 X85.386 Y38.286 E1.54201
G1 X86.830 Y37.807 E0.06506
G1 X88.977 Y37.350 E0.09385
G1 X90.410 Y37.201 E0.06162
G1 X92.617 Y37.203 E0.09436
G1 X94.021 Y37.350 E0.06032
G1 X122.400 Y43.318 E1.23993
G1 X123.442 Y43.624 E0.04642
G1 X142.952 Y51.097 E0.89327
G1 X144.958 Y52.290 E0.09977
G1 X146.447 Y54.086 E0.09977
G1 X147.247 Y56.279 E0.09977
G1 X147.357 Y57.500 E0.05243
G1 X147.357 Y82.500 E1.06889
G1 X146.960 Y84.800 E0.09977
G1 X145.815 Y86.833 E0.09977
G1 X144.054 Y88.364 E0.09977
G1 X142.952 Y88.903 E0.05243
G1 X123.442 Y96.376 E0.89327
G1 X122.400 Y96.682 E0.04642
G1 X94.009 Y102.653 E1.24046
G1 X92.598 Y102.799 E0.06066
G1 X90.402 Y102.799 E0.09385
G1 X88.977 Y102.650 E0.06129
G1 X86.830 Y102.193 E0.09385
G1 X85.466 Y101.750 E0.06128
G1 X83.375 Y100.818 E0.09789
G1 X52.625 Y86.618 E1.44816
G1 X51.470 Y85.940 E0.05727
G1 X49.440 Y84.465 E0.10726
G1 X48.375 Y83.506 E0.06130
G1 X46.696 Y81.642 E0.10726
G1 X45.853 Y80.482 E0.06129
G1 X44.599 Y78.309 E0.10726
G1 X44.016 Y77.000 E0.06128
G1 X43.241 Y74.614 E0.10726
G1 X42.943 Y73.212 E0.06130
G1 X42.681 Y70.717 E0.10726
G1 X42.681 Y69.283 E0.06128
G1 X42.943 Y66.788 E0.10726
G1 X43.241 Y65.386 E0.06130
G1 X44.016 Y63.000 E0.10726
G1 X44.599 Y61.691 E0.06128
G1 X45.838 Y59.544 E0.10597
G1 X46.670 Y58.397 E0.06057
G1 X48.363 Y56.507 E0.10852
;G1 X49.395 Y55.575 E0.05945 ; replaced by coast
G1 X49.395 Y55.575 Z0.24 E-0.0695278361521; coast(1.39055672304) & retract
G1 X49.395 Y55.575 Z0.24 E-0.3; & endwipe
;G1 X49.692 Y55.881 F7800.000 ; replaced by represure
G1 X49.61775 Y55.8045 Z0.24 ; travel partially
G1 X49.692 Y55.881 E0.369527836152 F600; tipRepresure
G1 X51.721 Y54.407 E0.10726 F1800.000
G1 X52.810 Y53.769 E0.05392
G1 X85.565 Y38.675 E1.54201
G1 X86.919 Y38.226 E0.06099
G1 X89.066 Y37.769 E0.09385
G1 X90.410 Y37.629 E0.05777
G1 X92.617 Y37.632 E0.09436
G1 X93.932 Y37.769 E0.05655
G1 X122.312 Y43.737 E1.23993
G1 X123.289 Y44.025 E0.04352
G1 X142.799 Y51.497 E0.89327
G1 X144.734 Y52.663 E0.09658
G1 X146.146 Y54.426 E0.09658
G1 X146.928 Y57.500 E0.13562
G1 X146.928 Y82.500 E1.06889
G1 X146.532 Y84.724 E0.09658
G1 X145.390 Y86.673 E0.09658
G1 X142.799 Y88.503 E0.13562
G1 X123.289 Y95.975 E0.89327
G1 X122.312 Y96.263 E0.04352
G1 X93.920 Y102.233 E1.24046
G1 X92.598 Y102.371 E0.05686
G1 X90.402 Y102.371 E0.09385
G1 X89.066 Y102.231 E0.05746
G1 X86.919 Y101.774 E0.09385
G1 X85.641 Y101.359 E0.05745
G1 X83.555 Y100.429 E0.09764
G1 X52.805 Y86.228 E1.44816
G1 X51.721 Y85.593 E0.05369
G1 X49.692 Y84.119 E0.10726
G1 X48.693 Y83.219 E0.05747
G1 X47.014 Y81.355 E0.10726
G1 X46.225 Y80.268 E0.05746
G1 X44.970 Y78.095 E0.10726
G1 X44.424 Y76.868 E0.05745
G1 X43.648 Y74.482 E0.10726
G1 X43.369 Y73.167 E0.05747
G1 X43.107 Y70.672 E0.10726
G1 X43.107 Y69.328 E0.05745
G1 X43.369 Y66.833 E0.10726
G1 X43.648 Y65.518 E0.05747
G1 X44.424 Y63.132 E0.10726
G1 X44.970 Y61.905 E0.05745
G1 X46.209 Y59.758 E0.10597
G1 X46.989 Y58.683 E0.05679
G1 X48.682 Y56.793 E0.10852
;G1 X49.647 Y55.922 E0.05557 ; replaced by coast
G1 X49.647 Y55.922 Z0.24 E-0.0649974230258; coast(1.29994846052) & retract
G1 X49.647 Y55.922 Z0.24 E-0.3; & endwipe
;G1 X95.586 Y92.577 F7800.000 ; replaced by represure
G1 X91.6776667678 Y89.4585177817 Z0.24 ; travel partially
G1 X95.586 Y92.577 E0.364997423026 F600; tipRepresure
G1 X95.586 Y92.577 E0.5 F600; long travel extraShot
G1 X94.025 Y93.272 E0.07304 F600.000
G1 X92.354 Y93.627 E0.07305
G1 X90.646 Y93.627 E0.07305
G1 X88.975 Y93.272 E0.07305
G1 X87.414 Y92.577 E0.07304
G1 X86.032 Y91.573 E0.07305
G1 X84.889 Y90.303 E0.07305
G1 X84.034 Y88.824 E0.07305
G1 X83.506 Y87.199 E0.07305
G1 X83.328 Y85.500 E0.07304
G1 X83.506 Y83.801 E0.07304
G1 X84.034 Y82.176 E0.07306
G1 X84.894 Y80.690 E0.07337
G1 X86.032 Y79.427 E0.07270
G1 X87.414 Y78.423 E0.07305
G1 X88.975 Y77.728 E0.07305
G1 X90.646 Y77.373 E0.07305
G1 X92.354 Y77.373 E0.07305
G1 X94.025 Y77.728 E0.07305
G1 X95.586 Y78.423 E0.07305
G1 X96.968 Y79.427 E0.07305
G1 X98.111 Y80.697 E0.07305
G1 X98.966 Y82.176 E0.07305
G1 X99.494 Y83.801 E0.07305
G1 X99.672 Y85.500 E0.07304
G1 X99.494 Y87.199 E0.07304
G1 X98.966 Y88.824 E0.07306
G1 X98.106 Y90.310 E0.07337
G1 X96.968 Y91.573 E0.07270
;G1 X95.635 Y92.542 E0.07048 ; replaced by coast
G1 X95.635 Y92.542 Z0.24 E-0.0823991808212; coast(1.64798361642) & retract
G1 X95.635 Y92.542 Z0.24 E-0.3; & endwipe
;G1 X95.371 Y92.204 F7800.000 ; replaced by represure
G1 X95.437 Y92.2885 Z0.24 ; travel partially
G1 X95.371 Y92.204 E0.382399180821 F600; tipRepresure
G1 X93.892 Y92.862 E0.06919 F600.000
G1 X92.309 Y93.199 E0.06919
G1 X90.691 Y93.199 E0.06919
G1 X89.108 Y92.862 E0.06919
G1 X87.629 Y92.204 E0.06919
G1 X86.320 Y91.253 E0.06919
G1 X85.237 Y90.050 E0.06919
G1 X84.428 Y88.649 E0.06920
G1 X83.928 Y87.109 E0.06919
G1 X83.759 Y85.500 E0.06919
G1 X83.928 Y83.891 E0.06919
G1 X84.428 Y82.351 E0.06920
G1 X85.242 Y80.944 E0.06952
G1 X86.320 Y79.747 E0.06885
G1 X87.629 Y78.796 E0.06919
G1 X89.108 Y78.138 E0.06919
G1 X90.691 Y77.801 E0.06919
G1 X92.309 Y77.801 E0.06919
G1 X93.892 Y78.138 E0.06919
G1 X95.371 Y78.796 E0.06919
G1 X96.680 Y79.747 E0.06919
G1 X97.763 Y80.950 E0.06919
G1 X98.572 Y82.351 E0.06920
G1 X99.072 Y83.891 E0.06919
G1 X99.241 Y85.500 E0.06919
G1 X99.072 Y87.109 E0.06919
G1 X98.572 Y88.649 E0.06920
G1 X97.758 Y90.056 E0.06952
G1 X96.680 Y91.253 E0.06885
;G1 X95.419 Y92.169 E0.06663 ; replaced by coast
G1 X95.419 Y92.169 Z0.24 E-0.0779290863542; coast(1.55858172708) & retract
G1 X95.419 Y92.169 Z0.24 E-0.3; & endwipe
G1 X95.357 Y92.604 F7800.000
G1 X94.128 Y77.411 F7800.000
G1 X90.611 Y71.978 F7800.000
G1 X88.973 Y69.315 F7800.000
G1 X90.611 Y68.022 F7800.000
G1 X92.389 Y66.421 F7800.000
G1 X92.389 Y62.959 F7800.000
;G1 X92.354 Y62.627 F7800.000 ; replaced by represure
G1 X92.354 Y62.627 E0.377929086354 F600; tipRepresure
G1 X92.354 Y62.627 E0.5 F600; long travel extraShot
G1 X90.646 Y62.627 E0.07305 F600.000
G1 X88.975 Y62.272 E0.07305
G1 X87.414 Y61.577 E0.07305
G1 X86.032 Y60.573 E0.07305
G1 X84.889 Y59.303 E0.07305
G1 X84.034 Y57.824 E0.07305
G1 X83.506 Y56.199 E0.07305
G1 X83.328 Y54.500 E0.07304
G1 X83.506 Y52.801 E0.07304
G1 X84.034 Y51.176 E0.07305
G1 X84.889 Y49.697 E0.07305
G1 X86.032 Y48.427 E0.07305
G1 X87.414 Y47.423 E0.07305
G1 X88.975 Y46.728 E0.07304
G1 X90.638 Y46.374 E0.07270
G1 X92.354 Y46.373 E0.07337
G1 X94.025 Y46.728 E0.07306
G1 X95.586 Y47.423 E0.07304
G1 X96.968 Y48.427 E0.07305
G1 X98.111 Y49.697 E0.07305
G1 X98.966 Y51.176 E0.07305
G1 X99.494 Y52.801 E0.07305
G1 X99.672 Y54.500 E0.07304
G1 X99.494 Y56.199 E0.07304
G1 X98.966 Y57.824 E0.07305
G1 X98.111 Y59.303 E0.07305
G1 X96.968 Y60.573 E0.07305
G1 X95.586 Y61.577 E0.07305
G1 X94.025 Y62.272 E0.07305
;G1 X92.413 Y62.615 E0.07048 ; replaced by coast
G1 X92.413 Y62.615 Z0.24 E-0.0824043839853; coast(1.64808767971) & retract
G1 X92.413 Y62.615 Z0.24 E-0.3; & endwipe
;G1 X92.309 Y62.199 F7800.000 ; replaced by represure
G1 X92.335 Y62.303 Z0.24 ; travel partially
G1 X92.309 Y62.199 E0.382404383985 F600; tipRepresure
G1 X90.691 Y62.199 E0.06919 F600.000
G1 X89.108 Y61.862 E0.06919
G1 X87.629 Y61.204 E0.06919
G1 X86.320 Y60.253 E0.06919
G1 X85.237 Y59.050 E0.06919
G1 X84.428 Y57.649 E0.06920
G1 X83.928 Y56.109 E0.06919
G1 X83.759 Y54.500 E0.06919
G1 X83.928 Y52.891 E0.06919
G1 X84.428 Y51.351 E0.06920
G1 X85.237 Y49.950 E0.06920
G1 X86.320 Y48.747 E0.06919
G1 X87.629 Y47.796 E0.06919
G1 X89.108 Y47.138 E0.06919
G1 X90.683 Y46.803 E0.06885
G1 X92.309 Y46.801 E0.06952
G1 X93.892 Y47.138 E0.06920
G1 X95.371 Y47.796 E0.06919
G1 X96.680 Y48.747 E0.06919
G1 X97.763 Y49.950 E0.06919
G1 X98.572 Y51.351 E0.06920
G1 X99.072 Y52.891 E0.06920
G1 X99.241 Y54.500 E0.06919
G1 X99.072 Y56.109 E0.06919
G1 X98.572 Y57.649 E0.06919
G1 X97.763 Y59.050 E0.06920
G1 X96.680 Y60.253 E0.06919
G1 X95.371 Y61.204 E0.06919
G1 X93.892 Y61.862 E0.06919
;G1 X92.368 Y62.186 E0.06663 ; replaced by coast
G1 X92.368 Y62.186 Z0.24 E-0.0779030166297; coast(1.55806033259) & retract
G1 X92.368 Y62.186 Z0.24 E-0.3; & endwipe
G1 X92.134 Y62.558 F7800.000
;G1 X98.087 Y59.971 F7800.000 ; replaced by represure
G1 X93.5012946368 Y61.9638136695 Z0.24 ; travel partially
G1 X98.087 Y59.971 E0.37790301663 F600; tipRepresure
G1 X98.274 Y60.107 E0.00990 F600.000
G1 X97.049 Y62.230 E0.10481
G1 X95.814 Y66.028 E0.17075
G1 X95.397 Y70.000 E0.17075
G1 X95.814 Y73.972 E0.17078
G1 X97.060 Y77.789 E0.17166
G1 X98.274 Y79.893 E0.10385
G1 X98.087 Y80.029 E0.00990
G1 X97.257 Y79.107 E0.05306
G1 X95.802 Y78.050 E0.07690
G1 X94.158 Y77.318 E0.07690
G1 X92.399 Y76.944 E0.07690
G1 X90.601 Y76.944 E0.07690
G1 X88.842 Y77.318 E0.07690
G1 X87.198 Y78.050 E0.07690
G1 X85.743 Y79.107 E0.07690
G1 X84.546 Y80.437 E0.07654
G1 X83.641 Y82.000 E0.07723
G1 X83.085 Y83.711 E0.07692
G1 X82.897 Y85.500 E0.07690
G1 X83.085 Y87.289 E0.07690
G1 X83.641 Y88.999 E0.07690
G1 X84.540 Y90.557 E0.07690
G1 X85.743 Y91.893 E0.07690
G1 X87.198 Y92.950 E0.07690
G1 X88.842 Y93.682 E0.07690
G1 X90.601 Y94.056 E0.07690
G1 X92.399 Y94.056 E0.07690
G1 X94.158 Y93.682 E0.07690
G1 X95.802 Y92.950 E0.07690
G1 X97.257 Y91.893 E0.07690
G1 X98.454 Y90.563 E0.07654
G1 X99.359 Y89.000 E0.07723
G1 X99.915 Y87.289 E0.07692
G1 X100.103 Y85.500 E0.07690
G1 X99.915 Y83.711 E0.07690
G1 X99.359 Y82.001 E0.07690
G1 X99.231 Y81.779 E0.01096
G1 X99.418 Y81.643 E0.00990
G1 X101.718 Y84.196 E0.14691
G1 X104.948 Y86.544 E0.17075
G1 X108.597 Y88.168 E0.17075
G1 X112.503 Y88.998 E0.17075
G1 X116.497 Y88.998 E0.17075
G1 X120.403 Y88.168 E0.17075
G1 X124.052 Y86.544 E0.17075
G1 X127.282 Y84.196 E0.17075
G1 X129.955 Y81.228 E0.17075
G1 X131.951 Y77.770 E0.17075
G1 X133.186 Y73.972 E0.17075
G1 X133.383 Y72.097 E0.08060
G1 X139.403 Y72.097 E0.25740
G1 X139.403 Y81.403 E0.39788
G1 X132.228 Y81.403 E0.30679
G1 X127.895 Y84.727 E0.23347
G1 X124.448 Y87.231 E0.18216
G1 X120.650 Y88.923 E0.17779
G1 X92.483 Y94.846 E1.23060
G1 X90.518 Y94.846 E0.08404
G1 X88.596 Y94.437 E0.08399
G1 X86.703 Y93.594 E0.08860
G1 X56.058 Y79.442 E1.44324
G1 X55.077 Y78.729 E0.05184
G1 X55.142 Y78.547 E0.00824
G1 X55.964 Y78.597 E0.03520
G1 X57.112 Y78.081 E0.05382
G1 X57.888 Y77.090 E0.05381
G1 X58.144 Y75.694 E0.06067
G1 X59.460 Y76.280 E0.06159
G1 X60.810 Y76.567 E0.05902
G1 X62.190 Y76.567 E0.05902
G1 X63.540 Y76.280 E0.05902
G1 X64.856 Y75.694 E0.06159
G1 X65.112 Y77.090 E0.06067
G1 X65.888 Y78.081 E0.05381
G1 X67.036 Y78.597 E0.05382
G1 X68.293 Y78.521 E0.05382
G1 X69.370 Y77.870 E0.05382
G1 X70.021 Y76.793 E0.05382
G1 X70.097 Y75.536 E0.05381
G1 X69.581 Y74.389 E0.05382
G1 X68.590 Y73.612 E0.05382
G1 X67.148 Y73.348 E0.06267
G1 X67.532 Y72.687 E0.03268
G1 X67.959 Y71.373 E0.05908
G1 X68.103 Y70.000 E0.05902
G1 X67.959 Y68.627 E0.05902
G1 X67.532 Y67.314 E0.05902
G1 X67.150 Y66.652 E0.03272
G1 X68.590 Y66.388 E0.06260
G1 X69.581 Y65.611 E0.05382
G1 X70.097 Y64.464 E0.05382
G1 X70.021 Y63.207 E0.05381
G1 X69.370 Y62.130 E0.05382
G1 X68.293 Y61.479 E0.05382
G1 X67.036 Y61.403 E0.05382
G1 X65.888 Y61.919 E0.05382
G1 X65.112 Y62.910 E0.05381
G1 X64.856 Y64.306 E0.06067
G1 X63.540 Y63.720 E0.06159
G1 X62.190 Y63.433 E0.05902
G1 X60.810 Y63.433 E0.05902
G1 X59.460 Y63.720 E0.05902
G1 X58.144 Y64.306 E0.06159
G1 X57.888 Y62.910 E0.06067
G1 X57.112 Y61.919 E0.05381
G1 X55.964 Y61.403 E0.05382
G1 X55.142 Y61.453 E0.03520
G1 X55.077 Y61.271 E0.00824
G1 X56.057 Y60.559 E0.05182
G1 X88.603 Y45.561 E1.53215
G1 X90.517 Y45.155 E0.08366
G1 X92.495 Y45.157 E0.08456
G1 X120.650 Y51.077 E1.23010
G1 X124.448 Y52.769 E0.17779
G1 X127.895 Y55.273 E0.18216
G1 X132.228 Y58.597 E0.23347
G1 X139.403 Y58.597 E0.30679
G1 X139.403 Y67.903 E0.39788
G1 X133.383 Y67.903 E0.25740
G1 X133.186 Y66.028 E0.08060
G1 X131.951 Y62.230 E0.17075
G1 X129.955 Y58.772 E0.17075
G1 X127.282 Y55.804 E0.17075
G1 X124.052 Y53.456 E0.17075
G1 X120.403 Y51.832 E0.17075
G1 X116.497 Y51.002 E0.17075
G1 X112.503 Y51.002 E0.17075
G1 X108.597 Y51.832 E0.17075
G1 X104.948 Y53.456 E0.17075
G1 X101.718 Y55.804 E0.17075
G1 X99.418 Y58.357 E0.14691
G1 X99.231 Y58.221 E0.00990
G1 X99.359 Y57.999 E0.01096
G1 X99.915 Y56.289 E0.07690
G1 X100.103 Y54.500 E0.07690
G1 X99.915 Y52.711 E0.07690
G1 X99.359 Y51.001 E0.07690
G1 X98.460 Y49.443 E0.07690
G1 X97.257 Y48.107 E0.07690
G1 X95.802 Y47.050 E0.07690
G1 X94.158 Y46.318 E0.07690
G1 X92.399 Y45.944 E0.07692
G1 X90.593 Y45.946 E0.07722
G1 X88.842 Y46.318 E0.07654
G1 X87.198 Y47.050 E0.07690
G1 X85.743 Y48.107 E0.07690
G1 X84.540 Y49.443 E0.07690
G1 X83.641 Y51.001 E0.07690
G1 X83.085 Y52.711 E0.07690
G1 X82.897 Y54.500 E0.07690
G1 X83.085 Y56.289 E0.07690
G1 X83.641 Y57.999 E0.07690
G1 X84.540 Y59.557 E0.07690
G1 X85.743 Y60.893 E0.07690
G1 X87.198 Y61.950 E0.07690
G1 X88.842 Y62.682 E0.07690
G1 X90.601 Y63.056 E0.07690
G1 X92.399 Y63.056 E0.07690
G1 X94.158 Y62.682 E0.07690
G1 X95.802 Y61.950 E0.07690
G1 X97.257 Y60.893 E0.07690
;G1 X98.047 Y60.016 E0.05049 ; replaced by coast
G1 X98.047 Y60.016 Z0.24 E-0.0590175609459; coast(1.18035121892) & retract
G1 X98.047 Y60.016 Z0.24 E-0.3; & endwipe
G1 X88.081 Y70.000 F7800.000
G1 X79.627 Y70.000 F7800.000
G1 X78.374 Y65.122 F7800.000
G1 X77.812 Y63.429 F7800.000
G1 X77.614 Y62.772 F7800.000
G1 X69.926 Y63.237 F7800.000
;G1 X66.128 Y65.967 F7800.000 ; replaced by represure
G1 X66.128 Y65.967 E0.359017560946 F600; tipRepresure
G1 X66.128 Y65.967 E0.5 F600; long travel extraShot
G1 X66.493 Y66.372 E0.02332 F600.000
G1 X67.139 Y67.490 E0.05517
G1 X67.537 Y68.717 E0.05517
G1 X67.672 Y70.000 E0.05517
G1 X67.537 Y71.283 E0.05517
G1 X67.138 Y72.511 E0.05520
G1 X66.484 Y73.639 E0.05575
G1 X66.128 Y74.033 E0.02270
G1 X66.310 Y74.206 E0.01071
G1 X66.378 Y74.138 E0.00412
G1 X67.378 Y73.826 E0.04478
G1 X68.409 Y74.015 E0.04479
