; generated by Slic3r 1.2.9 on 2017-02-10 at 21:10:44

; external perimeters extrusion width = 0.40mm
; perimeters extrusion width = 0.48mm
; infill extrusion width = 0.48mm
; solid infill extrusion width = 0.48mm
; top infill extrusion width = 0.48mm

M104 S185 ; set temperature
G28 ; home all axes
G1 Z5 F5000 ; lift nozzle

M109 S185 ; wait for temperature to be reached
G21 ; set units to millimeters
G90 ; use absolute coordinates
M83 ; use relative distances for extrusion
G1 Z0.240 F7800.000
;G1 X64.139 Y36.171 F7800.000 ; replaced by represure
G1 X59.7838178625 Y33.7149078705 Z0.24 ; travel partially
G1 X64.139 Y36.171 E0.5 F600; long travel extraShot
G1 X65.913 Y34.546 E0.10287 F1800.000
G1 X68.120 Y33.588 E0.10287
G1 X69.830 Y33.372 E0.07366
G1 X113.072 Y33.080 E1.84889
G1 X120.121 Y33.080 E0.30139
G1 X122.494 Y33.477 E0.10287
G1 X124.608 Y34.625 E0.10287
G1 X126.233 Y36.400 E0.10287
G1 X127.191 Y38.607 E0.10287
G1 X127.407 Y40.365 E0.07575
G1 X127.406 Y55.185 E0.63361
G1 X126.821 Y99.439 E1.89226
G1 X126.393 Y101.806 E0.10287
G1 X125.217 Y103.905 E0.10287
G1 X123.421 Y105.506 E0.10287
G1 X121.202 Y106.435 E0.10287
G1 X119.537 Y106.628 E0.07166
G1 X69.879 Y106.628 E2.12314
G1 X67.506 Y106.231 E0.10287
G1 X65.392 Y105.082 E0.10287
G1 X63.767 Y103.308 E0.10287
G1 X62.809 Y101.101 E0.10287
G1 X62.593 Y99.342 E0.07575
G1 X62.593 Y40.658 E2.50910
G1 X62.991 Y38.285 E0.10287
;G1 X64.110 Y36.223 E0.10030 ; replaced by coast
G1 X64.11 Y36.223 Z0.24 E-0.11730307967; coast(2.34606159339) & retract
G1 X64.11 Y36.223 Z0.24 E-0.3; & endwipe
;G1 X64.564 Y36.325 F7800.000 ; replaced by represure
G1 X64.4505 Y36.2995 Z0.24 ; travel partially
G1 X64.564 Y36.325 E0.41730307967 F600; tipRepresure
G1 X66.325 Y34.793 E0.09977 F1800.000
G1 X68.497 Y33.941 E0.09977
G1 X69.832 Y33.801 E0.05740
G1 X113.075 Y33.508 E1.84889
G1 X120.121 Y33.508 E0.30127
G1 X122.421 Y33.905 E0.09977
G1 X124.454 Y35.051 E0.09977
G1 X125.985 Y36.811 E0.09977
G1 X126.838 Y38.984 E0.09977
G1 X126.978 Y40.365 E0.05937
G1 X126.978 Y55.179 E0.63337
G1 X126.393 Y99.433 E1.89226
G1 X125.966 Y101.727 E0.09977
G1 X124.793 Y103.745 E0.09977
G1 X123.013 Y105.253 E0.09977
G1 X120.829 Y106.076 E0.09977
G1 X119.537 Y106.199 E0.05552
G1 X69.879 Y106.199 E2.12314
G1 X67.579 Y105.802 E0.09977
G1 X65.546 Y104.657 E0.09977
G1 X64.015 Y102.896 E0.09977
G1 X63.162 Y100.724 E0.09977
G1 X63.022 Y99.342 E0.05937
G1 X63.022 Y40.658 E2.50910
G1 X63.419 Y38.358 E0.09977
;G1 X64.535 Y36.377 E0.09721 ; replaced by coast
G1 X64.535 Y36.377 Z0.24 E-0.113686157909; coast(2.27372315817) & retract
G1 X64.535 Y36.377 Z0.24 E-0.3; & endwipe
;G1 X64.989 Y36.485 F7800.000 ; replaced by represure
G1 X64.8755 Y36.458 Z0.24 ; travel partially
G1 X64.989 Y36.485 E0.413686157909 F600; tipRepresure
G1 X66.734 Y35.051 E0.09658 F1800.000
G1 X69.835 Y34.229 E0.13716
G1 X113.078 Y33.937 E1.84889
G1 X120.121 Y33.937 E0.30115
G1 X122.345 Y34.334 E0.09658
G1 X124.294 Y35.475 E0.09658
G1 X125.728 Y37.221 E0.09658
G1 X126.550 Y40.365 E0.13896
G1 X126.549 Y55.173 E0.63313
G1 X125.964 Y99.427 E1.89226
G1 X125.538 Y101.646 E0.09658
G1 X124.371 Y103.580 E0.09658
G1 X122.607 Y104.990 E0.09658
G1 X119.537 Y105.771 E0.13544
G1 X69.879 Y105.771 E2.12314
G1 X67.655 Y105.374 E0.09658
G1 X65.706 Y104.232 E0.09658
G1 X64.272 Y102.487 E0.09658
G1 X63.450 Y99.342 E0.13896
G1 X63.450 Y40.658 E2.50910
G1 X63.847 Y38.434 E0.09658
;G1 X64.959 Y36.536 E0.09402 ; replaced by coast
G1 X64.959 Y36.536 Z0.24 E-0.109988044805; coast(2.1997608961) & retract
G1 X64.959 Y36.536 Z0.24 E-0.3; & endwipe
;G1 X104.476 Y52.561 F7800.000 ; replaced by represure
G1 X99.8424912582 Y50.6820117775 Z0.24 ; travel partially
G1 X104.476 Y52.561 E0.409988044805 F600; tipRepresure
G1 X104.476 Y52.561 E0.5 F600; long travel extraShot
G1 X75.282 Y52.561 E1.24820 F600.000
G1 X75.282 Y54.284 E0.07368
G1 X70.976 Y54.284 E0.18411
G1 X70.976 Y52.864 E0.06073
G1 X71.930 Y52.439 E0.04467
G1 X72.793 Y51.811 E0.04561
G1 X73.507 Y51.019 E0.04561
G1 X74.041 Y50.095 E0.04561
G1 X74.368 Y49.087 E0.04530
G1 X74.482 Y48.020 E0.04588
G1 X74.370 Y46.958 E0.04565
G1 X74.041 Y45.944 E0.04561
G1 X73.507 Y45.020 E0.04561
G1 X72.793 Y44.227 E0.04561
G1 X71.930 Y43.600 E0.04561
G1 X70.976 Y43.175 E0.04467
G1 X70.976 Y41.755 E0.06073
G1 X75.282 Y41.755 E0.18411
G1 X75.282 Y43.478 E0.07368
G1 X104.476 Y43.478 E1.24820
G1 X104.476 Y41.755 E0.07368
G1 X108.282 Y41.755 E0.16273
G1 X108.282 Y54.284 E0.53570
G1 X104.476 Y54.284 E0.16273
;G1 X104.476 Y52.621 E0.07111 ; replaced by coast
G1 X104.476 Y52.621 Z0.24 E-0.08315; coast(1.663) & retract
G1 X104.476 Y52.621 Z0.24 E-0.3; & endwipe
;G1 X104.047 Y52.989 F7800.000 ; replaced by represure
G1 X104.15425 Y52.897 Z0.24 ; travel partially
G1 X104.047 Y52.989 E0.38315 F600; tipRepresure
G1 X75.710 Y52.989 E1.21156 F600.000
G1 X75.710 Y54.712 E0.07368
G1 X70.547 Y54.712 E0.22075
G1 X70.547 Y52.521 E0.09368
G1 X70.823 Y52.463 E0.01203
G1 X71.715 Y52.065 E0.04176
G1 X72.505 Y51.491 E0.04176
G1 X73.159 Y50.765 E0.04176
G1 X73.647 Y49.920 E0.04176
G1 X73.947 Y48.997 E0.04146
G1 X74.051 Y48.020 E0.04203
G1 X73.949 Y47.048 E0.04178
G1 X73.647 Y46.119 E0.04176
G1 X73.159 Y45.273 E0.04176
G1 X72.505 Y44.547 E0.04176
G1 X71.715 Y43.973 E0.04176
G1 X70.823 Y43.576 E0.04176
G1 X70.547 Y43.517 E0.01203
G1 X70.547 Y41.326 E0.09368
G1 X75.710 Y41.326 E0.22075
G1 X75.710 Y43.049 E0.07368
G1 X104.047 Y43.049 E1.21156
G1 X104.047 Y41.326 E0.07368
G1 X108.710 Y41.326 E0.19937
G1 X108.710 Y54.712 E0.57234
G1 X104.047 Y54.712 E0.19937
;G1 X104.047 Y53.049 E0.07111 ; replaced by coast
G1 X104.047 Y53.049 Z0.24 E-0.08315; coast(1.663) & retract
G1 X104.047 Y53.049 Z0.24 E-0.3; & endwipe
;G1 X103.619 Y53.418 F7800.000 ; replaced by represure
G1 X103.726 Y53.32575 Z0.24 ; travel partially
G1 X103.619 Y53.418 E0.38315 F600; tipRepresure
G1 X76.139 Y53.418 E1.17492 F600.000
G1 X76.139 Y55.141 E0.07368
G1 X70.119 Y55.141 E0.25739
G1 X70.119 Y52.174 E0.12684
G1 X70.689 Y52.053 E0.02494
G1 X71.500 Y51.692 E0.03791
G1 X72.217 Y51.171 E0.03791
G1 X72.810 Y50.512 E0.03791
G1 X73.253 Y49.744 E0.03791
G1 X73.525 Y48.907 E0.03763
G1 X73.620 Y48.019 E0.03818
G1 X73.527 Y47.137 E0.03792
G1 X73.253 Y46.294 E0.03791
G1 X72.810 Y45.526 E0.03791
G1 X72.217 Y44.867 E0.03791
G1 X71.500 Y44.346 E0.03791
G1 X70.689 Y43.985 E0.03791
G1 X70.119 Y43.864 E0.02494
G1 X70.119 Y40.898 E0.12684
G1 X76.139 Y40.898 E0.25739
G1 X76.139 Y42.621 E0.07368
G1 X103.619 Y42.621 E1.17492
G1 X103.619 Y40.898 E0.07368
G1 X109.139 Y40.898 E0.23601
G1 X109.139 Y55.141 E0.60898
G1 X103.619 Y55.141 E0.23601
;G1 X103.619 Y53.478 E0.07111 ; replaced by coast
G1 X103.619 Y53.478 Z0.24 E-0.08315; coast(1.663) & retract
G1 X103.619 Y53.478 Z0.24 E-0.3; & endwipe
G1 X103.619 Y53.018 F7800.000
;G1 X104.686 Y53.367 F7800.000 ; replaced by represure
G1 X104.41925 Y53.27975 Z0.24 ; travel partially
G1 X104.686 Y53.367 E0.38315 F600; tipRepresure
G1 X105.393 Y54.073 E0.04279 F600.000
G1 X106.000 Y54.073 E0.02599
;G1 X104.686 Y52.760 E0.07954 ; replaced by coast
G1 X104.686 Y52.76 Z0.24 E-0.0928784824381; coast(1.85756964876) & retract
G1 X104.686 Y52.76 Z0.24 E-0.3; & endwipe
;G1 X104.277 Y52.350 F7800.000 ; replaced by represure
G1 X104.37925 Y52.4525 Z0.24 ; travel partially
G1 X104.277 Y52.35 E0.392878482438 F600; tipRepresure
G1 X95.615 Y43.688 E0.52451 F600.000
G1 X96.222 Y43.688 E0.02599
G1 X106.607 Y54.073 E0.62886
G1 X107.214 Y54.073 E0.02599
G1 X96.829 Y43.688 E0.62886
G1 X97.435 Y43.688 E0.02599
G1 X107.820 Y54.073 E0.62886
G1 X108.071 Y53.717 E0.01865
G1 X98.042 Y43.688 E0.60731
G1 X98.649 Y43.688 E0.02599
G1 X108.071 Y53.111 E0.57056
G1 X108.071 Y52.504 E0.02599
G1 X99.256 Y43.688 E0.53381
G1 X99.863 Y43.688 E0.02599
G1 X108.071 Y51.897 E0.49706
G1 X108.071 Y51.290 E0.02599
G1 X100.470 Y43.688 E0.46031
G1 X101.077 Y43.688 E0.02599
G1 X108.071 Y50.683 E0.42356
G1 X108.071 Y50.076 E0.02599
G1 X101.684 Y43.688 E0.38681
G1 X102.290 Y43.688 E0.02599
G1 X108.071 Y49.469 E0.35007
G1 X108.071 Y48.862 E0.02599
G1 X102.897 Y43.688 E0.31332
G1 X103.504 Y43.688 E0.02599
G1 X108.071 Y48.256 E0.27657
G1 X108.071 Y47.649 E0.02599
G1 X104.111 Y43.688 E0.23982
G1 X104.686 Y43.657 E0.02467
G1 X108.071 Y47.042 E0.20498
G1 X108.071 Y46.435 E0.02599
G1 X104.686 Y43.050 E0.20498
G1 X104.686 Y42.443 E0.02599
G1 X108.071 Y45.828 E0.20498
G1 X108.071 Y45.221 E0.02599
G1 X104.815 Y41.965 E0.19717
G1 X105.422 Y41.965 E0.02599
G1 X108.071 Y44.614 E0.16043
G1 X108.071 Y44.007 E0.02599
G1 X106.029 Y41.965 E0.12368
G1 X106.636 Y41.965 E0.02599
G1 X108.071 Y43.401 E0.08693
G1 X108.071 Y42.794 E0.02599
G1 X107.243 Y41.965 E0.05018
G1 X107.850 Y41.965 E0.02599
;G1 X108.071 Y42.187 E0.01343 ; replaced by coast
G1 X108.071 Y42.187 Z0.24 E-0.0156624551077; coast(0.313249102154) & retract
G1 X108.071 Y42.187 Z0.24 E-0.3; & endwipe
;G1 X103.670 Y52.350 F7800.000 ; replaced by represure
G1 X105.656909515 Y47.7617333795 Z0.24 ; travel partially
G1 X103.67 Y52.35 E0.315662455108 F600; tipRepresure
G1 X95.008 Y43.688 E0.52451 F600.000
G1 X94.401 Y43.688 E0.02599
G1 X103.063 Y52.350 E0.52451
G1 X102.456 Y52.350 E0.02599
G1 X93.794 Y43.688 E0.52451
G1 X93.187 Y43.688 E0.02599
G1 X101.849 Y52.350 E0.52451
G1 X101.242 Y52.350 E0.02599
G1 X92.580 Y43.688 E0.52451
G1 X91.974 Y43.688 E0.02599
G1 X100.635 Y52.350 E0.52451
G1 X100.028 Y52.350 E0.02599
G1 X91.367 Y43.688 E0.52451
G1 X90.760 Y43.688 E0.02599
G1 X99.422 Y52.350 E0.52451
G1 X98.815 Y52.350 E0.02599
G1 X90.153 Y43.688 E0.52451
G1 X89.546 Y43.688 E0.02599
G1 X98.208 Y52.350 E0.52451
G1 X97.601 Y52.350 E0.02599
G1 X88.939 Y43.688 E0.52451
G1 X88.332 Y43.688 E0.02599
G1 X96.994 Y52.350 E0.52451
G1 X96.387 Y52.350 E0.02599
G1 X87.725 Y43.688 E0.52451
G1 X87.119 Y43.688 E0.02599
G1 X95.780 Y52.350 E0.52451
G1 X95.173 Y52.350 E0.02599
G1 X86.512 Y43.688 E0.52451
G1 X85.905 Y43.688 E0.02599
G1 X94.567 Y52.350 E0.52451
G1 X93.960 Y52.350 E0.02599
G1 X85.298 Y43.688 E0.52451
G1 X84.691 Y43.688 E0.02599
G1 X93.353 Y52.350 E0.52451
G1 X92.746 Y52.350 E0.02599
G1 X84.084 Y43.688 E0.52451
G1 X83.477 Y43.688 E0.02599
G1 X92.139 Y52.350 E0.52451
G1 X91.532 Y52.350 E0.02599
G1 X82.870 Y43.688 E0.52451
G1 X82.264 Y43.688 E0.02599
G1 X90.925 Y52.350 E0.52451
G1 X90.318 Y52.350 E0.02599
G1 X81.657 Y43.688 E0.52451
G1 X81.050 Y43.688 E0.02599
G1 X89.712 Y52.350 E0.52451
G1 X89.105 Y52.350 E0.02599
G1 X80.443 Y43.688 E0.52451
G1 X79.836 Y43.688 E0.02599
G1 X88.498 Y52.350 E0.52451
G1 X87.891 Y52.350 E0.02599
G1 X79.229 Y43.688 E0.52451
G1 X78.622 Y43.688 E0.02599
G1 X87.284 Y52.350 E0.52451
G1 X86.677 Y52.350 E0.02599
G1 X78.015 Y43.688 E0.52451
G1 X77.409 Y43.688 E0.02599
G1 X86.070 Y52.350 E0.52451
G1 X85.463 Y52.350 E0.02599
G1 X76.802 Y43.688 E0.52451
G1 X76.195 Y43.688 E0.02599
G1 X84.857 Y52.350 E0.52451
G1 X84.250 Y52.350 E0.02599
G1 X75.588 Y43.688 E0.52451
G1 X75.071 Y43.779 E0.02245
G1 X73.258 Y41.965 E0.10982
G1 X73.865 Y41.965 E0.02599
G1 X75.071 Y43.172 E0.07307
G1 X74.981 Y43.688 E0.02245
G1 X83.643 Y52.350 E0.52451
G1 X83.036 Y52.350 E0.02599
G1 X72.651 Y41.965 E0.62886
G1 X72.044 Y41.965 E0.02599
G1 X82.429 Y52.350 E0.62886
G1 X81.822 Y52.350 E0.02599
G1 X71.437 Y41.965 E0.62886
G1 X71.186 Y42.321 E0.01865
;G1 X72.615 Y43.749 E0.08649 ; replaced by coast
G1 X72.615 Y43.749 Z0.24 E-0.10101020988; coast(2.0202041976) & retract
G1 X72.615 Y43.749 Z0.24 E-0.3; & endwipe
;G1 X73.724 Y44.859 F7800.000 ; replaced by represure
G1 X73.44675 Y44.5815 Z0.24 ; travel partially
G1 X73.724 Y44.859 E0.40101020988 F600; tipRepresure
G1 X81.215 Y52.350 E0.45365 F600.000
G1 X80.609 Y52.350 E0.02599
G1 X74.342 Y46.083 E0.37949
G1 X74.590 Y46.938 E0.03814
G1 X80.002 Y52.350 E0.32770
G1 X79.395 Y52.350 E0.02599
G1 X74.661 Y47.617 E0.28663
G1 X74.663 Y48.225 E0.02604
G1 X78.788 Y52.350 E0.24980
G1 X78.181 Y52.350 E0.02599
G1 X74.604 Y48.773 E0.21660
G1 X74.502 Y49.278 E0.02207
G1 X77.574 Y52.350 E0.18601
G1 X76.967 Y52.350 E0.02599
G1 X74.354 Y49.736 E0.15827
G1 X74.194 Y50.184 E0.02033
G1 X76.360 Y52.350 E0.13119
G1 X75.754 Y52.350 E0.02599
G1 X73.972 Y50.568 E0.10789
G1 X73.750 Y50.953 E0.01902
G1 X75.147 Y52.350 E0.08459
G1 X75.071 Y52.882 E0.02299
G1 X73.488 Y51.298 E0.09587
G1 X73.201 Y51.618 E0.01840
G1 X75.071 Y53.489 E0.11329
G1 X75.049 Y54.073 E0.02506
G1 X72.913 Y51.937 E0.12936
G1 X72.563 Y52.194 E0.01859
G1 X74.442 Y54.073 E0.11379
G1 X73.836 Y54.073 E0.02599
G1 X72.212 Y52.450 E0.09832
G1 X71.835 Y52.680 E0.01891
G1 X73.229 Y54.073 E0.08440
G1 X72.622 Y54.073 E0.02599
G1 X71.415 Y52.867 E0.07308
G1 X71.186 Y53.245 E0.01892
G1 X72.015 Y54.073 E0.05018
G1 X71.408 Y54.073 E0.02599
;G1 X71.186 Y53.852 E0.01343 ; replaced by coast
G1 X71.186 Y53.852 Z0.24 E-0.0156624551077; coast(0.313249102154) & retract
G1 X71.186 Y53.852 Z0.24 E-0.3; & endwipe
;G1 X75.071 Y42.565 F7800.000 ; replaced by represure
G1 X73.4436931485 Y47.2927766879 Z0.24 ; travel partially
G1 X75.071 Y42.565 E0.315662455108 F600; tipRepresure
;G1 X74.472 Y41.965 E0.03633 F600.000 ; replaced by coast
G1 X74.472 Y41.965 Z0.24 E-0.0423910662758; coast(0.847821325516) & retract
G1 X74.472 Y41.965 Z0.24 E-0.3; & endwipe
G1 X75.069 Y67.984 F7800.000
G1 X75.069 Y67.984 F7800.000
G1 X75.328 Y70.000 F7800.000
G1 X75.069 Y72.016 F7800.000
;G1 X104.476 Y96.522 F7800.000 ; replaced by represure
G1 X100.634904308 Y93.321065154 Z0.24 ; travel partially
G1 X104.476 Y96.522 E0.342391066276 F600; tipRepresure
G1 X104.476 Y96.522 E0.5 F600; long travel extraShot
G1 X75.282 Y96.522 E1.24820 F600.000
G1 X75.282 Y98.245 E0.07368
G1 X70.976 Y98.245 E0.18411
G1 X70.976 Y96.825 E0.06073
G1 X71.930 Y96.400 E0.04467
G1 X72.793 Y95.773 E0.04561
G1 X73.507 Y94.980 E0.04561
G1 X74.041 Y94.056 E0.04561
G1 X74.368 Y93.049 E0.04530
G1 X74.482 Y91.982 E0.04588
G1 X74.370 Y90.920 E0.04565
G1 X74.041 Y89.905 E0.04561
G1 X73.507 Y88.981 E0.04561
G1 X72.793 Y88.189 E0.04561
G1 X71.930 Y87.561 E0.04561
G1 X70.976 Y87.136 E0.04467
G1 X70.976 Y85.716 E0.06073
G1 X75.282 Y85.716 E0.18411
G1 X75.282 Y87.439 E0.07368
G1 X104.476 Y87.439 E1.24820
G1 X104.476 Y85.716 E0.07368
G1 X108.282 Y85.716 E0.16273
G1 X108.282 Y98.245 E0.53570
G1 X104.476 Y98.245 E0.16273
;G1 X104.476 Y96.582 E0.07111 ; replaced by coast
G1 X104.476 Y96.582 Z0.24 E-0.08315; coast(1.663) & retract
G1 X104.476 Y96.582 Z0.24 E-0.3; & endwipe
;G1 X104.047 Y96.951 F7800.000 ; replaced by represure
G1 X104.15425 Y96.85875 Z0.24 ; travel partially
G1 X104.047 Y96.951 E0.38315 F600; tipRepresure
G1 X75.710 Y96.951 E1.21156 F600.000
G1 X75.710 Y98.674 E0.07368
G1 X70.547 Y98.674 E0.22075
G1 X70.547 Y96.483 E0.09368
G1 X70.823 Y96.424 E0.01203
G1 X71.715 Y96.027 E0.04176
G1 X72.505 Y95.453 E0.04176
G1 X73.159 Y94.727 E0.04176
G1 X73.647 Y93.881 E0.04176
G1 X73.947 Y92.959 E0.04146
G1 X74.051 Y91.981 E0.04203
G1 X73.949 Y91.009 E0.04178
G1 X73.647 Y90.080 E0.04176
G1 X73.159 Y89.235 E0.04176
G1 X72.505 Y88.509 E0.04176
G1 X71.715 Y87.935 E0.04176
G1 X70.823 Y87.537 E0.04176
G1 X70.547 Y87.479 E0.01203
G1 X70.547 Y85.288 E0.09368
G1 X75.710 Y85.288 E0.22075
G1 X75.710 Y87.011 E0.07368
G1 X104.047 Y87.011 E1.21156
G1 X104.047 Y85.288 E0.07368
G1 X108.710 Y85.288 E0.19937
G1 X108.710 Y98.674 E0.57234
G1 X104.047 Y98.674 E0.19937
;G1 X104.047 Y97.011 E0.07111 ; replaced by coast
G1 X104.047 Y97.011 Z0.24 E-0.08315; coast(1.663) & retract
G1 X104.047 Y97.011 Z0.24 E-0.3; & endwipe
;G1 X103.619 Y97.379 F7800.000 ; replaced by represure
G1 X103.726 Y97.287 Z0.24 ; travel partially
G1 X103.619 Y97.379 E0.38315 F600; tipRepresure
G1 X76.139 Y97.379 E1.17492 F600.000
G1 X76.139 Y99.102 E0.07368
G1 X70.119 Y99.102 E0.25739
G1 X70.119 Y96.136 E0.12684
G1 X70.689 Y96.015 E0.02494
G1 X71.500 Y95.654 E0.03791
G1 X72.217 Y95.133 E0.03791
G1 X72.810 Y94.474 E0.03791
G1 X73.253 Y93.706 E0.03791
G1 X73.525 Y92.869 E0.03763
G1 X73.620 Y91.981 E0.03818
G1 X73.527 Y91.099 E0.03792
G1 X73.253 Y90.256 E0.03791
G1 X72.810 Y89.488 E0.03791
G1 X72.217 Y88.829 E0.03791
G1 X71.500 Y88.308 E0.03791
G1 X70.689 Y87.947 E0.03791
G1 X70.119 Y87.826 E0.02494
G1 X70.119 Y84.859 E0.12684
G1 X76.139 Y84.859 E0.25739
